O1001
(FOR BEST MACHINING RESULTS THE FOLLOWING)
(PARAMETER SETTINGS ARE RECOMMENDED BY MAZAK)
(F85 BIT 2 IS 0 TYPE OF COORDINATE SYSTEM FOR CONTROLLING TOOL TIP POINT)
(F86 BIT 6 IS 1 TABLE ROTARY AXIS REFERENCE POSITION FOR TOOL TIP POINT CONTROL)
(F96 BIT 1 IS 1 AUTOMATIC CORRECTION)
(F114 BIT 1 IS 1 G49 ALLOWED MOVEMENT)
(F144 BIT 1 IS 1 TABLE ROTARY AXIS REFERENCE FOR INCLINED PLANE MACHINING)
(F162 BIT 0 IS 1 TOOL TIP POINT CONTROL MOVEMENT)

(T1 D=12.7 CR=6.35 - BALL END MILL)

(WARNING, NC PROGRAM REQUIRES PARAMETER F114 BIT1 TO BE SET TO 1)
; N10 IF[[#806114AND2]NE2]THEN#3000=91 (PARAMETER_F114_BIT1_MUST_BE_1)

; N15 G90 G94 G17 G49
; N20 G21
; N25 G53 G0 Z0.

; (MULTI-AXIS FINISHING1)
; N30 T1 M6
; N35 S5000 M3
; N40 G90 G94 G17
; N45 G54
; N50 M8
; N55 G68.2 X0. Y0. Z0. I-60.272 J89.982 K180.
; N60 G53.1
; N65 G0 X-57.622 Y1.67
; N70 G69
; N75 G43.5 H1

N80 G0 X61.882 Y-31.018 Z-1.682 I-0.86839 J-0.495882 K0.000316
N85 X51.786 Y-1.264 Z8.65 I-0.86839 J-0.495882 K0.000316
N90 X60.609 Y3.775 Z8.646 I-0.86839 J-0.495882 K0.000316
N95 G1 X69.432 Y8.813 Z8.643 I-0.86839 J-0.495882 K0.000316 
N100 X69.559 Y8.902 Z8.643 I-0.86839 J-0.495882 K0.000316
N105 X69.667 Y9.012 Z8.643 I-0.86839 J-0.495882 K0.000316
N110 X69.755 Y9.139 Z8.643 I-0.86839 J-0.495882 K0.000316
N115 X69.826 Y9.282 Z8.643 I-0.86839 J-0.495882 K0.000316
N120 X69.88 Y9.438 Z8.643 I-0.86839 J-0.495882 K0.000316
N125 X69.917 Y9.605 Z8.643 I-0.86839 J-0.495882 K0.000316
N130 X69.939 Y9.78 Z8.643 I-0.86839 J-0.495882 K0.000316
N135 X69.946 Y9.961 Z8.643 I-0.86839 J-0.495882 K0.000316
N140 X69.921 Y10.331 Z8.643 I-0.86839 J-0.495882 K0.000316
N145 X69.849 Y10.697 Z8.643 I-0.86839 J-0.495882 K0.000316
N150 X69.737 Y11.041 Z8.643 I-0.86839 J-0.495882 K0.000316
N155 X69.592 Y11.342 Z8.643 I-0.86839 J-0.495882 K0.000316
N160 X69.174 Y12.059 Z8.643 I-0.857529 J-0.514435 K0.000249
N165 X68.885 Y12.533 Z8.643 I-0.849749 J-0.527187 K0.000156
N170 X68.589 Y13.001 Z8.643 I-0.841554 J-0.540173 K0.000035
N175 X68.363 Y13.349 Z8.643 I-0.835143 J-0.550032 K-0.000071
N180 X68.134 Y13.693 Z8.643 I-0.828483 J-0.560014 K-0.000189
N185 X67.829 Y14.136 Z8.643 I-0.819444 J-0.573159 K-0.000354
N190 X67.517 Y14.574 Z8.643 I-0.809955 J-0.586491 K-0.000532
N195 X67.369 Y14.777 Z8.643 I-0.805347 J-0.592803 K-0.000618
N200 X67.219 Y14.98 Z8.643 I-0.800636 J-0.599151 K-0.000706
N205 X66.914 Y15.38 Z8.643 I-0.790901 J-0.611944 K-0.000884
N210 X66.667 Y15.695 Z8.643 I-0.782851 J-0.622208 K-0.001026
N215 X66.416 Y16.006 Z8.643 I-0.774528 J-0.632539 K-0.001167
N220 X66.138 Y16.342 Z8.643 I-0.765107 J-0.643901 K-0.001318
N225 X65.854 Y16.674 Z8.643 I-0.755352 J-0.655318 K-0.001463
N230 X65.576 Y16.99 Z8.643 I-0.745644 J-0.666343 K-0.001594
N235 X65.294 Y17.301 Z8.643 I-0.735619 J-0.677394 K-0.001715
N240 X65.046 Y17.567 Z8.643 I-0.726659 J-0.686996 K-0.001809
N245 X64.794 Y17.83 Z8.643 I-0.717461 J-0.696596 K-0.001893
N250 X64.456 Y18.171 Z8.643 I-0.704986 J-0.709219 K-0.001981
N255 X64.113 Y18.506 Z8.643 I-0.692105 J-0.721794 K-0.002041
N260 X63.805 Y18.797 Z8.643 I-0.680395 J-0.732843 K-0.002067
N265 X63.493 Y19.082 Z8.643 I-0.668382 J-0.743815 K-0.002064
N270 X63.175 Y19.363 Z8.643 I-0.656034 J-0.754729 K-0.002027
N275 X62.852 Y19.639 Z8.643 I-0.643396 J-0.765531 K-0.001952
N280 X62.524 Y19.911 Z8.643 I-0.630428 J-0.776246 K-0.001835
N285 X62.191 Y20.176 Z8.643 I-0.617197 J-0.786807 K-0.001672
N290 X61.852 Y20.437 Z8.643 I-0.603675 J-0.797229 K-0.001455
N295 X61.509 Y20.692 Z8.643 I-0.589919 J-0.807462 K-0.00118
N300 X61.161 Y20.942 Z8.643 I-0.575884 J-0.817531 K-0.000843
N305 X60.808 Y21.186 Z8.643 I-0.561655 J-0.827371 K-0.000438
N310 X60.45 Y21.425 Z8.643 I-0.547208 J-0.836997 K0.000042
N315 X60.087 Y21.658 Z8.643 I-0.532608 J-0.846362 K0.000603
N320 X59.751 Y21.866 Z8.643 I-0.519095 J-0.854716 K0.00119
N325 X59.412 Y22.068 Z8.643 I-0.505489 J-0.862831 K0.001851
N330 X59.002 Y22.303 Z8.643 I-0.48918 J-0.872178 K0.002746
N335 X58.588 Y22.53 Z8.643 I-0.472814 J-0.881154 K0.003759
N340 X58.202 Y22.733 Z8.643 I-0.457626 J-0.889132 K0.004807
N345 X57.812 Y22.93 Z8.643 I-0.442444 J-0.896776 K0.005966
N350 X57.416 Y23.121 Z8.643 I-0.427246 J-0.904107 K0.007247
N355 X57.017 Y23.305 Z8.643 I-0.41211 J-0.911093 K0.008649
N360 X56.613 Y23.484 Z8.643 I-0.396962 J-0.917779 K0.010183
N365 X56.206 Y23.656 Z8.643 I-0.381929 J-0.924116 K0.011846
N370 X55.795 Y23.822 Z8.643 I-0.36702 J-0.930113 K0.013645
N375 X55.381 Y23.982 Z8.643 I-0.35228 J-0.935765 K0.015578
N380 X54.963 Y24.135 Z8.643 I-0.337649 J-0.941106 K0.017657
N385 X54.542 Y24.283 Z8.643 I-0.323231 J-0.946111 K0.019876
N390 X54.116 Y24.424 Z8.643 I-0.308991 J-0.950805 K0.022249
N395 X53.689 Y24.56 Z8.643 I-0.295008 J-0.955174 K0.024765
N400 X53.257 Y24.69 Z8.643 I-0.281236 J-0.959246 K0.027436
N405 X52.823 Y24.814 Z8.643 I-0.267754 J-0.963012 K0.030254
N410 X52.385 Y24.932 Z8.643 I-0.254502 J-0.966501 K0.033238
N415 X51.945 Y25.045 Z8.643 I-0.241571 J-0.969701 K0.036371
N420 X51.501 Y25.152 Z8.643 I-0.228894 J-0.972643 K0.03967
N425 X51.056 Y25.254 Z8.643 I-0.216559 J-0.975317 K0.04312
N430 X50.606 Y25.351 Z8.643 I-0.204523 J-0.977745 K0.046741
N435 X50.155 Y25.443 Z8.643 I-0.192853 J-0.979927 K0.050513
N440 X49.698 Y25.53 Z8.643 I-0.181414 J-0.981896 K0.054486
N445 X49.239 Y25.612 Z8.643 I-0.170358 J-0.983637 K0.058613
N450 X48.67 Y25.707 Z8.643 I-0.157222 J-0.985492 K0.063925
N455 X48.099 Y25.794 Z8.643 I-0.144661 J-0.98704 K0.06947
N460 X47.665 Y25.856 Z8.643 I-0.135496 J-0.988023 K0.073839
N465 X47.23 Y25.913 Z8.643 I-0.126675 J-0.988846 K0.07834
N470 X46.908 Y25.954 Z8.643 I-0.120381 J-0.989356 K0.081755
N475 X46.585 Y25.992 Z8.643 I-0.114268 J-0.989786 K0.08524
N480 X45.94 Y26.062 Z8.643 I-0.102605 J-0.990418 K0.092431
N485 X45.262 Y26.129 Z8.643 I-0.091161 J-0.990775 K0.10027
N490 X44.923 Y26.159 Z8.643 I-0.085737 J-0.990842 K0.104312
N495 X44.583 Y26.187 Z8.643 I-0.080501 J-0.990839 K0.10843
N500 X43.877 Y26.241 Z8.643 I-0.070237 J-0.990616 K0.117248
N505 X43.17 Y26.288 Z8.643 I-0.060793 J-0.990113 K0.126416
N510 X42.391 Y26.332 Z8.643 I-0.051324 J-0.98925 K0.136931
N515 X42.001 Y26.351 Z8.643 I-0.046953 J-0.988701 K0.142356
N520 X41.61 Y26.369 Z8.643 I-0.042814 J-0.988077 K0.147889
N525 X41.112 Y26.389 Z8.643 I-0.037875 J-0.987169 K0.155122
N530 X40.614 Y26.407 Z8.643 I-0.033303 J-0.986141 K0.162535
N535 X40.115 Y26.423 Z8.643 I-0.029104 J-0.984989 K0.170144
N540 X39.616 Y26.437 Z8.643 I-0.025262 J-0.983717 K0.177939
N545 X39.081 Y26.45 Z8.643 I-0.021548 J-0.982215 K0.186518
N550 X38.546 Y26.46 Z8.643 I-0.018236 J-0.98057 K0.195321
N555 X38.011 Y26.47 Z8.643 I-0.015327 J-0.978776 K0.20436
N560 X37.476 Y26.477 Z8.642 I-0.012803 J-0.976831 K0.213628
N565 X36.504 Y26.488 Z8.643 I-0.009214 J-0.972887 K0.231096
N570 X35.532 Y26.496 Z8.643 I-0.006861 J-0.968382 K0.249379
N575 X34.559 Y26.502 Z8.643 I-0.005709 J-0.963264 K0.268497
; N580 X33.366 Y26.51 Z8.644 I-0.005904 J-0.956053 K0.293135
; N585 X32.173 Y26.518 Z8.644 I-0.00778 J-0.947702 K0.319062
; N590 X30.981 Y26.53 Z8.643 I-0.011227 J-0.938085 K0.346223
; N595 X30.231 Y26.54 Z8.644 I-0.014227 J-0.931281 K0.364024
; N600 X29.481 Y26.553 Z8.644 I-0.017774 J-0.923883 K0.382263
; N605 X28.732 Y26.569 Z8.643 I-0.021834 J-0.915857 K0.400911
; N610 X28.04 Y26.588 Z8.645 I-0.026147 J-0.907758 K0.418679
; N615 X27.347 Y26.61 Z8.645 I-0.030831 J-0.899063 K0.436732
; N620 X26.655 Y26.634 Z8.643 I-0.035846 J-0.889755 K0.455028
; N625 X26.241 Y26.653 Z8.644 I-0.039106 J-0.883792 K0.466242
; N630 X25.827 Y26.672 Z8.645 I-0.042462 J-0.877597 K0.477515
; N635 X25.413 Y26.693 Z8.644 I-0.045904 J-0.871167 K0.488837
; N640 X24.999 Y26.715 Z8.643 I-0.049423 J-0.864501 K0.500196
; N645 X24.175 Y26.767 Z8.645 I-0.056889 J-0.850275 K0.523255
; N650 X23.351 Y26.825 Z8.643 I-0.064523 J-0.835095 K0.546308
; N655 X22.586 Y26.89 Z8.645 I-0.072016 J-0.819827 K0.568064
; N660 X22.204 Y26.924 Z8.645 I-0.075766 J-0.811889 K0.578875
; N665 X21.821 Y26.96 Z8.644 I-0.079498 J-0.803756 K0.589623
; N670 X21.309 Y27.013 Z8.645 I-0.08466 J-0.792347 K0.604168
; N675 X20.796 Y27.069 Z8.644 I-0.08975 J-0.780606 K0.618545
; N680 X20.417 Y27.116 Z8.645 I-0.093635 J-0.771533 K0.629261
; N685 X20.039 Y27.163 Z8.646 I-0.097446 J-0.762298 K0.639849
; N690 X19.66 Y27.212 Z8.645 I-0.101177 J-0.752902 K0.650309
; N695 X19.282 Y27.263 Z8.644 I-0.104814 J-0.743361 K0.660627
; N700 X18.598 Y27.366 Z8.646 I-0.111555 J-0.725294 K0.679341
; N705 X17.915 Y27.474 Z8.644 I-0.11789 J-0.706837 K0.697483
; N710 X17.362 Y27.57 Z8.646 I-0.122967 J-0.69134 K0.711989
; N715 X16.81 Y27.67 Z8.644 I-0.127697 J-0.67568 K0.726051
; N720 X16.321 Y27.766 Z8.646 I-0.131817 J-0.661432 K0.738331
; N725 X15.832 Y27.865 Z8.644 I-0.135617 J-0.647125 K0.750225
; N730 X15.244 Y27.994 Z8.646 I-0.14004 J-0.629567 K0.764222
; N735 X14.657 Y28.126 Z8.644 I-0.143949 J-0.612025 K0.777627
; N740 X14.026 Y28.281 Z8.646 I-0.147921 J-0.592861 K0.791603
; N745 X13.396 Y28.439 Z8.643 I-0.151231 J-0.573845 K0.804879
; N750 X12.617 Y28.652 Z8.644 I-0.154856 J-0.550153 K0.82058
; N755 X11.441 Y28.998 Z8.643 I-0.158766 J-0.514734 K0.842521
; N760 X10.455 Y29.312 Z8.643 I-0.160622 J-0.485486 K0.859362
; N765 X10.608 Y29.712 Z8.897 I-0.174423 J-0.481105 K0.859136
; N770 X11.865 Y29.306 Z8.915 I-0.171823 J-0.516442 K0.838907
; N775 X12.836 Y29.015 Z8.929 I-0.168385 J-0.544293 K0.821822
; N780 X13.81 Y28.744 Z8.942 I-0.163806 J-0.572472 K0.803395
; N785 X14.395 Y28.594 Z8.952 I-0.16061 J-0.589369 K0.791737
; N790 X14.98 Y28.447 Z8.958 I-0.156872 J-0.606433 K0.779507
; N795 X15.558 Y28.313 Z8.967 I-0.153 J-0.623033 K0.767086
; N800 X16.136 Y28.182 Z8.973 I-0.148652 J-0.639703 K0.754111
; N805 X16.793 Y28.046 Z8.984 I-0.143511 J-0.658286 K0.738961
; N810 X17.452 Y27.914 Z8.99 I-0.137821 J-0.676831 K0.723122
; N815 X18.127 Y27.793 Z9.001 I-0.131904 J-0.695219 K0.706592
; N820 X18.803 Y27.676 Z9.008 I-0.125523 J-0.713405 K0.689418
; N825 X19.512 Y27.566 Z9.018 I-0.118761 J-0.731785 K0.671108
; N830 X20.223 Y27.461 Z9.024 I-0.111645 J-0.749777 K0.652203
; N835 X20.922 Y27.369 Z9.034 I-0.104705 J-0.766644 K0.633478
; N840 X21.622 Y27.282 Z9.039 I-0.09757 J-0.783007 K0.614312
; N845 X22.339 Y27.204 Z9.048 I-0.090458 J-0.798841 K0.594702
; N850 X23.056 Y27.13 Z9.053 I-0.083272 J-0.814058 K0.574782
; N855 X23.438 Y27.096 Z9.058 I-0.079591 J-0.821737 K0.564282
; N860 X23.819 Y27.063 Z9.062 I-0.075916 J-0.829231 K0.553727
; N865 X24.201 Y27.031 Z9.065 I-0.072259 J-0.836533 K0.543131
; N870 X24.392 Y27.015 Z9.066 I-0.07044 J-0.840111 K0.537821
; N875 X24.583 Y27. Z9.067 I-0.068624 J-0.843645 K0.532498
; N880 X25.177 Y26.958 Z9.074 I-0.063241 J-0.854146 K0.516174
; N885 X25.475 Y26.938 Z9.076 I-0.060599 J-0.859215 K0.508013
; N890 X25.772 Y26.918 Z9.078 I-0.057991 J-0.864168 K0.499851
; N895 X26.367 Y26.882 Z9.081 I-0.052904 J-0.873706 K0.483569
; N900 X26.703 Y26.864 Z9.084 I-0.050208 J-0.878795 K0.474551
; N905 X27.038 Y26.847 Z9.087 I-0.047584 J-0.883729 K0.465574
; N910 X27.709 Y26.815 Z9.091 I-0.042554 J-0.893152 K0.447737
; N915 X28.045 Y26.8 Z9.093 I-0.040157 J-0.897643 K0.438889
; N920 X28.381 Y26.786 Z9.094 I-0.037839 J-0.901995 K0.430086
; N925 X29.226 Y26.757 Z9.1 I-0.032579 J-0.912205 K0.408437
; N930 X30.072 Y26.731 Z9.105 I-0.027946 J-0.921562 K0.387225
; N935 X30.919 Y26.708 Z9.108 I-0.024002 J-0.9301 K0.366521
; N940 X32.252 Y26.68 Z9.114 I-0.01941 J-0.941944 K0.335209
; N945 X32.919 Y26.667 Z9.116 I-0.017854 J-0.94721 K0.320116
; N950 X33.252 Y26.661 Z9.117 I-0.017266 J-0.949693 K0.312707
; N955 X33.586 Y26.656 Z9.118 I-0.016814 J-0.952073 K0.305407
; N960 X34.252 Y26.645 Z9.119 I-0.016309 J-0.956555 K0.291095
; N965 X34.919 Y26.634 Z9.121 I-0.016365 J-0.960671 K0.277208
; N970 X35.25 Y26.628 Z9.122 I-0.0166 J-0.96259 K0.270452
; N975 X35.582 Y26.623 Z9.123 I-0.016977 J-0.964429 K0.263795
; N980 X36.038 Y26.615 Z9.124 I-0.017713 J-0.966839 K0.254773
; N985 X36.494 Y26.607 Z9.124 I-0.018726 J-0.969102 K0.245949
; N990 X36.95 Y26.598 Z9.125 I-0.020019 J-0.971227 K0.237311
; N995 X37.405 Y26.588 Z9.126 I-0.021598 J-0.973218 K0.228866
; N1000 X38.317 Y26.567 Z9.129 I-0.025619 J-0.976818 K0.212532
; N1005 X39.247 Y26.54 Z9.13 I-0.030894 J-0.980012 K0.196527
; N1010 X40.177 Y26.508 Z9.132 I-0.037445 J-0.982718 K0.181281
; N1015 X41.147 Y26.468 Z9.132 I-0.045618 J-0.985058 K0.16607
; N1020 X42.117 Y26.418 Z9.134 I-0.055249 J-0.986889 K0.151647
; N1025 X42.707 Y26.384 Z9.135 I-0.061827 J-0.987763 K0.143187
; N1030 X43.002 Y26.365 Z9.135 I-0.065329 J-0.988127 K0.139059
; N1035 X43.297 Y26.345 Z9.135 I-0.068975 J-0.988441 K0.135004
; N1040 X43.812 Y26.307 Z9.136 I-0.07567 J-0.988874 K0.128069
; N1045 X44.326 Y26.266 Z9.136 I-0.082815 J-0.98915 K0.121339
; N1050 X44.837 Y26.221 Z9.136 I-0.090346 J-0.989269 K0.114826
; N1055 X45.348 Y26.173 Z9.137 I-0.098322 J-0.98922 K0.108518
; N1060 X45.855 Y26.12 Z9.137 I-0.106681 J-0.989004 K0.102424
; N1065 X46.108 Y26.092 Z9.137 I-0.11103 J-0.988828 K0.099453
; N1070 X46.36 Y26.063 Z9.138 I-0.115492 J-0.988606 K0.096534
; N1075 X46.639 Y26.03 Z9.138 I-0.120541 J-0.988308 K0.093362
; N1080 X46.918 Y25.995 Z9.138 I-0.125731 J-0.987951 K0.090249
; N1085 X47.623 Y25.901 Z9.138 I-0.139525 J-0.986769 K0.082584
; N1090 X47.976 Y25.85 Z9.138 I-0.146773 J-0.986019 K0.078895
; N1095 X48.327 Y25.796 Z9.138 I-0.154239 J-0.98516 K0.075303
; N1100 X48.931 Y25.697 Z9.138 I-0.167583 J-0.983418 K0.06932
; N1105 X49.233 Y25.645 Z9.138 I-0.174503 J-0.982413 K0.066437
; N1110 X49.533 Y25.59 Z9.139 I-0.18159 J-0.981314 K0.063625
; N1115 X50.078 Y25.486 Z9.139 I-0.194871 J-0.979072 K0.058682
; N1120 X50.622 Y25.374 Z9.139 I-0.20869 J-0.976491 K0.053977
; N1125 X50.926 Y25.307 Z9.139 I-0.216682 J-0.974887 K0.051427
; N1130 X51.229 Y25.238 Z9.139 I-0.224843 J-0.973165 K0.048952
; N1135 X51.532 Y25.167 Z9.139 I-0.233175 J-0.97132 K0.046552
; N1140 X51.834 Y25.093 Z9.139 I-0.241665 J-0.969351 K0.044227
; N1145 X52.335 Y24.964 Z9.139 I-0.256122 J-0.965796 K0.040506
; N1150 X52.834 Y24.828 Z9.14 I-0.270998 J-0.961869 K0.036991
; N1155 X53.267 Y24.703 Z9.139 I-0.28431 J-0.958127 K0.03408
; N1160 X53.698 Y24.572 Z9.14 I-0.297914 J-0.954079 K0.031324
; N1165 X54.126 Y24.435 Z9.139 I-0.311733 J-0.949736 K0.028719
; N1170 X54.551 Y24.292 Z9.14 I-0.325814 J-0.945069 K0.026266
; N1175 X54.971 Y24.143 Z9.14 I-0.340078 J-0.940092 K0.023964
; N1180 X55.389 Y23.988 Z9.14 I-0.354558 J-0.93478 K0.021808
; N1185 X55.803 Y23.828 Z9.14 I-0.369155 J-0.929157 K0.019795
; N1190 X56.214 Y23.66 Z9.14 I-0.383924 J-0.923191 K0.017922
; N1195 X56.621 Y23.487 Z9.14 I-0.398824 J-0.916885 K0.016183
; N1200 X57.025 Y23.308 Z9.14 I-0.413845 J-0.910231 K0.014577
; N1205 X57.434 Y23.118 Z9.14 I-0.42923 J-0.903101 K0.013066
; N1210 X57.839 Y22.921 Z9.14 I-0.444687 J-0.89561 K0.011685
; N1215 X58.226 Y22.724 Z9.14 I-0.459647 J-0.88804 K0.010468
; N1220 X58.61 Y22.522 Z9.14 I-0.474614 J-0.880144 K0.009364
; N1225 X58.989 Y22.313 Z9.14 I-0.489509 J-0.871958 K0.008364
; N1230 X59.365 Y22.098 Z9.14 I-0.504361 J-0.863461 K0.007467
; N1235 X59.733 Y21.879 Z9.14 I-0.519014 J-0.85474 K0.00667
; N1240 X60.097 Y21.654 Z9.14 I-0.533572 J-0.845733 K0.005964
; N1245 X60.46 Y21.42 Z9.14 I-0.548105 J-0.836393 K0.005334
; N1250 X60.818 Y21.181 Z9.14 I-0.562491 J-0.82679 K0.004785
; N1255 X61.171 Y20.936 Z9.14 I-0.576665 J-0.81697 K0.00431
; N1260 X61.52 Y20.685 Z9.14 I-0.590649 J-0.806919 K0.003903
; N1265 X61.863 Y20.429 Z9.14 I-0.604359 J-0.796704 K0.003558
; N1270 X62.202 Y20.168 Z9.14 I-0.617839 J-0.786298 K0.003271
; N1275 X62.535 Y19.902 Z9.14 I-0.631032 J-0.775751 K0.003036
; N1280 X62.864 Y19.63 Z9.14 I-0.643967 J-0.765048 K0.002848
; N1285 X63.187 Y19.353 Z9.14 I-0.656573 J-0.754258 K0.002699
; N1290 X63.505 Y19.072 Z9.14 I-0.668893 J-0.743355 K0.002589
; N1295 X63.818 Y18.786 Z9.14 I-0.680879 J-0.732392 K0.00251
; N1300 X64.126 Y18.495 Z9.14 I-0.692566 J-0.72135 K0.00246
; N1305 X64.447 Y18.181 Z9.14 I-0.704623 J-0.709577 K0.002431
; N1310 X64.764 Y17.861 Z9.14 I-0.716327 J-0.697761 K0.002426
; N1315 X65.037 Y17.576 Z9.14 I-0.726299 J-0.687374 K0.002436
; N1320 X65.306 Y17.288 Z9.14 I-0.735997 J-0.676981 K0.002458
; N1325 X65.588 Y16.976 Z9.14 I-0.746003 J-0.665938 K0.00249
; N1330 X65.866 Y16.661 Z9.14 I-0.755695 J-0.654919 K0.002529
; N1335 X66.138 Y16.342 Z9.14 I-0.765041 J-0.643977 K0.002572
; N1340 X66.406 Y16.02 Z9.14 I-0.774081 J-0.633082 K0.002616
; N1345 X66.752 Y15.589 Z9.14 I-0.785532 J-0.618815 K0.002671
; N1350 X66.922 Y15.371 Z9.14 I-0.791062 J-0.61173 K0.002696
; N1355 X67.09 Y15.151 Z9.14 I-0.796465 J-0.604679 K0.002718
; N1360 X67.237 Y14.956 Z9.14 I-0.801131 J-0.598483 K0.002735
; N1365 X67.382 Y14.76 Z9.14 I-0.8057 J-0.592318 K0.002748
; N1370 X67.669 Y14.363 Z9.14 I-0.814549 J-0.580088 K0.002762
; N1375 X67.961 Y13.947 Z9.14 I-0.823347 J-0.567531 K0.002756
; N1380 X68.247 Y13.525 Z9.14 I-0.83175 J-0.555144 K0.002724
; N1385 X68.536 Y13.085 Z9.14 I-0.84003 J-0.542533 K0.002658
; N1390 X68.819 Y12.64 Z9.14 I-0.847923 J-0.530113 K0.002553
; N1395 X69.3 Y11.849 Z9.14 I-0.860875 J-0.508812 K0.00225
; N1400 X69.569 Y11.381 Z9.14 I-0.867846 J-0.49683 K0.001964
; N1405 X69.563 Y11.396 Z9.637 I-0.867891 J-0.496741 K0.003723
; N1410 X69.358 Y11.752 Z9.637 I-0.862556 J-0.505944 K0.004182
; N1415 X69.043 Y12.28 Z9.637 I-0.854136 J-0.520028 K0.004744
; N1420 X68.717 Y12.806 Z9.637 I-0.845162 J-0.534486 K0.005201
; N1425 X68.382 Y13.325 Z9.637 I-0.835668 J-0.549207 K0.005567
; N1430 X68.07 Y13.791 Z9.637 I-0.826581 J-0.562788 K0.005833
; N1435 X67.751 Y14.251 Z9.637 I-0.817027 J-0.576568 K0.006048
; N1440 X67.474 Y14.639 Z9.637 I-0.808502 J-0.58846 K0.006196
; N1445 X67.19 Y15.022 Z9.637 I-0.799617 J-0.600477 K0.006318
; N1450 X66.879 Y15.43 Z9.637 I-0.789615 J-0.61357 K0.006425
; N1455 X66.72 Y15.632 Z9.637 I-0.784449 J-0.62016 K0.006472
; N1460 X66.56 Y15.833 Z9.637 I-0.779173 J-0.626776 K0.006515
; N1465 X66.393 Y16.039 Z9.637 I-0.773584 J-0.63366 K0.006556
; N1470 X66.223 Y16.244 Z9.637 I-0.767874 J-0.640567 K0.006594
; N1475 X65.879 Y16.649 Z9.637 I-0.756086 J-0.654439 K0.006667
; N1480 X65.602 Y16.965 Z9.637 I-0.746408 J-0.665455 K0.006724
; N1485 X65.32 Y17.276 Z9.637 I-0.736418 J-0.676493 K0.006784
; N1490 X65.032 Y17.585 Z9.637 I-0.726052 J-0.687606 K0.00685
; N1495 X64.739 Y17.89 Z9.637 I-0.715375 J-0.698707 K0.006927
; N1500 X64.441 Y18.19 Z9.637 I-0.704375 J-0.709793 K0.007017
; N1505 X64.139 Y18.485 Z9.637 I-0.693066 J-0.720839 K0.007126
; N1510 X63.831 Y18.776 Z9.637 I-0.681402 J-0.731873 K0.007256
; N1515 X63.519 Y19.063 Z9.637 I-0.669442 J-0.742827 K0.007412
; N1520 X63.2 Y19.345 Z9.637 I-0.657151 J-0.753721 K0.007599
; N1525 X62.877 Y19.622 Z9.637 I-0.644578 J-0.764499 K0.007823
; N1530 X62.548 Y19.895 Z9.637 I-0.631677 J-0.775189 K0.008085
; N1535 X62.215 Y20.162 Z9.637 I-0.618523 J-0.785722 K0.008394
; N1540 X61.876 Y20.424 Z9.637 I-0.605085 J-0.796112 K0.008753
; N1545 X61.532 Y20.68 Z9.637 I-0.591423 J-0.806309 K0.009171
; N1550 X61.183 Y20.932 Z9.637 I-0.577491 J-0.81634 K0.009649
; N1555 X60.83 Y21.177 Z9.637 I-0.563374 J-0.826139 K0.010195
; N1560 X60.471 Y21.418 Z9.637 I-0.549051 J-0.835719 K0.010816
; N1565 X60.108 Y21.652 Z9.637 I-0.534588 J-0.845034 K0.011518
; N1570 X59.743 Y21.878 Z9.637 I-0.520095 J-0.85402 K0.012296
; N1575 X59.375 Y22.098 Z9.637 I-0.505513 J-0.862719 K0.013163
; N1580 X58.998 Y22.314 Z9.637 I-0.490706 J-0.871211 K0.014135
; N1585 X58.618 Y22.525 Z9.637 I-0.475863 J-0.879388 K0.015211
; N1590 X58.233 Y22.729 Z9.637 I-0.460963 J-0.887268 K0.016392
; N1595 X57.845 Y22.926 Z9.637 I-0.446078 J-0.89482 K0.017686
; N1600 X57.442 Y23.123 Z9.637 I-0.430826 J-0.902232 K0.019135
; N1605 X57.035 Y23.313 Z9.637 I-0.415651 J-0.909288 K0.020715
; N1610 X56.631 Y23.493 Z9.637 I-0.400762 J-0.915909 K0.022398
; N1615 X56.224 Y23.668 Z9.637 I-0.385997 J-0.922182 K0.024215
; N1620 X55.813 Y23.836 Z9.637 I-0.37137 J-0.928116 K0.026167
; N1625 X55.4 Y23.998 Z9.637 I-0.35692 J-0.933707 K0.02826
; N1630 X54.982 Y24.154 Z9.636 I-0.342594 J-0.938988 K0.030498
; N1635 X54.561 Y24.304 Z9.637 I-0.328488 J-0.943935 K0.032885
; N1640 X54.137 Y24.448 Z9.636 I-0.314572 J-0.948573 K0.035424
; N1645 X53.71 Y24.586 Z9.636 I-0.30092 J-0.952887 K0.038118
; N1650 X53.279 Y24.719 Z9.636 I-0.287488 J-0.956908 K0.040966
; N1655 X52.847 Y24.845 Z9.636 I-0.274351 J-0.960624 K0.043972
; N1660 X52.352 Y24.983 Z9.636 I-0.259784 J-0.964494 K0.047572
; N1665 X51.856 Y25.112 Z9.636 I-0.245633 J-0.968 K0.051381
; N1670 X51.552 Y25.188 Z9.636 I-0.237217 J-0.969966 K0.05379
; N1675 X51.248 Y25.261 Z9.635 I-0.228963 J-0.971807 K0.056277
; N1680 X50.943 Y25.331 Z9.635 I-0.22088 J-0.973524 K0.058843
; N1685 X50.638 Y25.399 Z9.636 I-0.212969 J-0.975122 K0.061488
; N1690 X50.098 Y25.513 Z9.635 I-0.199434 J-0.977665 K0.066317
; N1695 X49.557 Y25.62 Z9.635 I-0.186433 J-0.97987 K0.071392
; N1700 X49.256 Y25.676 Z9.634 I-0.179449 J-0.980958 K0.074299
; N1705 X48.954 Y25.73 Z9.634 I-0.172632 J-0.98195 K0.077281
; N1710 X48.35 Y25.832 Z9.634 I-0.159496 J-0.983663 K0.083472
; N1715 X48. Y25.888 Z9.633 I-0.152178 J-0.984501 K0.087175
; N1720 X47.649 Y25.941 Z9.633 I-0.145079 J-0.985228 K0.090979
; N1725 X46.946 Y26.039 Z9.633 I-0.131578 J-0.986361 K0.098888
; N1730 X46.666 Y26.076 Z9.632 I-0.126459 J-0.9867 K0.102128
; N1735 X46.386 Y26.111 Z9.632 I-0.121483 J-0.986978 K0.105432
; N1740 X46.006 Y26.156 Z9.631 I-0.11496 J-0.987262 K0.109995
; N1745 X45.879 Y26.171 Z9.631 I-0.112842 J-0.987332 K0.111545
; N1750 X45.372 Y26.227 Z9.631 I-0.104655 J-0.987498 K0.117873
; N1755 X44.861 Y26.279 Z9.63 I-0.096855 J-0.98749 K0.124427
; N1760 X44.349 Y26.327 Z9.629 I-0.089503 J-0.987308 K0.131198
; N1765 X43.834 Y26.372 Z9.628 I-0.082543 J-0.986959 K0.138195
; N1770 X43.319 Y26.413 Z9.628 I-0.076037 J-0.986445 K0.145412
; N1775 X42.801 Y26.451 Z9.626 I-0.069933 J-0.98577 K0.152863
; N1780 X42.283 Y26.486 Z9.626 I-0.064274 J-0.984934 K0.16054
; N1785 X41.498 Y26.534 Z9.623 I-0.056506 J-0.98338 K0.17254
; N1790 X41.106 Y26.555 Z9.622 I-0.052989 J-0.982468 K0.178741
; N1795 X40.713 Y26.576 Z9.622 I-0.049714 J-0.981465 K0.18508
; N1800 X40.227 Y26.599 Z9.62 I-0.04596 J-0.980108 K0.193069
; N1805 X39.74 Y26.621 Z9.618 I-0.042568 J-0.978609 K0.201275
; N1810 X39.254 Y26.641 Z9.617 I-0.039535 J-0.976968 K0.209692
; N1815 X38.767 Y26.66 Z9.616 I-0.036858 J-0.975179 K0.218331
; N1820 X38.304 Y26.676 Z9.613 I-0.034599 J-0.973353 K0.226688
; N1825 X37.841 Y26.692 Z9.611 I-0.032653 J-0.971387 K0.235247
; N1830 X37.378 Y26.706 Z9.609 I-0.03101 J-0.969279 K0.244001
; N1835 X36.915 Y26.72 Z9.607 I-0.029669 J-0.967022 K0.252958
; N1840 X35.989 Y26.747 Z9.604 I-0.027877 J-0.962042 K0.271474
; N1845 X35.673 Y26.756 Z9.602 I-0.027514 J-0.960206 K0.277935
; N1850 X35.069 Y26.772 Z9.598 I-0.027179 J-0.956472 K0.290557
; N1855 X34.465 Y26.788 Z9.594 I-0.027313 J-0.95244 K0.3035
; N1860 X33.861 Y26.804 Z9.591 I-0.027914 J-0.948086 K0.316787
; N1865 X33.257 Y26.821 Z9.587 I-0.028957 J-0.943402 K0.330386
; N1870 X32.049 Y26.857 Z9.578 I-0.032342 J-0.932957 K0.358531
; N1875 X31.199 Y26.885 Z9.571 I-0.035731 J-0.924669 K0.379093
; N1880 X30.348 Y26.917 Z9.564 I-0.039875 J-0.915569 K0.40018
; N1885 X29.499 Y26.952 Z9.554 I-0.044713 J-0.905622 K0.421723
; N1890 X29.175 Y26.967 Z9.551 I-0.046756 J-0.901581 K0.430077
; N1895 X28.852 Y26.983 Z9.548 I-0.048885 J-0.897411 K0.438478
; N1900 X28.205 Y27.016 Z9.54 I-0.053399 J-0.888671 K0.455425
; N1905 X27.559 Y27.051 Z9.53 I-0.058211 J-0.879399 K0.472513
; N1910 X26.921 Y27.091 Z9.522 I-0.063354 J-0.869608 K0.489662
; N1915 X26.603 Y27.113 Z9.518 I-0.066019 J-0.864506 K0.498267
; N1920 X26.284 Y27.135 Z9.513 I-0.068733 J-0.859274 K0.506876
; N1925 X25.647 Y27.181 Z9.502 I-0.074297 J-0.848415 K0.524092
; N1930 X24.93 Y27.241 Z9.491 I-0.080935 J-0.835368 K0.543699
; N1935 X24.213 Y27.304 Z9.478 I-0.08771 J-0.821665 K0.563181
; N1940 X23.49 Y27.377 Z9.466 I-0.094815 J-0.806986 K0.582909
; N1945 X22.767 Y27.455 Z9.451 I-0.101919 J-0.791703 K0.602345
; N1950 X22.425 Y27.495 Z9.445 I-0.105381 J-0.784135 K0.611578
; N1955 X22.083 Y27.537 Z9.438 I-0.108818 J-0.776447 K0.620716
; N1960 X21.399 Y27.624 Z9.422 I-0.1156 J-0.76073 K0.638692
; N1965 X20.671 Y27.728 Z9.409 I-0.122972 J-0.743156 K0.657721
; N1970 X19.943 Y27.837 Z9.39 I-0.130055 J-0.725193 K0.676152
; N1975 X19.56 Y27.9 Z9.383 I-0.133818 J-0.715393 K0.685788
; N1980 X19.177 Y27.964 Z9.374 I-0.137474 J-0.705518 K0.69523
; N1985 X18.412 Y28.097 Z9.353 I-0.14442 J-0.68559 K0.713519
; N1990 X18.042 Y28.168 Z9.344 I-0.147763 J-0.675661 K0.722253
; N1995 X17.672 Y28.24 Z9.335 I-0.150963 J-0.665709 K0.730781
; N2000 X17.026 Y28.375 Z9.32 I-0.15641 J-0.648051 K0.745363
; N2005 X16.381 Y28.513 Z9.301 I-0.161347 J-0.630436 K0.759288
; N2010 X15.869 Y28.632 Z9.289 I-0.165133 J-0.616235 K0.770056
; N2015 X15.358 Y28.753 Z9.274 I-0.168565 J-0.602127 K0.780403
; N2020 X14.701 Y28.922 Z9.259 I-0.172785 J-0.583779 K0.793314
; N2025 X14.046 Y29.095 Z9.24 I-0.176363 J-0.565687 K0.80554
; N2030 X13.076 Y29.371 Z9.214 I-0.180907 J-0.538981 K0.822661
; N2035 X11.72 Y29.793 Z9.179 I-0.185519 J-0.502195 K0.84462
; N2040 X10.763 Y30.111 Z9.152 I-0.187305 J-0.4769 K0.858768
; N2045 X10.92 Y30.508 Z9.407 I-0.199298 J-0.472831 K0.858319
; N2050 X12.266 Y30.054 Z9.46 I-0.1963 J-0.506619 K0.839525
; N2055 X13.593 Y29.643 Z9.51 I-0.191311 J-0.540878 K0.819055
; N2060 X14.262 Y29.454 Z9.539 I-0.188216 J-0.558283 K0.808019
; N2065 X14.931 Y29.268 Z9.563 I-0.184477 J-0.576035 K0.796337
; N2070 X15.44 Y29.137 Z9.584 I-0.181452 J-0.58947 K0.787147
; N2075 X15.949 Y29.008 Z9.603 I-0.178083 J-0.603062 K0.777562
; N2080 X16.63 Y28.848 Z9.631 I-0.173365 J-0.621058 K0.76435
; N2085 X17.312 Y28.691 Z9.654 I-0.168075 J-0.639244 K0.750412
; N2090 X17.993 Y28.549 Z9.682 I-0.162618 J-0.657069 K0.736081
; N2095 X18.674 Y28.412 Z9.706 I-0.156667 J-0.67495 K0.72104
; N2100 X19.413 Y28.276 Z9.735 I-0.150088 J-0.693836 K0.704319
; N2105 X19.783 Y28.21 Z9.747 I-0.146632 J-0.70324 K0.695667
; N2110 X20.153 Y28.146 Z9.759 I-0.143078 J-0.712602 K0.686823
; N2115 X20.898 Y28.027 Z9.785 I-0.135965 J-0.730888 K0.668817
; N2120 X21.645 Y27.913 Z9.808 I-0.128544 J-0.748876 K0.650124
; N2125 X22.302 Y27.823 Z9.83 I-0.122108 J-0.764064 K0.633479
; N2130 X22.631 Y27.78 Z9.84 I-0.118844 J-0.771528 K0.624996
; N2135 X22.96 Y27.737 Z9.849 I-0.115551 J-0.778901 K0.616409
; N2140 X23.704 Y27.649 Z9.872 I-0.10827 J-0.794945 K0.596943
; N2145 X24.449 Y27.566 Z9.891 I-0.100965 J-0.810423 K0.57708
; N2150 X24.811 Y27.529 Z9.901 I-0.097526 J-0.817615 K0.567446
; N2155 X25.173 Y27.493 Z9.911 I-0.094104 J-0.82466 K0.557746
; N2160 X25.897 Y27.425 Z9.927 I-0.087367 J-0.838269 K0.538211
; N2165 X26.58 Y27.368 Z9.945 I-0.081346 J-0.850333 K0.51992
; N2170 X27.262 Y27.314 Z9.96 I-0.075528 J-0.861813 K0.501571
; N2175 X27.946 Y27.264 Z9.972 I-0.069969 J-0.872689 K0.483237
; N2180 X28.842 Y27.206 Z9.991 I-0.063304 J-0.885891 K0.459554
; N2185 X29.738 Y27.154 Z10.007 I-0.057248 J-0.898069 K0.436114
; N2190 X30.581 Y27.109 Z10.02 I-0.052234 J-0.90856 K0.414475
; N2195 X31.425 Y27.068 Z10.032 I-0.0479 J-0.918191 K0.393232
; N2200 X32.268 Y27.03 Z10.043 I-0.044308 J-0.926989 K0.372462
; N2205 X33.435 Y26.982 Z10.056 I-0.040668 J-0.937852 K0.344644
; N2210 X34.018 Y26.96 Z10.062 I-0.039458 J-0.942749 K0.33116
; N2215 X34.601 Y26.938 Z10.067 I-0.038665 J-0.947315 K0.317963
; N2220 X35.185 Y26.916 Z10.073 I-0.038314 J-0.951556 K0.305081
; N2225 X35.477 Y26.905 Z10.076 I-0.038304 J-0.953561 K0.298754
; N2230 X35.881 Y26.89 Z10.08 I-0.038473 J-0.956222 K0.290103
; N2235 X35.994 Y26.886 Z10.081 I-0.038558 J-0.956939 K0.287717
; N2240 X36.468 Y26.867 Z10.084 I-0.039073 J-0.959858 K0.277752
; N2245 X36.943 Y26.849 Z10.087 I-0.039902 J-0.96259 K0.268008
; N2250 X37.418 Y26.83 Z10.09 I-0.041045 J-0.965146 K0.258474
; N2255 X37.892 Y26.81 Z10.093 I-0.042512 J-0.967529 K0.249161
; N2260 X38.367 Y26.79 Z10.097 I-0.044302 J-0.969748 K0.240056
; N2265 X38.841 Y26.769 Z10.1 I-0.046424 J-0.971805 K0.231171
; N2270 X39.223 Y26.75 Z10.102 I-0.048345 J-0.973361 K0.224121
; N2275 X39.604 Y26.731 Z10.104 I-0.050489 J-0.974817 K0.217215
; N2280 X40.368 Y26.691 Z10.108 I-0.055445 J-0.977439 K0.20381
; N2285 X41.331 Y26.633 Z10.111 I-0.062933 J-0.980234 K0.187563
; N2290 X42.293 Y26.568 Z10.116 I-0.071902 J-0.982439 K0.172173
; N2295 X42.812 Y26.529 Z10.117 I-0.077342 J-0.983395 K0.164171
; N2300 X43.331 Y26.487 Z10.119 I-0.083232 J-0.984179 K0.156407
; N2305 X43.847 Y26.442 Z10.12 I-0.08953 J-0.984793 K0.148889
; N2310 X44.362 Y26.394 Z10.122 I-0.096286 J-0.98523 K0.141603
; N2315 X44.875 Y26.342 Z10.123 I-0.10344 J-0.985492 K0.134555
; N2320 X45.387 Y26.286 Z10.124 I-0.111047 J-0.985572 K0.127736
; N2325 X45.895 Y26.227 Z10.125 I-0.119043 J-0.985469 K0.121157
; N2330 X46.148 Y26.196 Z10.125 I-0.123213 J-0.985346 K0.117951
; N2335 X46.402 Y26.164 Z10.126 I-0.127498 J-0.985172 K0.114802
; N2340 X46.689 Y26.126 Z10.127 I-0.132488 J-0.984917 K0.11129
; N2345 X46.976 Y26.087 Z10.127 I-0.137629 J-0.984595 K0.107848
; N2350 X47.677 Y25.984 Z10.128 I-0.150825 J-0.983522 K0.099686
; N2355 X48.026 Y25.929 Z10.128 I-0.15777 J-0.982822 K0.095762
; N2360 X48.376 Y25.872 Z10.129 I-0.164932 J-0.98201 K0.091944
; N2365 X48.978 Y25.767 Z10.129 I-0.177797 J-0.980341 K0.08556
; N2370 X49.278 Y25.712 Z10.13 I-0.184477 J-0.979369 K0.082486
; N2375 X49.578 Y25.654 Z10.131 I-0.191323 J-0.978303 K0.079491
; N2380 X50.118 Y25.545 Z10.131 I-0.20409 J-0.976132 K0.074254
; N2385 X50.657 Y25.428 Z10.132 I-0.217391 J-0.973623 K0.069274
; N2390 X50.962 Y25.359 Z10.131 I-0.225189 J-0.97204 K0.066539
; N2395 X51.267 Y25.287 Z10.131 I-0.233158 J-0.970338 K0.063886
; N2400 X51.571 Y25.213 Z10.132 I-0.241301 J-0.968511 K0.061315
; N2405 X51.875 Y25.136 Z10.132 I-0.249606 J-0.966559 K0.058826
; N2410 X52.369 Y25.004 Z10.132 I-0.263505 J-0.963094 K0.054909
; N2415 X52.861 Y24.866 Z10.133 I-0.277818 J-0.959268 K0.051205
; N2420 X53.293 Y24.738 Z10.133 I-0.290775 J-0.955582 K0.048099
; N2425 X53.723 Y24.603 Z10.133 I-0.30403 J-0.951592 K0.045157
; N2430 X54.15 Y24.464 Z10.133 I-0.31751 J-0.947308 K0.04237
; N2435 X54.574 Y24.318 Z10.133 I-0.331258 J-0.942703 K0.039741
; N2440 X54.994 Y24.167 Z10.133 I-0.345202 J-0.937788 K0.037266
; N2445 X55.412 Y24.01 Z10.134 I-0.35937 J-0.932541 K0.034943
; N2450 X55.825 Y23.847 Z10.133 I-0.373669 J-0.926983 K0.032765
; N2455 X56.236 Y23.678 Z10.134 I-0.388149 J-0.921084 K0.030732
; N2460 X56.643 Y23.502 Z10.134 I-0.402775 J-0.914845 K0.028833
; N2465 X57.047 Y23.32 Z10.134 I-0.41753 J-0.90826 K0.027072
; N2470 X57.453 Y23.13 Z10.134 I-0.432551 J-0.901251 K0.025415
; N2475 X57.855 Y22.932 Z10.134 I-0.447654 J-0.893888 K0.023889
; N2480 X58.244 Y22.734 Z10.134 I-0.462462 J-0.886353 K0.022516
; N2485 X58.63 Y22.528 Z10.134 I-0.47729 J-0.878489 K0.021258
; N2490 X59.012 Y22.317 Z10.134 I-0.492078 J-0.870319 K0.020104
; N2495 X59.39 Y22.099 Z10.134 I-0.506836 J-0.861832 K0.019055
; N2500 X59.757 Y21.878 Z10.134 I-0.521286 J-0.853189 K0.018118
; N2505 X60.121 Y21.652 Z10.134 I-0.535654 J-0.844261 K0.017271
; N2510 X60.484 Y21.417 Z10.134 I-0.550046 J-0.834972 K0.016494
; N2515 X60.843 Y21.176 Z10.134 I-0.564303 J-0.825416 K0.0158
; N2520 X61.197 Y20.93 Z10.134 I-0.578361 J-0.815639 K0.01518
; N2525 X61.546 Y20.678 Z10.134 I-0.592241 J-0.805628 K0.014628
; N2530 X61.89 Y20.42 Z10.134 I-0.605854 J-0.79545 K0.014135
; N2535 X62.229 Y20.157 Z10.134 I-0.619247 J-0.785077 K0.013701
; N2540 X62.562 Y19.89 Z10.134 I-0.632362 J-0.774559 K0.013317
; N2545 X62.891 Y19.617 Z10.134 I-0.645227 J-0.76388 K0.012978
; N2550 X63.215 Y19.339 Z10.134 I-0.657768 J-0.753114 K0.012676
; N2555 X63.533 Y19.056 Z10.134 I-0.67003 J-0.74223 K0.01241
; N2560 X63.846 Y18.769 Z10.134 I-0.681964 J-0.731285 K0.012173
; N2565 X64.154 Y18.477 Z10.134 I-0.693605 J-0.720256 K0.011962
; N2570 X64.509 Y18.129 Z10.134 I-0.70684 J-0.707276 K0.011736
; N2575 X64.684 Y17.953 Z10.134 I-0.713299 J-0.700763 K0.011631
; N2580 X64.857 Y17.774 Z10.134 I-0.719654 J-0.694237 K0.011532
; N2585 X65.018 Y17.606 Z10.134 I-0.725511 J-0.688115 K0.011441
; N2590 X65.178 Y17.436 Z10.134 I-0.731277 J-0.681986 K0.011352
; N2595 X65.336 Y17.265 Z10.134 I-0.736945 J-0.675859 K0.011265
; N2600 X65.493 Y17.093 Z10.134 I-0.742517 J-0.669734 K0.011179
; N2605 X65.664 Y16.902 Z10.134 I-0.748526 J-0.663013 K0.011084
; N2610 X65.833 Y16.709 Z10.134 I-0.754421 J-0.656299 K0.010988
; N2615 X66.166 Y16.319 Z10.134 I-0.76587 J-0.642904 K0.010793
; N2620 X66.473 Y15.948 Z10.134 I-0.776217 J-0.630377 K0.010598
; N2625 X66.774 Y15.571 Z10.134 I-0.786167 J-0.617927 K0.010386
; N2630 X66.946 Y15.35 Z10.134 I-0.791761 J-0.610744 K0.010253
; N2635 X67.116 Y15.128 Z10.134 I-0.797228 J-0.603594 K0.010111
; N2640 X67.45 Y14.678 Z10.134 I-0.807779 J-0.589404 K0.009796
; N2645 X67.627 Y14.434 Z10.134 I-0.81324 J-0.58185 K0.009606
; N2650 X67.801 Y14.188 Z10.134 I-0.818559 J-0.574345 K0.009401
; N2655 X67.973 Y13.94 Z10.134 I-0.823739 J-0.566895 K0.009177
; N2660 X68.143 Y13.691 Z10.134 I-0.828783 J-0.559499 K0.008935
; N2665 X68.416 Y13.28 Z10.134 I-0.836746 J-0.547525 K0.008489
; N2670 X68.831 Y12.631 Z10.134 I-0.848492 J-0.529153 K0.007659
; N2675 X69.262 Y11.921 Z10.134 I-0.860251 J-0.509829 K0.006538
; N2680 X69.539 Y11.444 Z10.134 I-0.867572 J-0.49728 K0.005628
; N2685 X69.53 Y11.464 Z10.631 I-0.86776 J-0.496926 K0.007532
; N2690 X69.458 Y11.594 Z10.631 I-0.865836 J-0.500264 K0.007939
; N2695 X69.155 Y12.108 Z10.631 I-0.857716 J-0.514042 K0.009218
; N2700 X68.846 Y12.615 Z10.631 I-0.849162 J-0.528031 K0.010318
; N2705 X68.577 Y13.041 Z10.631 I-0.841552 J-0.540061 K0.011129
; N2710 X68.302 Y13.462 Z10.631 I-0.833602 J-0.552238 K0.011845
; N2715 X68.007 Y13.9 Z10.631 I-0.824873 J-0.56518 K0.012507
; N2720 X67.705 Y14.333 Z10.631 I-0.815732 J-0.578282 K0.013092
; N2725 X67.42 Y14.73 Z10.631 I-0.806864 J-0.590581 K0.013573
; N2730 X67.128 Y15.122 Z10.631 I-0.797621 J-0.602996 K0.014006
; N2735 X66.961 Y15.341 Z10.631 I-0.792237 J-0.610047 K0.014232
; N2740 X66.791 Y15.559 Z10.631 I-0.78673 J-0.617128 K0.014445
; N2745 X66.448 Y15.989 Z10.631 I-0.775338 J-0.631372 K0.014845
; N2750 X66.181 Y16.312 Z10.631 I-0.766324 J-0.642277 K0.015126
; N2755 X65.909 Y16.631 Z10.631 I-0.757012 J-0.653219 K0.015394
; N2760 X65.566 Y17.021 Z10.631 I-0.745039 J-0.666835 K0.015714
; N2765 X65.392 Y17.214 Z10.631 I-0.738877 J-0.673654 K0.015871
; N2770 X65.216 Y17.405 Z10.631 I-0.732596 J-0.680475 K0.016029
; N2775 X65.075 Y17.556 Z10.631 I-0.727497 J-0.68592 K0.016153
; N2780 X64.932 Y17.706 Z10.631 I-0.722326 J-0.691361 K0.016279
; N2785 X64.789 Y17.856 Z10.631 I-0.717083 J-0.696795 K0.016406
; N2790 X64.644 Y18.003 Z10.631 I-0.711769 J-0.702219 K0.016536
; N2795 X64.501 Y18.147 Z10.631 I-0.706497 J-0.70752 K0.016664
; N2800 X64.357 Y18.29 Z10.631 I-0.701156 J-0.71281 K0.016796
; N2805 X64.212 Y18.431 Z10.631 I-0.695744 J-0.71809 K0.016931
; N2810 X64.066 Y18.572 Z10.631 I-0.690263 J-0.723357 K0.01707
; N2815 X63.767 Y18.853 Z10.631 I-0.678953 J-0.733977 K0.017363
; N2820 X63.464 Y19.129 Z10.631 I-0.667385 J-0.744503 K0.017679
; N2825 X63.154 Y19.402 Z10.631 I-0.655469 J-0.755007 K0.018023
; N2830 X62.84 Y19.67 Z10.631 I-0.643296 J-0.765396 K0.018401
; N2835 X62.518 Y19.936 Z10.631 I-0.630739 J-0.775767 K0.018816
; N2840 X62.192 Y20.197 Z10.631 I-0.61796 J-0.785973 K0.019274
; N2845 X61.859 Y20.454 Z10.631 I-0.604865 J-0.796083 K0.019783
; N2850 X61.522 Y20.706 Z10.631 I-0.591563 J-0.806002 K0.020347
; N2855 X61.178 Y20.954 Z10.631 I-0.577938 J-0.815811 K0.020972
; N2860 X60.83 Y21.197 Z10.631 I-0.564153 J-0.825386 K0.021664
; N2865 X60.474 Y21.435 Z10.631 I-0.550118 J-0.834785 K0.02243
; N2870 X60.114 Y21.668 Z10.631 I-0.535958 J-0.843923 K0.023278
; N2875 X59.756 Y21.892 Z10.631 I-0.521868 J-0.852683 K0.024191
; N2880 X59.393 Y22.109 Z10.631 I-0.507706 J-0.861162 K0.025193
; N2885 X59.015 Y22.328 Z10.631 I-0.493044 J-0.869606 K0.026321
; N2890 X58.633 Y22.54 Z10.631 I-0.478358 J-0.877733 K0.027555
; N2895 X58.238 Y22.751 Z10.631 I-0.463297 J-0.885731 K0.028926
; N2900 X57.84 Y22.955 Z10.631 I-0.448269 J-0.893381 K0.03042
; N2905 X57.442 Y23.151 Z10.631 I-0.43347 J-0.900599 K0.032016
; N2910 X57.041 Y23.34 Z10.631 I-0.418757 J-0.907471 K0.033742
; N2915 X56.633 Y23.524 Z10.63 I-0.404008 J-0.914062 K0.03561
; N2920 X56.222 Y23.702 Z10.631 I-0.389403 J-0.920299 K0.037619
; N2925 X55.806 Y23.874 Z10.63 I-0.374905 J-0.926209 K0.039774
; N2930 X55.387 Y24.04 Z10.63 I-0.3606 J-0.931771 K0.042081
; N2935 X54.963 Y24.2 Z10.63 I-0.346382 J-0.937035 K0.044547
; N2940 X54.536 Y24.355 Z10.63 I-0.332407 J-0.941956 K0.047174
; N2945 X54.103 Y24.504 Z10.63 I-0.318609 J-0.946568 K0.04997
; N2950 X53.669 Y24.646 Z10.63 I-0.305092 J-0.950851 K0.052934
; N2955 X53.229 Y24.784 Z10.629 I-0.291773 J-0.954843 K0.056073
; N2960 X52.788 Y24.916 Z10.629 I-0.278774 J-0.958519 K0.059388
; N2965 X52.341 Y25.042 Z10.629 I-0.26601 J-0.961917 K0.06289
; N2970 X51.892 Y25.163 Z10.628 I-0.253589 J-0.965018 K0.066576
; N2975 X51.59 Y25.241 Z10.628 I-0.245431 J-0.966945 K0.069141
; N2980 X51.286 Y25.317 Z10.627 I-0.237434 J-0.968747 K0.07179
; N2985 X50.983 Y25.39 Z10.627 I-0.22961 J-0.970425 K0.074524
; N2990 X50.678 Y25.461 Z10.627 I-0.221959 J-0.971984 K0.077343
; N2995 X50.138 Y25.58 Z10.626 I-0.208845 J-0.974462 K0.082504
; N3000 X49.597 Y25.693 Z10.626 I-0.196269 J-0.976599 K0.087935
; N3005 X49.299 Y25.751 Z10.625 I-0.189594 J-0.977635 K0.091011
; N3010 X49.001 Y25.808 Z10.625 I-0.183084 J-0.978577 K0.094168
; N3015 X48.404 Y25.916 Z10.624 I-0.170551 J-0.980187 K0.100728
; N3020 X48.056 Y25.975 Z10.623 I-0.16355 J-0.980967 K0.104665
; N3025 X47.707 Y26.032 Z10.622 I-0.156766 J-0.981634 K0.108714
; N3030 X47.009 Y26.139 Z10.621 I-0.143888 J-0.982637 K0.117139
; N3035 X46.394 Y26.225 Z10.619 I-0.133291 J-0.98318 K0.124864
; N3040 X46.087 Y26.266 Z10.618 I-0.128252 J-0.983336 K0.128852
; N3045 X45.778 Y26.305 Z10.618 I-0.123382 J-0.983415 K0.132932
; N3050 X45.341 Y26.358 Z10.617 I-0.116744 J-0.983409 K0.138843
; N3055 X44.902 Y26.409 Z10.616 I-0.110445 J-0.983258 K0.144933
; N3060 X44.463 Y26.457 Z10.614 I-0.10446 J-0.982971 K0.15118
; N3065 X44.024 Y26.502 Z10.613 I-0.098808 J-0.982546 K0.157607
; N3070 X43.584 Y26.545 Z10.611 I-0.093474 J-0.98199 K0.164189
; N3075 X43.144 Y26.585 Z10.609 I-0.088476 J-0.981299 K0.170951
; N3080 X42.197 Y26.665 Z10.603 I-0.078787 J-0.979381 K0.186023
; N3085 X41.249 Y26.736 Z10.599 I-0.070589 J-0.976847 K0.201958
; N3090 X40.198 Y26.806 Z10.592 I-0.063112 J-0.973352 K0.220461
; N3095 X39.148 Y26.87 Z10.586 I-0.057371 J-0.969065 K0.240047
; N3100 X38.269 Y26.918 Z10.577 I-0.053777 J-0.964888 K0.257099
; N3105 X37.83 Y26.941 Z10.573 I-0.052412 J-0.962572 K0.265911
; N3110 X37.391 Y26.964 Z10.569 I-0.051326 J-0.9601 K0.274905
; N3115 X36.951 Y26.986 Z10.565 I-0.050522 J-0.957464 K0.284096
; N3120 X36.512 Y27.008 Z10.561 I-0.04999 J-0.954662 K0.293465
; N3125 X35.725 Y27.046 Z10.552 I-0.049643 J-0.94924 K0.310612
; N3130 X34.939 Y27.084 Z10.542 I-0.050124 J-0.943238 K0.328312
; N3135 X33.895 Y27.135 Z10.527 I-0.051953 J-0.934344 K0.352564
; N3140 X33.634 Y27.149 Z10.523 I-0.052621 J-0.931942 K0.35877
; N3145 X33.374 Y27.162 Z10.52 I-0.053375 J-0.929463 K0.365034
; N3150 X32.852 Y27.189 Z10.511 I-0.055118 J-0.924282 K0.377709
; N3155 X32.331 Y27.217 Z10.503 I-0.057174 J-0.918789 K0.390586
; N3160 X31.809 Y27.247 Z10.494 I-0.059526 J-0.912979 K0.403641
; N3165 X31.124 Y27.287 Z10.481 I-0.063055 J-0.904834 K0.421069
; N3170 X30.438 Y27.33 Z10.467 I-0.067045 J-0.896108 K0.438744
; N3175 X29.753 Y27.375 Z10.452 I-0.071456 J-0.886792 K0.456612
; N3180 X29.128 Y27.42 Z10.437 I-0.07584 J-0.877748 K0.473083
; N3185 X28.503 Y27.466 Z10.42 I-0.080515 J-0.868204 K0.489632
; N3190 X27.879 Y27.516 Z10.402 I-0.08544 J-0.858167 K0.50621
; N3195 X27.245 Y27.571 Z10.385 I-0.090761 J-0.84739 K0.523156
; N3200 X26.929 Y27.6 Z10.376 I-0.093499 J-0.841812 K0.531612
; N3205 X26.613 Y27.629 Z10.366 I-0.096276 J-0.836114 K0.540041
; N3210 X26.297 Y27.66 Z10.356 I-0.09909 J-0.830298 K0.54844
; N3215 X25.98 Y27.691 Z10.345 I-0.101934 J-0.824369 K0.5568
; N3220 X25.593 Y27.732 Z10.333 I-0.105535 J-0.816863 K0.567095
; N3225 X25.206 Y27.774 Z10.32 I-0.109174 J-0.809187 K0.577319
; N3230 X24.819 Y27.817 Z10.306 I-0.112835 J-0.801353 K0.587454
; N3235 X24.626 Y27.839 Z10.299 I-0.114668 J-0.79738 K0.592483
; N3240 X24.432 Y27.861 Z10.291 I-0.1165 J-0.793374 K0.597483
; N3245 X23.794 Y27.941 Z10.269 I-0.122706 J-0.779705 K0.614006
; N3250 X23.475 Y27.982 Z10.256 I-0.125792 J-0.772742 K0.622131
; N3255 X23.156 Y28.024 Z10.243 I-0.128866 J-0.765694 K0.630163
; N3260 X22.771 Y28.078 Z10.229 I-0.132653 J-0.756955 K0.639861
; N3265 X22.386 Y28.134 Z10.213 I-0.136396 J-0.748117 K0.649397
; N3270 X22.001 Y28.191 Z10.196 I-0.140093 J-0.739188 K0.658768
; N3275 X21.809 Y28.22 Z10.188 I-0.14192 J-0.734694 K0.663388
; N3280 X21.617 Y28.249 Z10.178 I-0.143733 J-0.730182 K0.667964
; N3285 X20.99 Y28.352 Z10.152 I-0.149758 J-0.71507 K0.682823
; N3290 X20.678 Y28.405 Z10.138 I-0.152683 J-0.707469 K0.690055
; N3295 X20.365 Y28.458 Z10.123 I-0.155547 J-0.699844 K0.697154
; N3300 X20.008 Y28.524 Z10.108 I-0.158866 J-0.690951 K0.705229
; N3305 X19.652 Y28.59 Z10.092 I-0.162096 J-0.682044 K0.71312
; N3310 X18.94 Y28.727 Z10.057 I-0.168256 J-0.664236 K0.72834
; N3315 X18.568 Y28.805 Z10.04 I-0.171452 J-0.654752 K0.736142
; N3320 X18.197 Y28.883 Z10.022 I-0.174514 J-0.645302 K0.743728
; N3325 X17.826 Y28.963 Z10.003 I-0.177436 J-0.635893 K0.751104
; N3330 X17.455 Y29.044 Z9.983 I-0.180212 J-0.626534 K0.758274
; N3335 X16.799 Y29.2 Z9.953 I-0.185093 J-0.609675 K0.770738
; N3340 X16.144 Y29.36 Z9.918 I-0.189472 J-0.593059 K0.782548
; N3345 X15.485 Y29.532 Z9.886 I-0.193635 J-0.576289 K0.793975
; N3350 X14.828 Y29.708 Z9.851 I-0.19725 J-0.559835 K0.804784
; N3355 X14.16 Y29.903 Z9.819 I-0.200698 J-0.543061 K0.815356
; N3360 X13.493 Y30.101 Z9.784 I-0.203551 J-0.52667 K0.82534
; N3365 X12.493 Y30.42 Z9.734 I-0.207137 J-0.502347 K0.839489
; N3370 X11.078 Y30.905 Z9.663 I-0.210429 J-0.46889 K0.857824
; N3375 X11.24 Y31.301 Z9.919 I-0.220725 J-0.465072 K0.857315
; N3380 X12.523 Y30.851 Z9.997 I-0.217734 J-0.493569 K0.842011
; N3385 X13.723 Y30.46 Z10.069 I-0.213525 J-0.521022 K0.826404
; N3390 X14.4 Y30.256 Z10.113 I-0.21068 J-0.536753 K0.817013
; N3395 X15.079 Y30.055 Z10.153 I-0.207274 J-0.552895 K0.807059
; N3400 X15.574 Y29.918 Z10.185 I-0.204639 J-0.564676 K0.79954
; N3405 X16.07 Y29.783 Z10.215 I-0.201713 J-0.576663 K0.791689
; N3410 X16.603 Y29.647 Z10.249 I-0.198445 J-0.589516 K0.783001
; N3415 X17.136 Y29.512 Z10.28 I-0.194864 J-0.602576 K0.773906
; N3420 X17.738 Y29.37 Z10.319 I-0.190674 J-0.617245 K0.763317
; N3425 X18.341 Y29.231 Z10.354 I-0.186107 J-0.632127 K0.752183
; N3430 X18.672 Y29.159 Z10.375 I-0.183577 J-0.640195 K0.745955
; N3435 X19.003 Y29.089 Z10.395 I-0.180945 J-0.648312 K0.739561
; N3440 X19.334 Y29.019 Z10.414 I-0.178217 J-0.656466 K0.733001
; N3445 X19.666 Y28.951 Z10.432 I-0.175395 J-0.664654 K0.726272
; N3450 X20.444 Y28.802 Z10.479 I-0.16876 J-0.68352 K0.710155
; N3455 X20.833 Y28.73 Z10.501 I-0.165288 J-0.69297 K0.701764
; N3460 X21.223 Y28.658 Z10.521 I-0.161715 J-0.702419 K0.693149
; N3465 X21.823 Y28.556 Z10.555 I-0.156245 J-0.716649 K0.679707
; N3470 X22.123 Y28.507 Z10.57 I-0.153445 J-0.723734 K0.672803
; N3475 X22.424 Y28.458 Z10.585 I-0.150609 J-0.730788 K0.665782
; N3480 X23.218 Y28.338 Z10.628 I-0.143197 J-0.748949 K0.646969
; N3485 X23.616 Y28.28 Z10.647 I-0.13942 J-0.75791 K0.637287
; N3490 X24.014 Y28.223 Z10.666 I-0.135612 J-0.766771 K0.627432
; N3495 X24.618 Y28.142 Z10.695 I-0.129926 J-0.779836 K0.612352
; N3500 X24.921 Y28.103 Z10.708 I-0.127072 J-0.786262 K0.604685
; N3505 X25.223 Y28.065 Z10.721 I-0.124214 J-0.792612 K0.596939
; N3510 X25.611 Y28.019 Z10.739 I-0.120631 J-0.800548 K0.587002
; N3515 X25.805 Y27.996 Z10.747 I-0.118846 J-0.804462 K0.581993
; N3520 X25.999 Y27.973 Z10.755 I-0.117069 J-0.808338 K0.576961
; N3525 X26.387 Y27.929 Z10.771 I-0.113536 J-0.815975 K0.566828
; N3530 X26.775 Y27.887 Z10.786 I-0.11004 J-0.823454 K0.55661
; N3535 X27.105 Y27.852 Z10.799 I-0.107158 J-0.829619 K0.547951
; N3540 X27.435 Y27.819 Z10.812 I-0.104313 J-0.835663 K0.539245
; N3545 X27.765 Y27.786 Z10.824 I-0.101514 J-0.841582 K0.530504
; N3550 X28.095 Y27.754 Z10.836 I-0.098768 J-0.847367 K0.521741
; N3555 X28.425 Y27.723 Z10.847 I-0.096077 J-0.853021 K0.512957
; N3560 X28.756 Y27.693 Z10.858 I-0.093445 J-0.858541 K0.504157
; N3565 X29.126 Y27.661 Z10.871 I-0.090609 J-0.864536 K0.494336
; N3570 X29.497 Y27.629 Z10.882 I-0.087864 J-0.870358 K0.484516
; N3575 X30.239 Y27.569 Z10.905 I-0.082681 J-0.881479 K0.464928
; N3580 X30.982 Y27.512 Z10.925 I-0.077951 J-0.891893 K0.445477
; N3585 X31.947 Y27.443 Z10.949 I-0.072567 J-0.904375 K0.420524
; N3590 X32.912 Y27.378 Z10.971 I-0.068131 J-0.915698 K0.39605
; N3595 X33.878 Y27.317 Z10.991 I-0.064744 J-0.925897 K0.372188
; N3600 X34.402 Y27.285 Z11.001 I-0.063342 J-0.930993 K0.359499
; N3605 X34.925 Y27.253 Z11.009 I-0.062282 J-0.935784 K0.347029
; N3610 X35.972 Y27.191 Z11.027 I-0.061242 J-0.94448 K0.322811
; N3615 X36.397 Y27.165 Z11.033 I-0.061202 J-0.947714 K0.313196
; N3620 X36.823 Y27.139 Z11.038 I-0.061414 J-0.950768 K0.303756
; N3625 X37.673 Y27.087 Z11.049 I-0.062615 J-0.95636 K0.285402
; N3630 X38.098 Y27.061 Z11.055 I-0.06361 J-0.958909 K0.276493
; N3635 X38.523 Y27.034 Z11.06 I-0.064871 J-0.9613 K0.267757
; N3640 X38.975 Y27.004 Z11.064 I-0.066454 J-0.963704 K0.258571
; N3645 X39.428 Y26.974 Z11.068 I-0.068351 J-0.965937 K0.249587
; N3650 X39.88 Y26.942 Z11.072 I-0.070571 J-0.968001 K0.24082
; N3655 X40.332 Y26.91 Z11.076 I-0.073112 J-0.969903 K0.232255
; N3660 X41.236 Y26.841 Z11.086 I-0.079173 J-0.973233 K0.215752
; N3665 X42.058 Y26.773 Z11.09 I-0.085762 J-0.97577 K0.201288
; N3670 X42.47 Y26.736 Z11.093 I-0.089478 J-0.97685 K0.194312
; N3675 X42.881 Y26.699 Z11.096 I-0.09348 J-0.977805 K0.187507
; N3680 X43.251 Y26.663 Z11.098 I-0.097307 J-0.97857 K0.18147
; N3685 X43.621 Y26.626 Z11.1 I-0.101372 J-0.979233 K0.175572
; N3690 X44.361 Y26.547 Z11.104 I-0.110221 J-0.980253 K0.16418
; N3695 X44.875 Y26.487 Z11.106 I-0.116918 J-0.980731 K0.156516
; N3700 X45.39 Y26.425 Z11.109 I-0.124081 J-0.981005 K0.149107
; N3705 X45.9 Y26.358 Z11.11 I-0.13164 J-0.98108 K0.141964
; N3710 X46.154 Y26.324 Z11.111 I-0.135595 J-0.981038 K0.138485
; N3715 X46.409 Y26.288 Z11.113 I-0.139668 J-0.980943 K0.135072
; N3720 X46.915 Y26.214 Z11.114 I-0.148095 J-0.980598 K0.128434
; N3725 X47.167 Y26.176 Z11.115 I-0.152486 J-0.980342 K0.125208
; N3730 X47.419 Y26.136 Z11.116 I-0.156995 J-0.980029 K0.122044
; N3735 X47.927 Y26.052 Z11.117 I-0.166439 J-0.979227 K0.115814
; N3740 X48.434 Y25.964 Z11.118 I-0.176358 J-0.978179 K0.109833
; N3745 X49.025 Y25.854 Z11.119 I-0.188499 J-0.976645 K0.103119
; N3750 X49.613 Y25.736 Z11.121 I-0.201279 J-0.974745 K0.096739
; N3755 X50.158 Y25.62 Z11.122 I-0.213702 J-0.972644 K0.09108
; N3760 X50.702 Y25.497 Z11.123 I-0.226676 J-0.970192 K0.085706
; N3765 X51.004 Y25.425 Z11.123 I-0.234149 J-0.968668 K0.082809
; N3770 X51.306 Y25.351 Z11.123 I-0.241795 J-0.967024 K0.080001
; N3775 X51.607 Y25.275 Z11.124 I-0.249612 J-0.965257 K0.077278
; N3780 X51.907 Y25.196 Z11.124 I-0.25759 J-0.963367 K0.074643
; N3785 X52.403 Y25.059 Z11.125 I-0.271133 J-0.959961 K0.070437
; N3790 X52.897 Y24.916 Z11.125 I-0.2851 J-0.956191 K0.066461
; N3795 X53.328 Y24.785 Z11.125 I-0.297682 J-0.952574 K0.063144
; N3800 X53.756 Y24.648 Z11.126 I-0.310566 J-0.948656 K0.059999
; N3805 X54.182 Y24.505 Z11.126 I-0.32369 J-0.944444 K0.057014
; N3810 X54.605 Y24.357 Z11.127 I-0.337087 J-0.939913 K0.054194
; N3815 X55.025 Y24.203 Z11.127 I-0.350694 J-0.935071 K0.051532
; N3820 X55.442 Y24.043 Z11.127 I-0.364533 J-0.929899 K0.049029
; N3825 X55.855 Y23.877 Z11.127 I-0.378519 J-0.924416 K0.046673
; N3830 X56.265 Y23.706 Z11.127 I-0.392695 J-0.918593 K0.044466
; N3835 X56.672 Y23.528 Z11.127 I-0.407032 J-0.91243 K0.042397
; N3840 X57.076 Y23.344 Z11.127 I-0.421509 J-0.905921 K0.040469
; N3845 X57.485 Y23.149 Z11.127 I-0.436389 J-0.898928 K0.038628
; N3850 X57.891 Y22.948 Z11.128 I-0.451366 J-0.891574 K0.036926
; N3855 X58.282 Y22.746 Z11.128 I-0.466008 J-0.884072 K0.035387
; N3860 X58.669 Y22.538 Z11.128 I-0.48068 J-0.876238 K0.033968
; N3865 X59.053 Y22.323 Z11.128 I-0.495346 J-0.868082 K0.032651
; N3870 X59.434 Y22.102 Z11.128 I-0.509994 J-0.859603 K0.031443
; N3875 X59.794 Y21.884 Z11.128 I-0.524001 J-0.851176 K0.030375
; N3880 X60.151 Y21.66 Z11.128 I-0.537938 J-0.842471 K0.029395
; N3885 X60.515 Y21.423 Z11.128 I-0.552181 J-0.833238 K0.028464
; N3890 X60.875 Y21.181 Z11.128 I-0.566301 J-0.823736 K0.027615
; N3895 X61.228 Y20.933 Z11.128 I-0.580237 J-0.814005 K0.026839
; N3900 X61.578 Y20.679 Z11.128 I-0.594006 J-0.804036 K0.026132
; N3905 X61.922 Y20.42 Z11.128 I-0.607516 J-0.793898 K0.025483
; N3910 X62.262 Y20.156 Z11.128 I-0.620817 J-0.78356 K0.024891
; N3915 X62.596 Y19.887 Z11.128 I-0.633851 J-0.773072 K0.024347
; N3920 X62.925 Y19.612 Z11.128 I-0.646645 J-0.762419 K0.023847
; N3925 X63.248 Y19.334 Z11.128 I-0.659118 J-0.751676 K0.023382
; N3930 X63.567 Y19.049 Z11.128 I-0.671322 J-0.74081 K0.02295
; N3935 X63.88 Y18.761 Z11.128 I-0.683204 J-0.729879 K0.022543
; N3940 X64.188 Y18.468 Z11.128 I-0.694802 J-0.71886 K0.022158
; N3945 X64.49 Y18.171 Z11.128 I-0.706045 J-0.707832 K0.021787
; N3950 X64.788 Y17.87 Z11.128 I-0.716989 J-0.696755 K0.021427
; N3955 X65.121 Y17.52 Z11.128 I-0.729111 J-0.684072 K0.02102
; N3960 X65.449 Y17.165 Z11.128 I-0.740836 J-0.671369 K0.020614
; N3965 X65.711 Y16.872 Z11.128 I-0.750052 J-0.661067 K0.020278
; N3970 X65.968 Y16.576 Z11.128 I-0.759006 J-0.650779 K0.019933
; N3975 X66.229 Y16.268 Z11.128 I-0.767936 J-0.640228 K0.019564
; N3980 X66.485 Y15.956 Z11.128 I-0.776593 J-0.629711 K0.019177
; N3985 X66.66 Y15.738 Z11.128 I-0.782413 J-0.622473 K0.018896
; N3990 X66.833 Y15.519 Z11.128 I-0.788105 J-0.615259 K0.018603
; N3995 X67.004 Y15.298 Z11.128 I-0.79367 J-0.608073 K0.018297
; N4000 X67.173 Y15.075 Z11.128 I-0.79911 J-0.600916 K0.017975
; N4005 X67.449 Y14.703 Z11.128 I-0.807864 J-0.589112 K0.0174
; N4010 X67.719 Y14.326 Z11.128 I-0.816285 J-0.577406 K0.016771
; N4015 X68.048 Y13.852 Z11.128 I-0.826286 J-0.563026 K0.015898
; N4020 X68.369 Y13.372 Z11.128 I-0.835805 J-0.548824 K0.014909
; N4025 X68.625 Y12.976 Z11.128 I-0.843239 J-0.537356 K0.013999
; N4030 X69.031 Y12.324 Z11.128 I-0.854707 J-0.518965 K0.012289
; N4035 X69.483 Y11.559 Z11.128 I-0.867052 J-0.49812 K0.009885
; N4040 X69.516 Y11.5 Z11.128 I-0.867937 J-0.49658 K0.009648
; N4045 X69.501 Y11.533 Z11.625 I-0.868244 J-0.495997 K0.01179
; N4050 X69.235 Y11.996 Z11.625 I-0.860929 J-0.508539 K0.013741
; N4055 X68.92 Y12.519 Z11.625 I-0.852081 J-0.523177 K0.015621
; N4060 X68.594 Y13.039 Z11.625 I-0.842722 J-0.538072 K0.017268
; N4065 X68.258 Y13.555 Z11.625 I-0.832827 J-0.553216 K0.018714
; N4070 X67.911 Y14.067 Z11.625 I-0.822363 J-0.568612 K0.019991
; N4075 X67.735 Y14.32 Z11.625 I-0.816923 J-0.57638 K0.020572
; N4080 X67.438 Y14.733 Z11.625 I-0.807654 J-0.589266 K0.021453
; N4085 X67.288 Y14.938 Z11.625 I-0.802872 J-0.59575 K0.021863
; N4090 X67.135 Y15.141 Z11.625 I-0.797991 J-0.602258 K0.022255
; N4095 X66.975 Y15.353 Z11.625 I-0.792777 J-0.609091 K0.022646
; N4100 X66.812 Y15.563 Z11.625 I-0.787451 J-0.615947 K0.023021
; N4105 X66.481 Y15.978 Z11.625 I-0.776458 J-0.629722 K0.023728
; N4110 X66.215 Y16.301 Z11.625 I-0.767445 J-0.640657 K0.024249
; N4115 X65.944 Y16.621 Z11.625 I-0.758142 J-0.65162 K0.024746
; N4120 X65.688 Y16.915 Z11.625 I-0.749197 J-0.661868 K0.025192
; N4125 X65.427 Y17.206 Z11.625 I-0.739995 J-0.672124 K0.025626
; N4130 X65.16 Y17.496 Z11.625 I-0.730448 J-0.682471 K0.026053
; N4135 X64.89 Y17.782 Z11.625 I-0.72064 J-0.692804 K0.026478
; N4140 X64.551 Y18.127 Z11.625 I-0.708241 J-0.705454 K0.026998
; N4145 X64.207 Y18.467 Z11.625 I-0.69546 J-0.718038 K0.027528
; N4150 X63.899 Y18.761 Z11.625 I-0.683883 J-0.729054 K0.028005
; N4155 X63.586 Y19.049 Z11.625 I-0.672026 J-0.739978 K0.028501
; N4160 X63.267 Y19.334 Z11.625 I-0.659851 J-0.750836 K0.029021
; N4165 X62.944 Y19.614 Z11.625 I-0.647411 J-0.761567 K0.029573
; N4170 X62.614 Y19.889 Z11.625 I-0.634654 J-0.772208 K0.030157
; N4175 X62.281 Y20.159 Z11.625 I-0.621663 J-0.78268 K0.030785
; N4180 X61.941 Y20.424 Z11.625 I-0.608409 J-0.793 K0.03146
; N4185 X61.597 Y20.684 Z11.625 I-0.594952 J-0.803116 K0.032191
; N4190 X61.247 Y20.938 Z11.625 I-0.581241 J-0.813063 K0.03298
; N4195 X60.893 Y21.187 Z11.625 I-0.567369 J-0.822768 K0.033838
; N4200 X60.533 Y21.43 Z11.625 I-0.55332 J-0.832243 K0.034768
; N4205 X60.169 Y21.668 Z11.625 I-0.539156 J-0.841446 K0.035781
; N4210 X59.818 Y21.889 Z11.625 I-0.525525 J-0.849981 K0.036822
; N4215 X59.463 Y22.104 Z11.625 I-0.51183 J-0.858248 K0.037948
; N4220 X59.081 Y22.328 Z11.624 I-0.497241 J-0.866724 K0.039239
; N4225 X58.696 Y22.544 Z11.625 I-0.482642 J-0.874874 K0.04064
; N4230 X58.308 Y22.754 Z11.624 I-0.468053 J-0.882695 K0.042144
; N4235 X57.916 Y22.958 Z11.624 I-0.453499 J-0.890181 K0.043768
; N4240 X57.507 Y23.162 Z11.624 I-0.438501 J-0.897574 K0.045575
; N4245 X57.093 Y23.36 Z11.624 I-0.423608 J-0.904598 K0.047524
; N4250 X56.69 Y23.545 Z11.624 I-0.409276 J-0.911065 K0.04954
; N4255 X56.283 Y23.724 Z11.624 I-0.39509 J-0.917186 K0.0517
; N4260 X55.873 Y23.897 Z11.623 I-0.381071 J-0.922967 K0.053998
; N4265 X55.46 Y24.064 Z11.623 I-0.367249 J-0.928408 K0.056449
; N4270 X55.043 Y24.225 Z11.623 I-0.353581 J-0.933538 K0.059048
; N4275 X54.624 Y24.38 Z11.623 I-0.340148 J-0.938338 K0.061809
; N4280 X54.201 Y24.53 Z11.622 I-0.326934 J-0.942828 K0.06473
; N4285 X53.776 Y24.674 Z11.622 I-0.313997 J-0.946999 K0.06782
; N4290 X53.348 Y24.813 Z11.621 I-0.301305 J-0.950875 K0.071073
; N4295 X52.918 Y24.946 Z11.621 I-0.288919 J-0.95445 K0.074502
; N4300 X52.42 Y25.093 Z11.62 I-0.275048 J-0.958208 K0.07865
; N4305 X51.921 Y25.233 Z11.62 I-0.261614 J-0.961594 K0.08304
; N4310 X51.623 Y25.312 Z11.619 I-0.253849 J-0.963436 K0.08574
; N4315 X51.325 Y25.389 Z11.618 I-0.246244 J-0.965156 K0.088528
; N4320 X51.027 Y25.464 Z11.618 I-0.238808 J-0.966755 K0.091405
; N4325 X50.728 Y25.537 Z11.618 I-0.231542 J-0.968237 K0.094371
; N4330 X50.179 Y25.664 Z11.616 I-0.218669 J-0.970662 K0.099992
; N4335 X49.628 Y25.785 Z11.616 I-0.206362 J-0.972726 K0.10592
; N4340 X49.048 Y25.904 Z11.613 I-0.194048 J-0.974529 K0.112424
; N4345 X48.467 Y26.015 Z11.612 I-0.182355 J-0.975972 K0.119268
; N4350 X47.94 Y26.111 Z11.61 I-0.172276 J-0.976994 K0.125715
; N4355 X47.412 Y26.201 Z11.609 I-0.162715 J-0.977743 K0.132444
; N4360 X47.159 Y26.243 Z11.607 I-0.158322 J-0.978012 K0.135742
; N4365 X46.906 Y26.283 Z11.606 I-0.154048 J-0.978222 K0.139107
; N4370 X46.399 Y26.36 Z11.605 I-0.145861 J-0.978468 K0.146029
; N4375 X46.144 Y26.397 Z11.603 I-0.141909 J-0.978511 K0.14959
; N4380 X45.889 Y26.434 Z11.602 I-0.138076 J-0.978498 K0.153221
; N4385 X45.377 Y26.504 Z11.6 I-0.130766 J-0.978306 K0.160676
; N4390 X44.831 Y26.574 Z11.596 I-0.123457 J-0.977873 K0.168885
; N4395 X44.284 Y26.641 Z11.594 I-0.116677 J-0.977198 K0.177397
; N4400 X43.399 Y26.741 Z11.587 I-0.106772 J-0.975628 K0.191704
; N4405 X42.513 Y26.833 Z11.581 I-0.098242 J-0.973432 K0.206831
; N4410 X41.863 Y26.895 Z11.575 I-0.092795 J-0.971447 K0.218357
; N4415 X41.537 Y26.925 Z11.572 I-0.090337 J-0.970327 K0.224286
; N4420 X41.212 Y26.954 Z11.57 I-0.088056 J-0.969121 K0.230328
; N4425 X40.346 Y27.028 Z11.559 I-0.082728 J-0.965529 K0.2468
; N4430 X39.912 Y27.063 Z11.554 I-0.080519 J-0.963494 K0.255334
; N4435 X39.479 Y27.098 Z11.549 I-0.078609 J-0.961298 K0.26406
; N4440 X39.045 Y27.132 Z11.544 I-0.076998 J-0.95893 K0.27299
; N4445 X38.612 Y27.165 Z11.539 I-0.075679 J-0.956392 K0.282111
; N4450 X38.224 Y27.194 Z11.533 I-0.074688 J-0.953998 K0.290361
; N4455 X37.835 Y27.222 Z11.527 I-0.073921 J-0.951462 K0.298757
; N4460 X37.059 Y27.278 Z11.514 I-0.073053 J-0.945942 K0.316002
; N4465 X36.67 Y27.306 Z11.508 I-0.072946 J-0.942951 K0.324843
; N4470 X36.282 Y27.334 Z11.502 I-0.073054 J-0.939797 K0.333832
; N4475 X35.191 Y27.411 Z11.478 I-0.0743 J-0.93016 K0.359558
; N4480 X34.101 Y27.49 Z11.454 I-0.077098 J-0.919156 K0.386276
; N4485 X33.011 Y27.573 Z11.428 I-0.081327 J-0.90671 K0.413839
; N4490 X32.264 Y27.632 Z11.407 I-0.084922 J-0.897371 K0.433029
; N4495 X31.518 Y27.694 Z11.384 I-0.089079 J-0.887319 K0.452472
; N4500 X30.773 Y27.758 Z11.36 I-0.093746 J-0.87655 K0.472093
; N4505 X30.438 Y27.788 Z11.349 I-0.095986 J-0.87149 K0.480928
; N4510 X30.104 Y27.819 Z11.337 I-0.098311 J-0.86629 K0.489773
; N4515 X29.435 Y27.882 Z11.311 I-0.103204 J-0.855461 K0.50748
; N4520 X28.767 Y27.949 Z11.284 I-0.108378 J-0.844084 K0.525144
; N4525 X28.441 Y27.983 Z11.271 I-0.111018 J-0.838309 K0.533773
; N4530 X28.116 Y28.018 Z11.257 I-0.113708 J-0.832409 K0.54237
; N4535 X27.79 Y28.054 Z11.243 I-0.116443 J-0.82639 K0.550928
; N4540 X27.464 Y28.09 Z11.228 I-0.119219 J-0.820251 K0.559442
; N4545 X26.813 Y28.166 Z11.196 I-0.124867 J-0.807645 K0.576297
; N4550 X26.463 Y28.209 Z11.179 I-0.127989 J-0.800639 K0.585316
; N4555 X26.113 Y28.253 Z11.162 I-0.131133 J-0.793519 K0.59425
; N4560 X25.763 Y28.298 Z11.144 I-0.134291 J-0.78629 K0.603087
; N4565 X25.414 Y28.344 Z11.125 I-0.137457 J-0.778963 K0.611819
; N4570 X25.065 Y28.392 Z11.106 I-0.140675 J-0.771491 K0.620493
; N4575 X24.717 Y28.441 Z11.087 I-0.143881 J-0.763937 K0.629046
; N4580 X24.369 Y28.491 Z11.068 I-0.14707 J-0.756308 K0.63747
; N4585 X24.021 Y28.542 Z11.047 I-0.150237 J-0.748615 K0.645759
; N4590 X23.218 Y28.668 Z11. I-0.157613 J-0.730414 K0.664571
; N4595 X22.817 Y28.733 Z10.975 I-0.161223 J-0.721232 K0.673671
; N4600 X22.416 Y28.799 Z10.949 I-0.16477 J-0.712016 K0.682557
; N4605 X22.011 Y28.871 Z10.924 I-0.168419 J-0.702492 K0.691476
; N4610 X21.606 Y28.944 Z10.899 I-0.171989 J-0.692961 K0.70016
; N4615 X20.797 Y29.094 Z10.843 I-0.178841 J-0.673937 K0.716816
; N4620 X20.468 Y29.159 Z10.822 I-0.181627 J-0.666063 K0.723444
; N4625 X20.14 Y29.226 Z10.8 I-0.184342 J-0.658218 K0.729909
; N4630 X19.483 Y29.362 Z10.753 I-0.189534 J-0.642655 K0.742341
; N4635 X18.787 Y29.517 Z10.706 I-0.194905 J-0.626029 K0.755049
; N4640 X18.092 Y29.676 Z10.655 I-0.19985 J-0.609697 K0.767027
; N4645 X17.391 Y29.849 Z10.606 I-0.204648 J-0.593147 K0.77865
; N4650 X16.69 Y30.026 Z10.553 I-0.208963 J-0.576975 K0.789578
; N4655 X16.003 Y30.215 Z10.505 I-0.213027 J-0.561071 K0.799887
; N4660 X15.316 Y30.406 Z10.454 I-0.216596 J-0.545582 K0.809584
; N4665 X14.633 Y30.611 Z10.406 I-0.219905 J-0.530245 K0.81883
; N4670 X13.952 Y30.819 Z10.355 I-0.222702 J-0.515334 K0.827547
; N4675 X12.609 Y31.265 Z10.26 I-0.227348 J-0.486446 K0.843613
; N4680 X11.403 Y31.696 Z10.176 I-0.230217 J-0.461328 K0.856841
; N4685 X11.569 Y32.09 Z10.432 I-0.238933 J-0.45764 K0.856432
; N4690 X12.833 Y31.633 Z10.533 I-0.235784 J-0.482338 K0.843656
; N4695 X14.182 Y31.179 Z10.641 I-0.231126 J-0.509604 K0.828785
; N4700 X14.867 Y30.967 Z10.699 I-0.228379 J-0.523713 K0.820711
; N4705 X15.554 Y30.758 Z10.754 I-0.225172 J-0.538261 K0.812141
; N4710 X16.247 Y30.561 Z10.813 I-0.221718 J-0.553054 K0.803102
; N4715 X16.942 Y30.368 Z10.868 I-0.217811 J-0.568296 K0.793472
; N4720 X17.65 Y30.186 Z10.929 I-0.213676 J-0.583849 K0.783239
; N4725 X18.359 Y30.007 Z10.985 I-0.209094 J-0.599835 K0.77232
; N4730 X18.71 Y29.924 Z11.015 I-0.206791 J-0.607696 K0.766774
; N4735 X19.06 Y29.843 Z11.044 I-0.204386 J-0.61565 K0.761053
; N4740 X19.762 Y29.682 Z11.099 I-0.199282 J-0.631827 K0.749053
; N4745 X20.389 Y29.548 Z11.15 I-0.194619 J-0.646226 K0.737913
; N4750 X20.703 Y29.482 Z11.175 I-0.192185 J-0.653508 K0.732115
; N4755 X21.017 Y29.417 Z11.198 I-0.189688 J-0.660833 K0.726167
; N4760 X21.702 Y29.284 Z11.252 I-0.184226 J-0.676632 K0.712903
; N4765 X22.388 Y29.154 Z11.303 I-0.178488 J-0.692556 K0.698933
; N4770 X22.768 Y29.086 Z11.332 I-0.175316 J-0.701253 K0.69102
; N4775 X23.148 Y29.02 Z11.359 I-0.172083 J-0.709952 K0.682902
; N4780 X23.529 Y28.955 Z11.386 I-0.168791 J-0.718645 K0.674581
; N4785 X23.909 Y28.89 Z11.412 I-0.165446 J-0.727316 K0.666062
; N4790 X24.298 Y28.828 Z11.439 I-0.162068 J-0.736018 K0.657276
; N4795 X24.687 Y28.767 Z11.466 I-0.158653 J-0.744671 K0.648301
; N4800 X25.465 Y28.649 Z11.515 I-0.151731 J-0.761787 K0.629808
; N4805 X26.13 Y28.554 Z11.557 I-0.145903 J-0.775959 K0.613678
; N4810 X26.463 Y28.508 Z11.577 I-0.142988 J-0.782936 K0.605446
; N4815 X26.795 Y28.463 Z11.597 I-0.140081 J-0.789828 K0.597117
; N4820 X27.128 Y28.419 Z11.616 I-0.137189 J-0.796629 K0.588695
; N4825 X27.462 Y28.376 Z11.634 I-0.134313 J-0.803333 K0.580186
; N4830 X27.771 Y28.337 Z11.651 I-0.131699 J-0.809432 K0.572255
; N4835 X28.081 Y28.299 Z11.668 I-0.129112 J-0.815437 K0.564263
; N4840 X28.391 Y28.262 Z11.684 I-0.126554 J-0.821345 K0.556216
; N4845 X28.702 Y28.225 Z11.7 I-0.124032 J-0.827151 K0.548121
; N4850 X29.012 Y28.189 Z11.715 I-0.12155 J-0.832852 K0.539985
; N4855 X29.322 Y28.154 Z11.73 I-0.119111 J-0.838444 K0.531812
; N4860 X29.944 Y28.086 Z11.759 I-0.114391 J-0.849293 K0.515379
; N4865 X30.566 Y28.02 Z11.786 I-0.10991 J-0.859673 K0.498881
; N4870 X31.189 Y27.957 Z11.812 I-0.105705 J-0.869564 K0.482375
; N4875 X31.538 Y27.923 Z11.825 I-0.103474 J-0.874894 K0.473132
; N4880 X31.887 Y27.889 Z11.838 I-0.101345 J-0.880068 K0.463907
; N4885 X32.585 Y27.824 Z11.863 I-0.097423 J-0.889937 K0.445558
; N4890 X33.284 Y27.76 Z11.887 I-0.093984 J-0.899166 K0.427395
; N4895 X34.393 Y27.663 Z11.918 I-0.089491 J-0.912615 K0.398905
; N4900 X35.502 Y27.569 Z11.947 I-0.086471 J-0.924505 K0.371232
; N4905 X36.612 Y27.478 Z11.976 I-0.085061 J-0.934906 K0.34455
; N4910 X37.624 Y27.392 Z11.994 I-0.085076 J-0.943284 K0.320901
; N4915 X38.636 Y27.307 Z12.012 I-0.0866 J-0.950547 K0.298262
; N4920 X39.141 Y27.263 Z12.022 I-0.087946 J-0.953783 K0.287338
; N4925 X39.647 Y27.219 Z12.031 I-0.089691 J-0.956768 K0.276676
; N4930 X40.188 Y27.17 Z12.038 I-0.091916 J-0.959736 K0.265442
; N4935 X40.593 Y27.132 Z12.043 I-0.093895 J-0.961781 K0.257219
; N4940 X40.998 Y27.093 Z12.048 I-0.096145 J-0.963672 K0.249183
; N4945 X41.268 Y27.067 Z12.052 I-0.097795 J-0.964852 K0.243921
; N4950 X41.538 Y27.041 Z12.055 I-0.099567 J-0.965966 K0.238738
; N4955 X41.808 Y27.013 Z12.059 I-0.101461 J-0.967015 K0.233641
; N4960 X42.233 Y26.969 Z12.063 I-0.10464 J-0.968563 K0.22569
; N4965 X42.658 Y26.923 Z12.067 I-0.108127 J-0.969954 K0.217941
; N4970 X43.506 Y26.828 Z12.076 I-0.116045 J-0.972271 K0.203033
; N4975 X44.007 Y26.767 Z12.08 I-0.121283 J-0.973371 K0.194526
; N4980 X44.508 Y26.704 Z12.084 I-0.126971 J-0.974255 K0.186292
; N4985 X44.932 Y26.648 Z12.087 I-0.132122 J-0.974847 K0.179489
; N4990 X45.356 Y26.59 Z12.09 I-0.137596 J-0.975285 K0.172878
; N4995 X45.869 Y26.517 Z12.092 I-0.144634 J-0.975616 K0.165088
; N5000 X46.125 Y26.478 Z12.094 I-0.148335 J-0.975695 K0.161296
; N5005 X46.381 Y26.439 Z12.096 I-0.152155 J-0.975714 K0.157576
; N5010 X46.889 Y26.358 Z12.098 I-0.160083 J-0.975587 K0.150347
; N5015 X47.143 Y26.316 Z12.099 I-0.164229 J-0.975433 K0.146833
; N5020 X47.397 Y26.273 Z12.101 I-0.168496 J-0.975217 K0.143392
; N5025 X47.951 Y26.175 Z12.103 I-0.178232 J-0.974537 K0.136054
; N5030 X48.503 Y26.071 Z12.106 I-0.188544 J-0.97355 K0.129042
; N5035 X49.187 Y25.935 Z12.107 I-0.202053 J-0.971904 K0.120735
; N5040 X49.527 Y25.863 Z12.109 I-0.209131 J-0.970891 K0.116768
; N5045 X49.867 Y25.788 Z12.11 I-0.216428 J-0.969746 K0.112923
; N5050 X50.447 Y25.655 Z12.111 I-0.22938 J-0.967484 K0.106581
; N5055 X50.737 Y25.585 Z12.112 I-0.236094 J-0.966198 K0.103542
; N5060 X51.025 Y25.514 Z12.113 I-0.242967 J-0.964805 K0.100592
; N5065 X51.551 Y25.378 Z12.114 I-0.255911 J-0.961983 K0.095388
; N5070 X52.074 Y25.235 Z12.115 I-0.269367 J-0.958779 K0.090469
; N5075 X52.374 Y25.149 Z12.115 I-0.277315 J-0.956764 K0.087746
; N5080 X52.673 Y25.061 Z12.116 I-0.285423 J-0.954615 K0.085113
; N5085 X52.971 Y24.971 Z12.116 I-0.29369 J-0.952328 K0.08257
; N5090 X53.269 Y24.878 Z12.117 I-0.302114 J-0.949899 K0.080116
; N5095 X53.747 Y24.722 Z12.118 I-0.316018 J-0.94568 K0.076309
; N5100 X54.223 Y24.559 Z12.118 I-0.330279 J-0.941077 K0.072725
; N5105 X54.646 Y24.407 Z12.119 I-0.343313 J-0.936632 K0.069688
; N5110 X55.066 Y24.25 Z12.119 I-0.356624 J-0.931855 K0.066821
; N5115 X55.48 Y24.088 Z12.119 I-0.370061 J-0.926792 K0.064124
; N5120 X55.892 Y23.92 Z12.12 I-0.383701 J-0.921401 K0.061587
; N5125 X56.303 Y23.745 Z12.12 I-0.397577 J-0.915658 K0.059183
; N5130 X56.711 Y23.565 Z12.12 I-0.411651 J-0.909562 K0.056931
; N5135 X57.113 Y23.379 Z12.12 I-0.425783 J-0.903163 K0.054823
; N5140 X57.512 Y23.187 Z12.121 I-0.440021 J-0.896431 K0.052856
; N5145 X57.927 Y22.979 Z12.121 I-0.455086 J-0.88899 K0.050919
; N5150 X58.339 Y22.763 Z12.121 I-0.470263 J-0.881158 K0.049126
; N5155 X58.729 Y22.551 Z12.121 I-0.484784 J-0.873342 K0.047527
; N5160 X59.115 Y22.333 Z12.121 I-0.499302 J-0.865203 K0.046046
; N5165 X59.469 Y22.125 Z12.121 I-0.512752 J-0.857369 K0.044763
; N5170 X59.82 Y21.911 Z12.121 I-0.526198 J-0.849245 K0.043571
; N5175 X60.188 Y21.679 Z12.121 I-0.540412 J-0.840332 K0.042388
; N5180 X60.553 Y21.44 Z12.122 I-0.554516 J-0.831148 K0.041294
; N5185 X60.912 Y21.195 Z12.121 I-0.568476 J-0.821713 K0.040277
; N5190 X61.268 Y20.945 Z12.122 I-0.582329 J-0.812001 K0.039336
; N5195 X61.617 Y20.69 Z12.122 I-0.595937 J-0.80211 K0.038461
; N5200 X61.961 Y20.43 Z12.122 I-0.609345 J-0.792011 K0.037648
; N5205 X62.301 Y20.164 Z12.122 I-0.622548 J-0.781712 K0.036884
; N5210 X62.636 Y19.892 Z12.122 I-0.635556 J-0.771207 K0.03617
; N5215 X62.964 Y19.617 Z12.122 I-0.648219 J-0.760626 K0.035497
; N5220 X63.288 Y19.337 Z12.122 I-0.660619 J-0.749912 K0.03486
; N5225 X63.662 Y19.001 Z12.122 I-0.674861 J-0.737154 K0.03414
; N5230 X63.847 Y18.83 Z12.122 I-0.681851 J-0.73071 K0.033794
; N5235 X64.03 Y18.658 Z12.122 I-0.68875 J-0.724226 K0.033454
; N5240 X64.315 Y18.383 Z12.122 I-0.699405 J-0.713967 K0.032923
; N5245 X64.596 Y18.103 Z12.122 I-0.709804 J-0.703654 K0.0324
; N5250 X64.871 Y17.822 Z12.122 I-0.719886 J-0.69336 K0.031881
; N5255 X65.142 Y17.536 Z12.122 I-0.729723 J-0.683023 K0.031361
; N5260 X65.417 Y17.238 Z12.122 I-0.739573 J-0.672371 K0.030817
; N5265 X65.688 Y16.936 Z12.122 I-0.749144 J-0.661716 K0.030261
; N5270 X65.964 Y16.619 Z12.122 I-0.758773 J-0.650679 K0.029665
; N5275 X66.235 Y16.298 Z12.122 I-0.768115 J-0.639653 K0.029045
; N5280 X66.557 Y15.904 Z12.122 I-0.779026 J-0.626355 K0.02825
; N5285 X66.716 Y15.705 Z12.122 I-0.784324 J-0.619726 K0.027832
; N5290 X66.873 Y15.505 Z12.122 I-0.789519 J-0.613114 K0.0274
; N5295 X67.035 Y15.294 Z12.122 I-0.794831 J-0.606233 K0.026928
; N5300 X67.195 Y15.082 Z12.122 I-0.800034 J-0.599372 K0.026436
; N5305 X67.511 Y14.653 Z12.122 I-0.810116 J-0.58572 K0.025384
; N5310 X67.774 Y14.284 Z12.122 I-0.81837 J-0.574174 K0.024403
; N5315 X68.032 Y13.91 Z12.122 I-0.826325 J-0.56271 K0.023334
; N5320 X68.351 Y13.433 Z12.122 I-0.835968 J-0.548344 K0.021836
; N5325 X68.663 Y12.949 Z12.122 I-0.845179 J-0.534104 K0.020153
; N5330 X68.984 Y12.43 Z12.122 I-0.854498 J-0.519138 K0.018127
; N5335 X69.297 Y11.904 Z12.122 I-0.863373 J-0.504318 K0.015815
; N5340 X69.488 Y11.568 Z12.122 I-0.868717 J-0.495109 K0.014088
; N5345 X69.493 Y11.581 Z12.619 I-0.869775 J-0.493174 K0.016448
; N5350 X69.049 Y12.341 Z12.619 I-0.857084 J-0.514765 K0.020575
; N5355 X68.73 Y12.862 Z12.619 I-0.847752 J-0.529893 K0.023012
; N5360 X68.401 Y13.379 Z12.619 I-0.837911 J-0.545225 K0.025174
; N5365 X68.232 Y13.635 Z12.619 I-0.832815 J-0.552933 K0.02616
; N5370 X67.971 Y14.022 Z12.619 I-0.824797 J-0.564757 K0.027554
; N5375 X67.705 Y14.405 Z12.619 I-0.816476 J-0.57666 K0.028831
; N5380 X67.54 Y14.636 Z12.619 I-0.811269 J-0.583926 K0.029553
; N5385 X67.374 Y14.865 Z12.619 I-0.805946 J-0.591217 K0.030241
; N5390 X67.035 Y15.318 Z12.619 I-0.79494 J-0.605868 K0.031525
; N5395 X66.709 Y15.738 Z12.619 I-0.78416 J-0.6197 K0.032627
; N5400 X66.544 Y15.945 Z12.619 I-0.778604 J-0.62664 K0.033149
; N5405 X66.376 Y16.151 Z12.619 I-0.772936 J-0.633591 K0.033653
; N5410 X66.212 Y16.35 Z12.619 I-0.76732 J-0.640356 K0.034124
; N5415 X66.046 Y16.547 Z12.619 I-0.761599 J-0.647126 K0.034583
; N5420 X65.709 Y16.937 Z12.619 I-0.749837 J-0.660671 K0.035468
; N5425 X65.428 Y17.251 Z12.619 I-0.73989 J-0.671756 K0.036161
; N5430 X65.143 Y17.56 Z12.619 I-0.729647 J-0.682831 K0.036838
; N5435 X64.85 Y17.869 Z12.619 I-0.719005 J-0.693992 K0.037507
; N5440 X64.552 Y18.173 Z12.619 I-0.708082 J-0.705097 K0.038173
; N5445 X64.25 Y18.471 Z12.619 I-0.6969 J-0.716116 K0.038834
; N5450 X63.944 Y18.764 Z12.619 I-0.685429 J-0.727067 K0.039504
; N5455 X63.629 Y19.056 Z12.619 I-0.673553 J-0.738045 K0.04019
; N5460 X63.31 Y19.343 Z12.619 I-0.661429 J-0.748892 K0.040899
; N5465 X62.987 Y19.624 Z12.618 I-0.649062 J-0.759596 K0.041629
; N5470 X62.659 Y19.899 Z12.619 I-0.636436 J-0.770163 K0.042393
; N5475 X62.323 Y20.172 Z12.618 I-0.623471 J-0.780652 K0.043197
; N5480 X61.983 Y20.439 Z12.618 I-0.610319 J-0.79093 K0.044051
; N5485 X61.586 Y20.739 Z12.618 I-0.594918 J-0.802521 K0.045093
; N5490 X61.385 Y20.887 Z12.618 I-0.58712 J-0.808212 K0.045645
; N5495 X61.183 Y21.032 Z12.618 I-0.579262 J-0.81383 K0.046218
; N5500 X60.837 Y21.274 Z12.618 I-0.565863 J-0.823145 K0.047234
; N5505 X60.487 Y21.511 Z12.618 I-0.552369 J-0.832198 K0.048326
; N5510 X60.165 Y21.72 Z12.618 I-0.540026 J-0.840199 K0.049377
; N5515 X59.841 Y21.926 Z12.618 I-0.527602 J-0.847989 K0.050498
; N5520 X59.467 Y22.154 Z12.618 I-0.513371 J-0.856599 K0.051859
; N5525 X59.089 Y22.376 Z12.618 I-0.499142 J-0.864878 K0.053324
; N5530 X58.706 Y22.593 Z12.617 I-0.484854 J-0.872871 K0.054895
; N5535 X58.319 Y22.804 Z12.617 I-0.470569 J-0.880547 K0.056583
; N5540 X57.901 Y23.023 Z12.617 I-0.45531 J-0.888408 K0.058515
; N5545 X57.478 Y23.235 Z12.617 I-0.440175 J-0.895865 K0.060598
; N5550 X57.078 Y23.428 Z12.617 I-0.426047 J-0.902527 K0.062684
; N5555 X56.674 Y23.615 Z12.617 I-0.412034 J-0.908853 K0.064915
; N5560 X56.262 Y23.797 Z12.616 I-0.398031 J-0.9149 K0.067305
; N5565 X55.848 Y23.974 Z12.616 I-0.384236 J-0.920589 K0.069855
; N5570 X55.43 Y24.145 Z12.615 I-0.370601 J-0.925954 K0.072557
; N5575 X55.009 Y24.31 Z12.615 I-0.357182 J-0.930984 K0.07543
; N5580 X54.581 Y24.47 Z12.614 I-0.34386 J-0.935734 K0.078493
; N5585 X54.15 Y24.625 Z12.614 I-0.330833 J-0.940143 K0.08174
; N5590 X53.715 Y24.775 Z12.613 I-0.318044 J-0.944243 K0.085165
; N5595 X53.278 Y24.919 Z12.613 I-0.30556 J-0.948024 K0.088783
; N5600 X52.985 Y25.012 Z12.612 I-0.297402 J-0.950378 K0.091288
; N5605 X52.692 Y25.102 Z12.611 I-0.289398 J-0.952594 K0.093884
; N5610 X52.397 Y25.19 Z12.61 I-0.28155 J-0.954675 K0.096569
; N5615 X52.102 Y25.276 Z12.61 I-0.273859 J-0.956625 K0.099347
; N5620 X51.57 Y25.424 Z12.608 I-0.260417 J-0.959821 K0.104527
; N5625 X51.035 Y25.565 Z12.608 I-0.247512 J-0.962619 K0.110015
; N5630 X50.469 Y25.707 Z12.605 I-0.234486 J-0.965163 K0.116093
; N5635 X49.901 Y25.841 Z12.604 I-0.222075 J-0.9673 K0.122526
; N5640 X49.563 Y25.917 Z12.602 I-0.214964 J-0.968396 K0.126492
; N5645 X49.223 Y25.991 Z12.6 I-0.208069 J-0.969358 K0.130587
; N5650 X48.542 Y26.132 Z12.598 I-0.194928 J-0.970895 K0.139162
; N5655 X48.158 Y26.207 Z12.596 I-0.18788 J-0.971554 K0.144169
; N5660 X47.774 Y26.28 Z12.594 I-0.181104 J-0.972059 K0.149342
; N5665 X47.389 Y26.35 Z12.592 I-0.174615 J-0.972412 K0.154679
; N5670 X47.003 Y26.418 Z12.59 I-0.16841 J-0.972615 K0.160184
; N5675 X46.584 Y26.488 Z12.587 I-0.161977 J-0.972682 K0.166294
; N5680 X46.165 Y26.556 Z12.585 I-0.155873 J-0.972581 K0.172599
; N5685 X45.745 Y26.622 Z12.582 I-0.150071 J-0.972322 K0.179075
; N5690 X45.325 Y26.685 Z12.579 I-0.144595 J-0.9719 K0.185747
; N5695 X44.806 Y26.759 Z12.574 I-0.138248 J-0.971167 K0.194222
; N5700 X44.285 Y26.831 Z12.57 I-0.132388 J-0.970188 K0.203001
; N5705 X43.412 Y26.944 Z12.559 I-0.123584 J-0.968028 K0.218285
; N5710 X42.975 Y26.998 Z12.555 I-0.119695 J-0.966686 K0.226257
; N5715 X42.538 Y27.05 Z12.551 I-0.116145 J-0.965166 K0.234444
; N5720 X42.072 Y27.104 Z12.544 I-0.11267 J-0.963378 K0.243328
; N5725 X41.605 Y27.156 Z12.537 I-0.109566 J-0.961386 K0.252452
; N5730 X41.138 Y27.207 Z12.531 I-0.106834 J-0.959182 K0.261831
; N5735 X40.671 Y27.257 Z12.525 I-0.104467 J-0.956766 K0.27145
; N5740 X40.191 Y27.306 Z12.515 I-0.102325 J-0.954097 K0.281475
; N5745 X39.71 Y27.354 Z12.506 I-0.100558 J-0.951195 K0.291746
; N5750 X38.749 Y27.449 Z12.487 I-0.09813 J-0.944656 K0.313043
; N5755 X37.787 Y27.543 Z12.47 I-0.097136 J-0.937088 K0.335308
; N5760 X36.663 Y27.648 Z12.439 I-0.097437 J-0.927048 K0.36206
; N5765 X35.54 Y27.755 Z12.407 I-0.099484 J-0.915461 K0.389915
; N5770 X34.979 Y27.81 Z12.391 I-0.101119 J-0.909065 K0.404197
; N5775 X34.417 Y27.865 Z12.374 I-0.103143 J-0.90225 K0.418696
; N5780 X33.991 Y27.907 Z12.359 I-0.104846 J-0.896856 K0.429716
; N5785 X33.565 Y27.95 Z12.343 I-0.106751 J-0.891219 K0.440831
; N5790 X33.138 Y27.994 Z12.326 I-0.108847 J-0.885341 K0.452021
; N5795 X32.712 Y28.038 Z12.309 I-0.111126 J-0.879218 K0.463278
; N5800 X32.286 Y28.083 Z12.292 I-0.11357 J-0.872857 K0.474575
; N5805 X31.861 Y28.129 Z12.274 I-0.116175 J-0.866254 K0.485908
; N5810 X31.159 Y28.207 Z12.242 I-0.120737 J-0.854903 K0.504543
; N5815 X30.458 Y28.288 Z12.207 I-0.12565 J-0.842929 K0.523148
; N5820 X30.107 Y28.33 Z12.189 I-0.12822 J-0.836718 K0.532412
; N5825 X29.757 Y28.373 Z12.171 I-0.130856 J-0.830365 K0.541637
; N5830 X29.163 Y28.446 Z12.137 I-0.135429 J-0.81931 K0.557126
; N5835 X28.57 Y28.522 Z12.102 I-0.140135 J-0.80789 K0.57243
; N5840 X27.955 Y28.605 Z12.065 I-0.14517 J-0.795635 K0.588125
; N5845 X27.647 Y28.647 Z12.046 I-0.147719 J-0.789381 K0.595866
; N5850 X27.34 Y28.69 Z12.026 I-0.150281 J-0.783053 K0.603526
; N5855 X26.726 Y28.778 Z11.984 I-0.155426 J-0.770195 K0.618581
; N5860 X26.036 Y28.882 Z11.936 I-0.161281 J-0.755376 K0.635134
; N5865 X25.692 Y28.935 Z11.911 I-0.164197 J-0.747877 K0.64321
; N5870 X25.348 Y28.99 Z11.886 I-0.167093 J-0.740332 K0.651144
; N5875 X24.736 Y29.091 Z11.841 I-0.172268 J-0.726712 K0.664991
; N5880 X24.126 Y29.194 Z11.793 I-0.17734 J-0.713023 K0.678343
; N5885 X23.821 Y29.247 Z11.768 I-0.179829 J-0.706171 K0.684824
; N5890 X23.516 Y29.301 Z11.743 I-0.182283 J-0.699322 K0.691175
; N5895 X22.77 Y29.44 Z11.683 I-0.188312 J-0.682323 K0.706381
; N5900 X22.025 Y29.584 Z11.618 I-0.194086 J-0.665463 K0.720756
; N5905 X21.27 Y29.739 Z11.554 I-0.199823 J-0.648288 K0.734706
; N5910 X20.893 Y29.818 Z11.521 I-0.202558 J-0.63982 K0.741351
; N5915 X20.516 Y29.899 Z11.486 I-0.205207 J-0.631438 K0.747781
; N5920 X20.143 Y29.983 Z11.454 I-0.207852 J-0.623059 K0.754053
; N5925 X19.77 Y30.068 Z11.42 I-0.210405 J-0.614784 K0.760112
; N5930 X19.398 Y30.154 Z11.386 I-0.212863 J-0.606617 K0.765967
; N5935 X19.026 Y30.241 Z11.351 I-0.215223 J-0.598567 K0.77162
; N5940 X18.7 Y30.322 Z11.322 I-0.217307 J-0.591452 K0.776506
; N5945 X18.375 Y30.404 Z11.292 I-0.219308 J-0.584434 K0.781244
; N5950 X17.724 Y30.569 Z11.23 I-0.223058 J-0.570692 K0.790289
; N5955 X17.078 Y30.745 Z11.173 I-0.226679 J-0.557078 K0.798924
; N5960 X16.433 Y30.924 Z11.112 I-0.22997 J-0.543866 K0.807047
; N5965 X15.761 Y31.122 Z11.051 I-0.233236 J-0.530222 K0.815147
; N5970 X15.09 Y31.323 Z10.988 I-0.236109 J-0.517021 K0.822765
; N5975 X14.411 Y31.543 Z10.928 I-0.238896 J-0.503719 K0.830178
; N5980 X13.733 Y31.766 Z10.866 I-0.241296 J-0.490832 K0.837174
; N5985 X12.55 Y32.18 Z10.76 I-0.244899 J-0.468797 K0.848678
; N5990 X11.737 Y32.483 Z10.689 I-0.246897 J-0.454008 K0.856106
; N5995 X11.908 Y32.875 Z10.946 I-0.254138 J-0.450383 K0.855903
; N6000 X13.106 Y32.43 Z11.061 I-0.250958 J-0.470821 K0.845782
; N6005 X13.774 Y32.198 Z11.126 I-0.248778 J-0.482632 K0.839748
; N6010 X14.441 Y31.967 Z11.191 I-0.246553 J-0.494355 K0.833562
; N6015 X15.076 Y31.763 Z11.256 I-0.244228 J-0.505766 K0.827377
; N6020 X15.711 Y31.562 Z11.318 I-0.241612 J-0.517549 K0.820833
; N6025 X16.373 Y31.365 Z11.386 I-0.23876 J-0.529947 K0.813726
; N6030 X17.035 Y31.17 Z11.451 I-0.23558 J-0.542791 K0.806151
; N6035 X17.608 Y31.013 Z11.511 I-0.232776 J-0.553933 K0.799358
; N6040 X18.18 Y30.858 Z11.568 I-0.229748 J-0.565405 K0.79217
; N6045 X18.719 Y30.72 Z11.624 I-0.226825 J-0.576272 K0.78515
; N6050 X19.258 Y30.583 Z11.678 I-0.2237 J-0.587431 K0.777743
; N6055 X19.619 Y30.496 Z11.716 I-0.221589 J-0.594905 K0.772649
; N6060 X19.981 Y30.41 Z11.752 I-0.219396 J-0.602503 K0.767369
; N6065 X20.342 Y30.325 Z11.788 I-0.217124 J-0.610218 K0.7619
; N6070 X20.704 Y30.241 Z11.823 I-0.214774 J-0.618047 K0.756234
; N6075 X21.103 Y30.153 Z11.864 I-0.212211 J-0.626608 K0.749886
; N6080 X21.502 Y30.067 Z11.903 I-0.209557 J-0.63529 K0.743298
; N6085 X22.302 Y29.897 Z11.979 I-0.203959 J-0.652997 K0.72938
; N6090 X23.236 Y29.712 Z12.069 I-0.197245 J-0.673691 K0.712205
; N6095 X24.171 Y29.533 Z12.153 I-0.190137 J-0.69471 K0.693705
; N6100 X25.089 Y29.369 Z12.234 I-0.183027 J-0.715175 K0.674556
; N6105 X26.008 Y29.212 Z12.31 I-0.175656 J-0.735615 K0.654229
; N6110 X26.62 Y29.112 Z12.36 I-0.170754 J-0.748953 K0.640244
; N6115 X26.925 Y29.064 Z12.384 I-0.168287 J-0.755571 K0.633081
; N6120 X27.231 Y29.016 Z12.407 I-0.165815 J-0.762145 K0.625812
; N6125 X27.844 Y28.922 Z12.452 I-0.16087 J-0.775135 K0.610972
; N6130 X28.479 Y28.829 Z12.498 I-0.155822 J-0.788271 K0.595272
; N6135 X29.114 Y28.738 Z12.542 I-0.150841 J-0.80109 K0.579225
; N6140 X29.75 Y28.651 Z12.583 I-0.145967 J-0.813542 K0.562889
; N6145 X30.407 Y28.563 Z12.623 I-0.141067 J-0.825986 K0.545754
; N6150 X31.064 Y28.478 Z12.661 I-0.136376 J-0.837951 K0.528432
; N6155 X31.721 Y28.395 Z12.697 I-0.131942 J-0.849398 K0.510993
; N6160 X32.078 Y28.351 Z12.715 I-0.129632 J-0.855414 K0.501461
; N6165 X32.436 Y28.308 Z12.733 I-0.127417 J-0.861265 K0.491922
; N6170 X33.151 Y28.224 Z12.767 I-0.123305 J-0.872461 K0.472871
; N6175 X33.866 Y28.142 Z12.8 I-0.119664 J-0.882968 K0.453926
; N6180 X34.263 Y28.097 Z12.816 I-0.117802 J-0.888557 K0.443384
; N6185 X34.661 Y28.052 Z12.831 I-0.116113 J-0.893926 K0.432914
; N6190 X35.058 Y28.008 Z12.846 I-0.114599 J-0.89908 K0.422519
; N6195 X35.456 Y27.965 Z12.861 I-0.113272 J-0.904017 K0.412217
; N6200 X35.854 Y27.922 Z12.875 I-0.112142 J-0.908738 K0.40202
; N6205 X36.252 Y27.879 Z12.89 I-0.11121 J-0.91325 K0.391928
; N6210 X37.156 Y27.781 Z12.915 I-0.109699 J-0.922857 K0.369191
; N6215 X38.061 Y27.684 Z12.941 I-0.10934 J-0.931405 K0.347173
; N6220 X38.965 Y27.588 Z12.966 I-0.11019 J-0.938945 K0.325946
; N6225 X39.872 Y27.486 Z12.983 I-0.112108 J-0.945673 K0.305181
; N6230 X40.326 Y27.435 Z12.992 I-0.113567 J-0.94868 K0.295142
; N6235 X40.779 Y27.383 Z13.001 I-0.115364 J-0.951461 K0.285331
; N6240 X41.233 Y27.331 Z13.01 I-0.117505 J-0.954018 K0.275759
; N6245 X41.686 Y27.277 Z13.02 I-0.11999 J-0.95636 K0.266417
; N6250 X42.149 Y27.22 Z13.026 I-0.122812 J-0.95858 K0.256984
; N6255 X42.613 Y27.162 Z13.032 I-0.126006 J-0.960583 K0.247797
; N6260 X43.075 Y27.102 Z13.039 I-0.12958 J-0.962366 K0.238873
; N6265 X43.538 Y27.04 Z13.047 I-0.133536 J-0.963939 K0.230196
; N6270 X44. Y26.976 Z13.051 I-0.137814 J-0.965331 K0.221682
; N6275 X44.462 Y26.911 Z13.056 I-0.142482 J-0.966515 K0.213419
; N6280 X45.384 Y26.772 Z13.067 I-0.152985 J-0.968259 K0.197662
; N6285 X45.851 Y26.698 Z13.071 I-0.158862 J-0.968849 K0.189986
; N6290 X46.317 Y26.621 Z13.075 I-0.165145 J-0.969225 K0.182565
; N6295 X46.829 Y26.532 Z13.078 I-0.172488 J-0.969404 K0.174656
; N6300 X47.34 Y26.44 Z13.083 I-0.180328 J-0.969317 K0.167053
; N6305 X47.963 Y26.321 Z13.086 I-0.190547 J-0.96886 K0.158118
; N6310 X48.274 Y26.26 Z13.088 I-0.195939 J-0.968477 K0.15382
; N6315 X48.584 Y26.196 Z13.09 I-0.201507 J-0.96799 K0.149635
; N6320 X49.262 Y26.051 Z13.093 I-0.214268 J-0.966576 K0.140784
; N6325 X49.601 Y25.975 Z13.095 I-0.220973 J-0.965672 K0.136559
; N6330 X49.938 Y25.897 Z13.097 I-0.227894 J-0.964633 K0.132468
; N6335 X50.492 Y25.763 Z13.099 I-0.239712 J-0.962637 K0.125971
; N6340 X51.043 Y25.622 Z13.101 I-0.252124 J-0.960247 K0.119828
; N6345 X51.589 Y25.475 Z13.103 I-0.26502 J-0.957478 K0.114016
; N6350 X52.132 Y25.321 Z13.105 I-0.278484 J-0.954288 K0.108537
; N6355 X52.422 Y25.235 Z13.105 I-0.28589 J-0.952413 K0.105716
; N6360 X52.711 Y25.148 Z13.106 I-0.29345 J-0.950411 K0.102986
; N6365 X52.999 Y25.057 Z13.106 I-0.301162 J-0.948279 K0.100347
; N6370 X53.286 Y24.965 Z13.108 I-0.309024 J-0.946013 K0.097797
; N6375 X53.781 Y24.799 Z13.108 I-0.322957 J-0.941779 K0.093551
; N6380 X54.273 Y24.627 Z13.109 I-0.337288 J-0.937132 K0.089561
; N6385 X54.695 Y24.472 Z13.11 I-0.349933 J-0.932791 K0.086297
; N6390 X55.114 Y24.311 Z13.111 I-0.362864 J-0.928119 K0.083215
; N6395 X55.528 Y24.146 Z13.111 I-0.375943 J-0.923157 K0.080304
; N6400 X55.939 Y23.975 Z13.112 I-0.389234 J-0.917867 K0.077563
; N6405 X56.349 Y23.798 Z13.112 I-0.402774 J-0.912225 K0.074954
; N6410 X56.756 Y23.615 Z13.113 I-0.416523 J-0.906229 K0.072505
; N6415 X57.158 Y23.426 Z13.113 I-0.430351 J-0.899928 K0.070203
; N6420 X57.557 Y23.232 Z13.113 I-0.444297 J-0.893292 K0.068046
; N6425 X57.989 Y23.012 Z13.113 I-0.4597 J-0.885631 K0.065822
; N6430 X58.418 Y22.784 Z13.114 I-0.47524 J-0.877543 K0.063761
; N6435 X58.809 Y22.568 Z13.114 I-0.489588 J-0.869749 K0.061979
; N6440 X59.197 Y22.346 Z13.114 I-0.503945 J-0.861627 K0.060319
; N6445 X59.532 Y22.147 Z13.114 I-0.516498 J-0.854257 K0.05895
; N6450 X59.864 Y21.943 Z13.114 I-0.529058 J-0.846624 K0.057665
; N6455 X60.233 Y21.708 Z13.114 I-0.543092 J-0.837783 K0.056304
; N6460 X60.598 Y21.467 Z13.115 I-0.557029 J-0.828668 K0.055033
; N6465 X60.958 Y21.221 Z13.115 I-0.570836 J-0.819297 K0.053837
; N6470 X61.313 Y20.969 Z13.115 I-0.584551 J-0.809642 K0.05272
; N6475 X61.662 Y20.712 Z13.115 I-0.598036 J-0.799802 K0.051666
; N6480 X62.007 Y20.45 Z13.115 I-0.611333 J-0.78975 K0.050674
; N6485 X62.347 Y20.182 Z13.115 I-0.624434 J-0.779493 K0.049728
; N6490 X62.683 Y19.909 Z13.115 I-0.637354 J-0.769022 K0.048831
; N6495 X63.053 Y19.596 Z13.115 I-0.651577 J-0.757071 K0.047861
; N6500 X63.418 Y19.276 Z13.115 I-0.665477 J-0.744942 K0.046933
; N6505 X63.714 Y19.008 Z13.115 I-0.67665 J-0.734854 K0.046188
; N6510 X64.005 Y18.736 Z13.115 I-0.687615 J-0.724651 K0.045459
; N6515 X64.292 Y18.459 Z13.115 I-0.698356 J-0.714352 K0.044734
; N6520 X64.576 Y18.178 Z13.115 I-0.708845 J-0.70399 K0.044013
; N6525 X64.873 Y17.873 Z13.115 I-0.719755 J-0.69288 K0.043238
; N6530 X65.166 Y17.564 Z13.116 I-0.73039 J-0.68171 K0.042456
; N6535 X65.52 Y17.178 Z13.115 I-0.74307 J-0.667927 K0.041466
; N6540 X65.694 Y16.983 Z13.115 I-0.749242 J-0.661028 K0.040959
; N6545 X65.866 Y16.785 Z13.116 I-0.755304 J-0.654126 K0.040442
; N6550 X66.038 Y16.585 Z13.116 I-0.761289 J-0.647183 K0.039905
; N6555 X66.208 Y16.384 Z13.116 I-0.767166 J-0.64024 K0.039354
; N6560 X66.542 Y15.976 Z13.116 I-0.778593 J-0.626365 K0.038204
; N6565 X66.801 Y15.649 Z13.116 I-0.787307 J-0.615435 K0.037235
; N6570 X67.055 Y15.319 Z13.116 I-0.795756 J-0.604535 K0.036208
; N6575 X67.363 Y14.907 Z13.116 I-0.805821 J-0.591133 K0.034843
; N6580 X67.515 Y14.698 Z13.116 I-0.810708 J-0.584455 K0.034118
; N6585 X67.815 Y14.275 Z13.116 I-0.820272 J-0.571047 K0.032553
; N6590 X67.964 Y14.059 Z13.116 I-0.824948 J-0.564319 K0.031707
; N6595 X68.256 Y13.624 Z13.116 I-0.834019 J-0.550925 K0.029889
; N6600 X68.534 Y13.196 Z13.116 I-0.84251 J-0.537957 K0.027934
; N6605 X68.806 Y12.763 Z13.116 I-0.850688 J-0.525039 K0.025774
; N6610 X69.065 Y12.336 Z13.116 I-0.858394 J-0.512455 K0.023431
; N6615 X69.469 Y11.642 Z13.116 I-0.870166 J-0.492386 K0.019138
; N6620 X69.48 Y11.621 Z13.116 I-0.870494 J-0.491812 K0.018984
; N6625 X69.474 Y11.65 Z13.614 I-0.871568 J-0.489802 K0.021511
; N6630 X69.076 Y12.343 Z13.613 I-0.859656 J-0.510189 K0.026424
; N6635 X68.662 Y13.022 Z13.613 I-0.847105 J-0.530547 K0.030547
; N6640 X68.397 Y13.437 Z13.613 I-0.838965 J-0.543196 K0.032799
; N6645 X68.105 Y13.88 Z13.613 I-0.829855 J-0.556881 K0.035003
; N6650 X67.806 Y14.318 Z13.613 I-0.820379 J-0.570622 K0.037005
; N6655 X67.512 Y14.733 Z13.613 I-0.810906 J-0.583892 K0.038759
; N6660 X67.362 Y14.939 Z13.613 I-0.806034 J-0.590544 K0.039582
; N6665 X67.211 Y15.144 Z13.613 I-0.801071 J-0.597207 K0.040373
; N6670 X67.049 Y15.36 Z13.612 I-0.795699 J-0.604291 K0.041176
; N6675 X66.884 Y15.574 Z13.612 I-0.79022 J-0.611386 K0.041948
; N6680 X66.55 Y15.998 Z13.613 I-0.778936 J-0.6256 K0.043408
; N6685 X66.376 Y16.212 Z13.612 I-0.772979 J-0.632896 K0.044114
; N6690 X66.2 Y16.425 Z13.612 I-0.766904 J-0.640197 K0.044797
; N6695 X66.022 Y16.637 Z13.612 I-0.760712 J-0.647496 K0.045461
; N6700 X65.842 Y16.846 Z13.612 I-0.754404 J-0.65479 K0.046107
; N6705 X65.52 Y17.211 Z13.612 I-0.742981 J-0.667646 K0.047203
; N6710 X65.191 Y17.571 Z13.612 I-0.731179 J-0.680476 K0.048263
; N6715 X64.872 Y17.907 Z13.612 I-0.7196 J-0.692641 K0.04924
; N6720 X64.548 Y18.238 Z13.612 I-0.707701 J-0.704725 K0.050206
; N6725 X64.265 Y18.519 Z13.612 I-0.697209 J-0.71505 K0.051027
; N6730 X63.978 Y18.795 Z13.612 I-0.686471 J-0.725307 K0.051851
; N6735 X63.671 Y19.08 Z13.612 I-0.674928 J-0.735998 K0.05272
; N6740 X63.36 Y19.361 Z13.612 I-0.663161 J-0.746555 K0.053607
; N6745 X63.036 Y19.644 Z13.611 I-0.650858 J-0.757238 K0.054532
; N6750 X62.708 Y19.921 Z13.612 I-0.638309 J-0.767778 K0.055489
; N6755 X62.373 Y20.195 Z13.611 I-0.625434 J-0.77823 K0.056482
; N6760 X62.033 Y20.464 Z13.611 I-0.612385 J-0.788464 K0.057525
; N6765 X61.688 Y20.727 Z13.611 I-0.599146 J-0.798492 K0.058611
; N6770 X61.339 Y20.985 Z13.611 I-0.585724 J-0.808304 K0.059759
; N6775 X60.983 Y21.238 Z13.611 I-0.572081 J-0.817928 K0.06097
; N6780 X60.623 Y21.485 Z13.611 I-0.558354 J-0.827263 K0.06226
; N6785 X60.259 Y21.727 Z13.611 I-0.544504 J-0.836342 K0.063623
; N6790 X59.89 Y21.963 Z13.611 I-0.530564 J-0.845143 K0.065079
; N6795 X59.516 Y22.193 Z13.61 I-0.516533 J-0.853671 K0.066623
; N6800 X59.138 Y22.418 Z13.61 I-0.502522 J-0.861864 K0.068277
; N6805 X58.755 Y22.637 Z13.61 I-0.48847 J-0.869766 K0.070034
; N6810 X58.368 Y22.85 Z13.61 I-0.474435 J-0.877348 K0.071913
; N6815 X57.93 Y23.082 Z13.609 I-0.458778 J-0.885452 K0.07415
; N6820 X57.488 Y23.306 Z13.609 I-0.443273 J-0.893111 K0.076559
; N6825 X57.088 Y23.5 Z13.608 I-0.429476 J-0.899629 K0.078854
; N6830 X56.685 Y23.689 Z13.608 I-0.415808 J-0.905811 K0.081299
; N6835 X56.274 Y23.874 Z13.607 I-0.40217 J-0.911712 K0.083909
; N6840 X55.861 Y24.053 Z13.607 I-0.388751 J-0.917256 K0.086686
; N6845 X55.443 Y24.226 Z13.606 I-0.375489 J-0.922483 K0.089624
; N6850 X55.022 Y24.394 Z13.606 I-0.362456 J-0.927375 K0.092742
; N6855 X54.594 Y24.558 Z13.605 I-0.349542 J-0.931984 K0.096057
; N6860 X54.163 Y24.716 Z13.604 I-0.336932 J-0.936249 K0.099567
; N6865 X53.881 Y24.816 Z13.603 I-0.328845 J-0.938865 K0.101948
; N6870 X53.597 Y24.914 Z13.602 I-0.32089 J-0.941343 K0.104416
; N6875 X53.313 Y25.01 Z13.602 I-0.313071 J-0.943686 K0.106972
; N6880 X53.027 Y25.103 Z13.601 I-0.305401 J-0.945893 K0.109618
; N6885 X52.493 Y25.271 Z13.599 I-0.291476 J-0.94967 K0.114749
; N6890 X51.956 Y25.432 Z13.598 I-0.278084 J-0.953006 K0.120207
; N6895 X51.408 Y25.587 Z13.595 I-0.265017 J-0.955971 K0.126039
; N6900 X50.858 Y25.736 Z13.594 I-0.252546 J-0.958508 K0.132226
; N6905 X50.527 Y25.821 Z13.592 I-0.245331 J-0.959842 K0.136076
; N6910 X50.195 Y25.904 Z13.59 I-0.238331 J-0.961032 K0.140059
; N6915 X49.53 Y26.064 Z13.587 I-0.22498 J-0.962992 K0.14843
; N6920 X48.855 Y26.217 Z13.582 I-0.212301 J-0.964452 K0.157353
; N6925 X48.177 Y26.361 Z13.579 I-0.200474 J-0.965389 K0.166836
; N6930 X47.612 Y26.475 Z13.574 I-0.191247 J-0.965798 K0.175096
; N6935 X47.328 Y26.53 Z13.572 I-0.186869 J-0.965871 K0.179372
; N6940 X47.045 Y26.584 Z13.57 I-0.182646 J-0.965855 K0.18375
; N6945 X46.658 Y26.655 Z13.566 I-0.177115 J-0.965709 K0.189834
; N6950 X46.27 Y26.724 Z13.563 I-0.17187 J-0.965404 K0.196102
; N6955 X45.4 Y26.872 Z13.552 I-0.16106 J-0.964189 K0.21071
; N6960 X44.964 Y26.943 Z13.547 I-0.156186 J-0.963286 K0.21837
; N6965 X44.528 Y27.011 Z13.543 I-0.151663 J-0.962187 K0.226262
; N6970 X44.069 Y27.081 Z13.536 I-0.147224 J-0.96085 K0.234716
; N6975 X43.61 Y27.149 Z13.528 I-0.143172 J-0.959295 K0.243425
; N6980 X43.15 Y27.215 Z13.522 I-0.139508 J-0.957512 K0.252404
; N6985 X42.691 Y27.279 Z13.516 I-0.136226 J-0.955504 K0.261637
; N6990 X42.198 Y27.346 Z13.506 I-0.133052 J-0.953145 K0.271682
; N6995 X41.706 Y27.411 Z13.496 I-0.130299 J-0.950521 K0.282015
; N7000 X40.72 Y27.539 Z13.478 I-0.126048 J-0.944439 K0.303556
; N7005 X39.761 Y27.657 Z13.452 I-0.123253 J-0.937563 K0.325244
; N7010 X38.802 Y27.774 Z13.426 I-0.121935 J-0.929555 K0.347936
; N7015 X37.842 Y27.89 Z13.4 I-0.122031 J-0.920352 K0.371565
; N7020 X37.494 Y27.931 Z13.388 I-0.122312 J-0.916768 K0.380231
; N7025 X37.145 Y27.973 Z13.375 I-0.122762 J-0.913023 K0.388996
; N7030 X36.448 Y28.056 Z13.35 I-0.124158 J-0.905029 K0.406826
; N7035 X36.1 Y28.098 Z13.337 I-0.125093 J-0.900779 K0.415871
; N7040 X35.752 Y28.141 Z13.324 I-0.126179 J-0.89636 K0.424991
; N7045 X35.35 Y28.189 Z13.306 I-0.127545 J-0.891104 K0.435507
; N7050 X34.948 Y28.238 Z13.288 I-0.129099 J-0.885618 K0.44611
; N7055 X34.546 Y28.288 Z13.27 I-0.13083 J-0.879907 K0.45678
; N7060 X34.144 Y28.339 Z13.251 I-0.13273 J-0.873967 K0.467509
; N7065 X33.342 Y28.442 Z13.212 I-0.136994 J-0.861415 K0.489077
; N7070 X32.497 Y28.552 Z13.165 I-0.141923 J-0.847411 K0.511617
; N7075 X31.653 Y28.666 Z13.115 I-0.147369 J-0.83249 K0.534081
; N7080 X30.81 Y28.785 Z13.062 I-0.153226 J-0.816724 K0.556313
; N7085 X30.186 Y28.874 Z13.019 I-0.157702 J-0.80463 K0.572451
; N7090 X29.563 Y28.967 Z12.974 I-0.162313 J-0.792159 K0.588336
; N7095 X28.94 Y29.061 Z12.927 I-0.167009 J-0.779363 K0.603905
; N7100 X28.333 Y29.157 Z12.879 I-0.171636 J-0.766613 K0.618746
; N7105 X28.03 Y29.205 Z12.854 I-0.173959 J-0.760152 K0.626025
; N7110 X27.727 Y29.254 Z12.829 I-0.176281 J-0.753645 K0.633202
; N7115 X27.122 Y29.355 Z12.777 I-0.180905 J-0.740516 K0.647232
; N7120 X26.212 Y29.512 Z12.697 I-0.187844 J-0.720464 K0.667568
; N7125 X25.303 Y29.675 Z12.611 I-0.194577 J-0.700347 K0.68677
; N7130 X24.398 Y29.847 Z12.524 I-0.201137 J-0.680197 K0.704895
; N7135 X23.494 Y30.024 Z12.432 I-0.207358 J-0.660331 K0.72178
; N7140 X22.564 Y30.218 Z12.337 I-0.213589 J-0.639969 K0.738119
; N7145 X21.636 Y30.418 Z12.236 I-0.219362 J-0.620234 K0.75312
; N7150 X20.889 Y30.591 Z12.157 I-0.223864 J-0.604516 K0.76449
; N7155 X20.516 Y30.678 Z12.116 I-0.225998 J-0.596861 K0.769858
; N7160 X20.143 Y30.766 Z12.074 I-0.22806 J-0.58934 K0.775027
; N7165 X19.818 Y30.847 Z12.04 I-0.229873 J-0.582762 K0.779453
; N7170 X19.493 Y30.928 Z12.004 I-0.231627 J-0.576296 K0.783729
; N7175 X19.168 Y31.01 Z11.967 I-0.233322 J-0.569939 K0.787864
; N7180 X18.844 Y31.092 Z11.93 I-0.234956 J-0.56369 K0.791864
; N7185 X18.44 Y31.202 Z11.887 I-0.237026 J-0.555849 K0.796775
; N7190 X18.036 Y31.312 Z11.843 I-0.238998 J-0.548185 K0.801482
; N7195 X17.23 Y31.535 Z11.752 I-0.242661 J-0.533367 K0.81033
; N7200 X16.591 Y31.725 Z11.683 I-0.245501 J-0.521742 K0.817016
; N7205 X15.952 Y31.917 Z11.612 I-0.248082 J-0.510538 K0.82329
; N7210 X15.318 Y32.12 Z11.545 I-0.250571 J-0.499522 K0.829272
; N7215 X14.685 Y32.326 Z11.475 I-0.25282 J-0.488876 K0.834914
; N7220 X14.028 Y32.554 Z11.406 I-0.254983 J-0.478118 K0.840468
; N7225 X13.372 Y32.783 Z11.337 I-0.257107 J-0.467287 K0.845895
; N7230 X12.08 Y33.267 Z11.203 I-0.260679 J-0.446742 K0.855844
; N7235 X12.255 Y33.657 Z11.461 I-0.266542 J-0.44308 K0.855941
; N7240 X13.069 Y33.346 Z11.55 I-0.264283 J-0.455042 K0.850348
; N7245 X14.301 Y32.9 Z11.687 I-0.260518 J-0.473582 K0.841338
; N7250 X15.049 Y32.648 Z11.775 I-0.258088 J-0.485074 K0.83552
; N7255 X15.798 Y32.399 Z11.859 I-0.255399 J-0.497045 K0.829287
; N7260 X16.49 Y32.184 Z11.941 I-0.252871 J-0.508232 K0.82326
; N7265 X17.182 Y31.972 Z12.02 I-0.250094 J-0.519911 K0.81679
; N7270 X17.952 Y31.753 Z12.114 I-0.246975 J-0.533042 K0.80924
; N7275 X18.723 Y31.537 Z12.204 I-0.243582 J-0.546807 K0.801043
; N7280 X19.549 Y31.322 Z12.305 I-0.239862 J-0.561835 K0.791711
; N7285 X19.963 Y31.216 Z12.354 I-0.237877 J-0.569633 K0.786722
; N7290 X20.377 Y31.11 Z12.402 I-0.235811 J-0.577627 K0.781499
; N7295 X21.147 Y30.925 Z12.494 I-0.23196 J-0.592612 K0.771366
; N7300 X21.918 Y30.742 Z12.583 I-0.227814 J-0.608236 K0.760362
; N7305 X22.816 Y30.543 Z12.688 I-0.222809 J-0.626758 K0.746679
; N7310 X23.717 Y30.349 Z12.789 I-0.217388 J-0.645979 K0.731747
; N7315 X24.616 Y30.165 Z12.889 I-0.211781 J-0.665409 K0.715807
; N7320 X25.517 Y29.987 Z12.985 I-0.205822 J-0.685255 K0.698615
; N7325 X26.232 Y29.851 Z13.059 I-0.200974 J-0.701012 K0.684246
; N7330 X26.947 Y29.719 Z13.131 I-0.195959 J-0.716842 K0.669132
; N7335 X27.305 Y29.655 Z13.166 I-0.193405 J-0.724755 K0.661305
; N7340 X27.664 Y29.591 Z13.2 I-0.190828 J-0.732648 K0.653308
; N7345 X28.354 Y29.471 Z13.264 I-0.185852 J-0.747702 K0.637496
; N7350 X28.7 Y29.412 Z13.295 I-0.183349 J-0.755166 K0.629371
; N7355 X29.045 Y29.354 Z13.325 I-0.180845 J-0.762573 K0.621111
; N7360 X29.391 Y29.297 Z13.355 I-0.178345 J-0.769911 K0.612723
; N7365 X29.737 Y29.241 Z13.384 I-0.175855 J-0.777172 K0.604217
; N7370 X30.377 Y29.138 Z13.435 I-0.171253 J-0.790413 K0.588149
; N7375 X31.017 Y29.038 Z13.484 I-0.166753 J-0.803302 K0.571751
; N7380 X31.658 Y28.94 Z13.531 I-0.162402 J-0.815784 K0.555088
; N7385 X31.989 Y28.89 Z13.553 I-0.160196 J-0.822081 K0.54637
; N7390 X32.319 Y28.841 Z13.575 I-0.158047 J-0.828252 K0.537605
; N7395 X32.98 Y28.744 Z13.618 I-0.153946 J-0.840196 K0.519973
; N7400 X33.642 Y28.65 Z13.659 I-0.150149 J-0.851577 K0.502267
; N7405 X34.508 Y28.528 Z13.706 I-0.145546 J-0.865739 K0.478866
; N7410 X35.375 Y28.409 Z13.75 I-0.141657 J-0.878837 K0.455608
; N7415 X36.242 Y28.294 Z13.793 I-0.138585 J-0.890847 K0.432649
; N7420 X36.768 Y28.223 Z13.816 I-0.137074 J-0.897669 K0.418809
; N7425 X37.294 Y28.154 Z13.838 I-0.135912 J-0.904094 K0.405145
; N7430 X37.75 Y28.093 Z13.854 I-0.135109 J-0.909419 K0.393323
; N7435 X38.206 Y28.032 Z13.869 I-0.134596 J-0.914447 K0.381668
; N7440 X38.663 Y27.971 Z13.885 I-0.134387 J-0.919177 K0.370209
; N7445 X39.119 Y27.911 Z13.9 I-0.134487 J-0.92362 K0.358942
; N7450 X39.347 Y27.88 Z13.908 I-0.134658 J-0.925733 K0.353391
; N7455 X39.575 Y27.85 Z13.916 I-0.134909 J-0.927778 K0.347891
; N7460 X40.032 Y27.789 Z13.931 I-0.135657 J-0.931661 K0.337054
; N7465 X40.946 Y27.663 Z13.952 I-0.137912 J-0.938805 K0.315634
; N7470 X41.86 Y27.535 Z13.973 I-0.141582 J-0.944887 K0.2952
; N7475 X42.316 Y27.469 Z13.984 I-0.143957 J-0.947546 K0.285365
; N7480 X42.773 Y27.403 Z13.996 I-0.146697 J-0.94996 K0.275782
; N7485 X43.229 Y27.333 Z14.003 I-0.149717 J-0.952193 K0.266297
; N7490 X43.686 Y27.263 Z14.011 I-0.153118 J-0.954185 K0.257071
; N7495 X44.142 Y27.191 Z14.019 I-0.156905 J-0.955937 K0.248122
; N7500 X44.598 Y27.118 Z14.027 I-0.161077 J-0.957458 K0.239431
; N7505 X45.054 Y27.041 Z14.032 I-0.165567 J-0.958788 K0.230898
; N7510 X45.509 Y26.963 Z14.038 I-0.170445 J-0.959888 K0.222628
; N7515 X45.964 Y26.882 Z14.044 I-0.175713 J-0.960759 K0.214633
; N7520 X46.418 Y26.799 Z14.051 I-0.181372 J-0.961404 K0.2069
; N7525 X47.165 Y26.656 Z14.057 I-0.191464 J-0.962018 K0.194583
; N7530 X47.91 Y26.505 Z14.066 I-0.202641 J-0.962004 K0.182989
; N7535 X48.215 Y26.44 Z14.068 I-0.207506 J-0.96183 K0.178396
; N7540 X48.519 Y26.374 Z14.07 I-0.212548 J-0.961547 K0.173925
; N7545 X49.127 Y26.238 Z14.076 I-0.223149 J-0.96066 K0.165336
; N7550 X49.794 Y26.079 Z14.079 I-0.235604 J-0.959197 K0.156308
; N7555 X50.46 Y25.911 Z14.084 I-0.248925 J-0.957171 K0.147849
; N7560 X50.788 Y25.825 Z14.085 I-0.25582 J-0.955966 K0.143824
; N7565 X51.116 Y25.736 Z14.086 I-0.262931 J-0.954613 K0.139935
; N7570 X51.443 Y25.645 Z14.088 I-0.270258 J-0.953109 K0.136178
; N7575 X51.769 Y25.552 Z14.09 I-0.277801 J-0.95145 K0.132553
; N7580 X52.313 Y25.389 Z14.092 I-0.290858 J-0.94834 K0.126704
; N7585 X52.584 Y25.305 Z14.093 I-0.297595 J-0.946617 K0.123911
; N7590 X52.854 Y25.219 Z14.094 I-0.30447 J-0.944779 K0.121205
; N7595 X53.384 Y25.044 Z14.096 I-0.318376 J-0.940831 K0.116074
; N7600 X53.912 Y24.862 Z14.098 I-0.332793 J-0.936413 K0.111264
; N7605 X54.192 Y24.761 Z14.098 I-0.340669 J-0.933867 K0.108795
; N7610 X54.471 Y24.658 Z14.098 I-0.348679 J-0.931182 K0.106414
; N7615 X54.749 Y24.552 Z14.099 I-0.356819 J-0.928353 K0.104118
; N7620 X55.026 Y24.444 Z14.1 I-0.365089 J-0.925379 K0.101906
; N7625 X55.447 Y24.275 Z14.101 I-0.377919 J-0.920567 K0.098656
; N7630 X55.865 Y24.1 Z14.102 I-0.390987 J-0.915419 K0.095591
; N7635 X56.278 Y23.92 Z14.102 I-0.404209 J-0.909958 K0.092691
; N7640 X56.689 Y23.734 Z14.103 I-0.417657 J-0.90414 K0.089963
; N7645 X57.092 Y23.545 Z14.104 I-0.431146 J-0.898039 K0.087401
; N7650 X57.492 Y23.349 Z14.104 I-0.444773 J-0.891601 K0.084995
; N7655 X57.946 Y23.117 Z14.104 I-0.460531 J-0.883812 K0.082392
; N7660 X58.396 Y22.878 Z14.105 I-0.476459 J-0.875551 K0.079975
; N7665 X58.782 Y22.664 Z14.105 I-0.490365 J-0.86802 K0.077995
; N7670 X59.165 Y22.443 Z14.106 I-0.504294 J-0.860169 K0.07614
; N7675 X59.543 Y22.218 Z14.106 I-0.518193 J-0.852023 K0.074388
; N7680 X59.917 Y21.986 Z14.107 I-0.532118 J-0.843539 K0.072746
; N7685 X60.286 Y21.749 Z14.106 I-0.545962 J-0.83478 K0.071193
; N7690 X60.651 Y21.506 Z14.107 I-0.559723 J-0.825741 K0.069733
; N7695 X61.011 Y21.258 Z14.107 I-0.573369 J-0.816442 K0.068345
; N7700 X61.367 Y21.003 Z14.107 I-0.586938 J-0.806852 K0.067038
; N7705 X61.716 Y20.745 Z14.107 I-0.600295 J-0.797068 K0.065792
; N7710 X62.061 Y20.481 Z14.108 I-0.613475 J-0.787067 K0.064608
; N7715 X62.431 Y20.187 Z14.107 I-0.627624 J-0.775933 K0.063365
; N7720 X62.796 Y19.886 Z14.108 I-0.641576 J-0.764535 K0.062179
; N7725 X63.161 Y19.574 Z14.108 I-0.65549 J-0.752736 K0.061002
; N7730 X63.341 Y19.415 Z14.108 I-0.662334 J-0.746768 K0.060428
; N7735 X63.52 Y19.255 Z14.108 I-0.669105 J-0.740753 K0.059862
; N7740 X63.707 Y19.085 Z14.108 I-0.676154 J-0.734373 K0.059265
; N7745 X63.893 Y18.912 Z14.108 I-0.683124 J-0.727941 K0.058674
; N7750 X64.077 Y18.738 Z14.108 I-0.690015 J-0.72146 K0.058088
; N7755 X64.259 Y18.562 Z14.108 I-0.696813 J-0.714944 K0.057503
; N7760 X64.532 Y18.292 Z14.108 I-0.706938 J-0.705007 K0.056607
; N7765 X64.801 Y18.019 Z14.109 I-0.716843 J-0.695006 K0.055708
; N7770 X64.979 Y17.833 Z14.108 I-0.723344 J-0.688286 K0.055096
; N7775 X65.155 Y17.647 Z14.108 I-0.72975 J-0.68154 K0.054479
; N7780 X65.502 Y17.268 Z14.109 I-0.742266 J-0.667989 K0.053219
; N7785 X65.782 Y16.952 Z14.109 I-0.752219 J-0.656846 K0.052144
; N7790 X66.057 Y16.633 Z14.109 I-0.7619 J-0.645682 K0.05103
; N7795 X66.405 Y16.214 Z14.109 I-0.773998 J-0.631249 K0.04951
; N7800 X66.576 Y16.002 Z14.109 I-0.77988 J-0.62403 K0.048714
; N7805 X66.745 Y15.789 Z14.109 I-0.785652 J-0.616812 K0.047891
; N7810 X66.898 Y15.592 Z14.109 I-0.790835 J-0.610214 K0.047107
; N7815 X67.05 Y15.394 Z14.109 I-0.795928 J-0.603618 K0.046295
; N7820 X67.348 Y14.994 Z14.109 I-0.805847 J-0.590443 K0.044581
; N7825 X67.668 Y14.55 Z14.109 I-0.816319 J-0.576034 K0.042535
; N7830 X67.824 Y14.325 Z14.109 I-0.821402 J-0.568842 K0.041442
; N7835 X68.104 Y13.915 Z14.11 I-0.830362 J-0.555835 K0.039322
