%
O0000(WAAM_CYLINDER_2875_IN51)
(DATE=DD-MM-YY - 17-04-25 TIME=HH:MM - 19:00)
(MCAM ;FILE - C:\USERS\CAILEAN S P15\DOCUMENTS\MASTERCAM\WAAM_CYLINDER.EMCAM)
(NC ;FILE - ;F:\WAAM_CYLINDER_2875_IN51.nc)
(MATERIAL - ALUMINUM INCH - 2024)
( T256 |  1/2 BALL ENDMILL | H256 )
N100 G20
N110 G0 G17 G40 G49 G80 G90
N120 T256 M6
N130 G0 G90 G54 X-.4442 Y0. A0. S1069 M3
N140 G43 H256 Z1.75
N150 G1 Z1.25 F0.3
N160 X-.5952
N170 X-.5765 Y-.148 Z1.24
N180 X-.5216 Y-.2868 Z1.23
N190 X-.4339 Y-.4075 Z1.22
N200 X-.319 Y-.5026 Z1.21
N210 X-.1839 Y-.5661 Z1.2
N220 X-.0374 Y-.5941 Z1.19
N230 X.1115 Y-.5847 Z1.18
N240 X.2534 Y-.5386 Z1.17
N250 X.3794 Y-.4586 Z1.16
N260 X.4816 Y-.3499 Z1.15
N270 X.5534 Y-.2191 Z1.14
N280 X.5906 Y-.0746 Z1.13
N290 Y.0746 Z1.12
N300 X.5534 Y.2191 Z1.11
N310 X.4816 Y.3499 Z1.1
N320 X.3794 Y.4586 Z1.09
N330 X.2534 Y.5386 Z1.08
N340 X.1115 Y.5847 Z1.07
N350 X-.0374 Y.5941 Z1.06
N360 X-.1839 Y.5661 Z1.05
N370 X-.319 Y.5026 Z1.04
N380 X-.4339 Y.4075 Z1.03
N390 X-.5216 Y.2868 Z1.02
N400 X-.5765 Y.148 Z1.01
N410 X-.5952 Y0. Z1.
N420 X-.5765 Y-.148 Z.99
N430 X-.5216 Y-.2868 Z.98
N440 X-.4339 Y-.4075 Z.97
N450 X-.319 Y-.5026 Z.96
N460 X-.1839 Y-.5661 Z.95
N470 X-.0374 Y-.5941 Z.94
N480 X.1115 Y-.5847 Z.93
N490 X.2534 Y-.5386 Z.92
N500 X.3794 Y-.4586 Z.91
N510 X.4816 Y-.3499 Z.9
N520 X.5534 Y-.2191 Z.89
N530 X.5906 Y-.0746 Z.88
N540 Y.0746 Z.87
N550 X.5534 Y.2191 Z.86
N560 X.4816 Y.3499 Z.85
N570 X.3794 Y.4586 Z.84
N580 X.2534 Y.5386 Z.83
N590 X.1115 Y.5847 Z.82
N600 X-.0374 Y.5941 Z.81
N610 X-.1839 Y.5661 Z.8
N620 X-.319 Y.5026 Z.79
N630 X-.4339 Y.4075 Z.78
N640 X-.5216 Y.2868 Z.77
N650 X-.5765 Y.148 Z.76
N660 X-.5952 Y0. Z.75
N670 X-.5765 Y-.148 Z.74
N680 X-.5216 Y-.2868 Z.73
N690 X-.4339 Y-.4075 Z.72
N700 X-.319 Y-.5026 Z.71
N710 X-.1839 Y-.5661 Z.7
N720 X-.0374 Y-.5941 Z.69
N730 X.1115 Y-.5847 Z.68
N740 X.2534 Y-.5386 Z.67
N750 X.3794 Y-.4586 Z.66
N760 X.4816 Y-.3499 Z.65
N770 X.5534 Y-.2191 Z.64
N780 X.5906 Y-.0746 Z.63
N790 Y.0746 Z.62
N800 X.5534 Y.2191 Z.61
N810 X.4816 Y.3499 Z.6
N820 X.3794 Y.4586 Z.59
N830 X.2534 Y.5386 Z.58
N840 X.1115 Y.5847 Z.57
N850 X-.0374 Y.5941 Z.56
N860 X-.1839 Y.5661 Z.55
N870 X-.319 Y.5026 Z.54
N880 X-.4339 Y.4075 Z.53
N890 X-.5216 Y.2868 Z.52
N900 X-.5765 Y.148 Z.51
N910 X-.5952 Y0. Z.5
N920 X-.5765 Y-.148 Z.49
N930 X-.5216 Y-.2868 Z.48
N940 X-.4339 Y-.4075 Z.47
N950 X-.319 Y-.5026 Z.46
N960 X-.1839 Y-.5661 Z.45
N970 X-.0374 Y-.5941 Z.44
N980 X.1115 Y-.5847 Z.43
N990 X.2534 Y-.5386 Z.42
N1000 X.3794 Y-.4586 Z.41
N1010 X.4816 Y-.3499 Z.4
N1020 X.5534 Y-.2191 Z.39
N1030 X.5906 Y-.0746 Z.38
N1040 Y.0746 Z.37
N1050 X.5534 Y.2191 Z.36
N1060 X.4816 Y.3499 Z.35
N1070 X.3794 Y.4586 Z.34
N1080 X.2534 Y.5386 Z.33
N1090 X.1115 Y.5847 Z.32
N1100 X-.0374 Y.5941 Z.31
N1110 X-.1839 Y.5661 Z.3
N1120 X-.319 Y.5026 Z.29
N1130 X-.4339 Y.4075 Z.28
N1140 X-.5216 Y.2868 Z.27
N1150 X-.5765 Y.148 Z.26
N1160 X-.5952 Y0. Z.25
N1170 X-.5765 Y-.148 Z.24
N1180 X-.5216 Y-.2868 Z.23
N1190 X-.4339 Y-.4075 Z.22
N1200 X-.319 Y-.5026 Z.21
N1210 X-.1839 Y-.5661 Z.2
N1220 X-.0374 Y-.5941 Z.19
N1230 X.1115 Y-.5847 Z.18
N1240 X.2534 Y-.5386 Z.17
N1250 X.3794 Y-.4586 Z.16
N1260 X.4816 Y-.3499 Z.15
N1270 X.5534 Y-.2191 Z.14
N1280 X.5906 Y-.0746 Z.13
N1290 Y.0746 Z.12
N1300 X.5534 Y.2191 Z.11
N1310 X.4816 Y.3499 Z.1
N1320 X.3794 Y.4586 Z.09
N1330 X.2534 Y.5386 Z.08
N1340 X.1115 Y.5847 Z.07
N1350 X-.0374 Y.5941 Z.06
N1360 X-.1839 Y.5661 Z.05
N1370 X-.319 Y.5026 Z.04
N1380 X-.4339 Y.4075 Z.03
N1390 X-.5216 Y.2868 Z.02
N1400 X-.5765 Y.148 Z.01
N1410 X-.5952 Y0. Z0.
N1420 X-.4442
N1430 Z1.75
N1440 G0 X-.4522
N1450 G1 Z1.25 ;F6.42
N1460 X-.6032
N1470 X-.5843 Y-.15 Z1.24
N1480 X-.5286 Y-.2906 Z1.23
N1490 X-.4398 Y-.413 Z1.22
N1500 X-.3232 Y-.5093 Z1.21
N1510 X-.1864 Y-.5737 Z1.2
N1520 X-.0379 Y-.6021 Z1.19
N1530 X.113 Y-.5926 Z1.18
N1540 X.2569 Y-.5458 Z1.17
N1550 X.3845 Y-.4648 Z1.16
N1560 X.488 Y-.3546 Z1.15
N1570 X.5609 Y-.2221 Z1.14
N1580 X.5985 Y-.0756 Z1.13
N1590 Y.0756 Z1.12
N1600 X.5609 Y.2221 Z1.11
N1610 X.488 Y.3546 Z1.1
N1620 X.3845 Y.4648 Z1.09
N1630 X.2569 Y.5458 Z1.08
N1640 X.113 Y.5926 Z1.07
N1650 X-.0379 Y.6021 Z1.06
N1660 X-.1864 Y.5737 Z1.05
N1670 X-.3232 Y.5093 Z1.04
N1680 X-.4398 Y.413 Z1.03
N1690 X-.5286 Y.2906 Z1.02
N1700 X-.5843 Y.15 Z1.01
N1710 X-.6032 Y0. Z1.
N1720 X-.5843 Y-.15 Z.99
N1730 X-.5286 Y-.2906 Z.98
N1740 X-.4398 Y-.413 Z.97
N1750 X-.3232 Y-.5093 Z.96
N1760 X-.1864 Y-.5737 Z.95
N1770 X-.0379 Y-.6021 Z.94
N1780 X.113 Y-.5926 Z.93
N1790 X.2569 Y-.5458 Z.92
N1800 X.3845 Y-.4648 Z.91
N1810 X.488 Y-.3546 Z.9
N1820 X.5609 Y-.2221 Z.89
N1830 X.5985 Y-.0756 Z.88
N1840 Y.0756 Z.87
N1850 X.5609 Y.2221 Z.86
N1860 X.488 Y.3546 Z.85
N1870 X.3845 Y.4648 Z.84
N1880 X.2569 Y.5458 Z.83
N1890 X.113 Y.5926 Z.82
N1900 X-.0379 Y.6021 Z.81
N1910 X-.1864 Y.5737 Z.8
N1920 X-.3232 Y.5093 Z.79
N1930 X-.4398 Y.413 Z.78
N1940 X-.5286 Y.2906 Z.77
N1950 X-.5843 Y.15 Z.76
N1960 X-.6032 Y0. Z.75
N1970 X-.5843 Y-.15 Z.74
N1980 X-.5286 Y-.2906 Z.73
N1990 X-.4398 Y-.413 Z.72
N2000 X-.3232 Y-.5093 Z.71
N2010 X-.1864 Y-.5737 Z.7
N2020 X-.0379 Y-.6021 Z.69
N2030 X.113 Y-.5926 Z.68
N2040 X.2569 Y-.5458 Z.67
N2050 X.3845 Y-.4648 Z.66
N2060 X.488 Y-.3546 Z.65
N2070 X.5609 Y-.2221 Z.64
N2080 X.5985 Y-.0756 Z.63
N2090 Y.0756 Z.62
N2100 X.5609 Y.2221 Z.61
N2110 X.488 Y.3546 Z.6
N2120 X.3845 Y.4648 Z.59
N2130 X.2569 Y.5458 Z.58
N2140 X.113 Y.5926 Z.57
N2150 X-.0379 Y.6021 Z.56
N2160 X-.1864 Y.5737 Z.55
N2170 X-.3232 Y.5093 Z.54
N2180 X-.4398 Y.413 Z.53
N2190 X-.5286 Y.2906 Z.52
N2200 X-.5843 Y.15 Z.51
N2210 X-.6032 Y0. Z.5
N2220 X-.5843 Y-.15 Z.49
N2230 X-.5286 Y-.2906 Z.48
N2240 X-.4398 Y-.413 Z.47
N2250 X-.3232 Y-.5093 Z.46
N2260 X-.1864 Y-.5737 Z.45
N2270 X-.0379 Y-.6021 Z.44
N2280 X.113 Y-.5926 Z.43
N2290 X.2569 Y-.5458 Z.42
N2300 X.3845 Y-.4648 Z.41
N2310 X.488 Y-.3546 Z.4
N2320 X.5609 Y-.2221 Z.39
N2330 X.5985 Y-.0756 Z.38
N2340 Y.0756 Z.37
N2350 X.5609 Y.2221 Z.36
N2360 X.488 Y.3546 Z.35
N2370 X.3845 Y.4648 Z.34
N2380 X.2569 Y.5458 Z.33
N2390 X.113 Y.5926 Z.32
N2400 X-.0379 Y.6021 Z.31
N2410 X-.1864 Y.5737 Z.3
N2420 X-.3232 Y.5093 Z.29
N2430 X-.4398 Y.413 Z.28
N2440 X-.5286 Y.2906 Z.27
N2450 X-.5843 Y.15 Z.26
N2460 X-.6032 Y0. Z.25
N2470 X-.5843 Y-.15 Z.24
N2480 X-.5286 Y-.2906 Z.23
N2490 X-.4398 Y-.413 Z.22
N2500 X-.3232 Y-.5093 Z.21
N2510 X-.1864 Y-.5737 Z.2
N2520 X-.0379 Y-.6021 Z.19
N2530 X.113 Y-.5926 Z.18
N2540 X.2569 Y-.5458 Z.17
N2550 X.3845 Y-.4648 Z.16
N2560 X.488 Y-.3546 Z.15
N2570 X.5609 Y-.2221 Z.14
N2580 X.5985 Y-.0756 Z.13
N2590 Y.0756 Z.12
N2600 X.5609 Y.2221 Z.11
N2610 X.488 Y.3546 Z.1
N2620 X.3845 Y.4648 Z.09
N2630 X.2569 Y.5458 Z.08
N2640 X.113 Y.5926 Z.07
N2650 X-.0379 Y.6021 Z.06
N2660 X-.1864 Y.5737 Z.05
N2670 X-.3232 Y.5093 Z.04
N2680 X-.4398 Y.413 Z.03
N2690 X-.5286 Y.2906 Z.02
N2700 X-.5843 Y.15 Z.01
N2710 X-.6032 Y0. Z0.
N2720 X-.4522
N2730 Z1.75
N2740 G0 X-.4602
N2750 G1 Z1.25 ;F6.42
N2760 X-.6112
N2770 X-.592 Y-.152 Z1.24
N2780 X-.5356 Y-.2945 Z1.23
N2790 X-.4456 Y-.4184 Z1.22
N2800 X-.3275 Y-.5161 Z1.21
N2810 X-.1889 Y-.5813 Z1.2
N2820 X-.0384 Y-.61 Z1.19
N2830 X.1145 Y-.6004 Z1.18
N2840 X.2603 Y-.5531 Z1.17
N2850 X.3896 Y-.471 Z1.16
N2860 X.4945 Y-.3593 Z1.15
N2870 X.5683 Y-.225 Z1.14
N2880 X.6064 Y-.0766 Z1.13
N2890 Y.0766 Z1.12
N2900 X.5683 Y.225 Z1.11
N2910 X.4945 Y.3593 Z1.1
N2920 X.3896 Y.471 Z1.09
N2930 X.2603 Y.5531 Z1.08
N2940 X.1145 Y.6004 Z1.07
N2950 X-.0384 Y.61 Z1.06
N2960 X-.1889 Y.5813 Z1.05
N2970 X-.3275 Y.5161 Z1.04
N2980 X-.4456 Y.4184 Z1.03
N2990 X-.5356 Y.2945 Z1.02
N3000 X-.592 Y.152 Z1.01
N3010 X-.6112 Y0. Z1.
N3020 X-.592 Y-.152 Z.99
N3030 X-.5356 Y-.2945 Z.98
N3040 X-.4456 Y-.4184 Z.97
N3050 X-.3275 Y-.5161 Z.96
N3060 X-.1889 Y-.5813 Z.95
N3070 X-.0384 Y-.61 Z.94
N3080 X.1145 Y-.6004 Z.93
N3090 X.2603 Y-.5531 Z.92
N3100 X.3896 Y-.471 Z.91
N3110 X.4945 Y-.3593 Z.9
N3120 X.5683 Y-.225 Z.89
N3130 X.6064 Y-.0766 Z.88
N3140 Y.0766 Z.87
N3150 X.5683 Y.225 Z.86
N3160 X.4945 Y.3593 Z.85
N3170 X.3896 Y.471 Z.84
N3180 X.2603 Y.5531 Z.83
N3190 X.1145 Y.6004 Z.82
N3200 X-.0384 Y.61 Z.81
N3210 X-.1889 Y.5813 Z.8
N3220 X-.3275 Y.5161 Z.79
N3230 X-.4456 Y.4184 Z.78
N3240 X-.5356 Y.2945 Z.77
N3250 X-.592 Y.152 Z.76
N3260 X-.6112 Y0. Z.75
N3270 X-.592 Y-.152 Z.74
N3280 X-.5356 Y-.2945 Z.73
N3290 X-.4456 Y-.4184 Z.72
N3300 X-.3275 Y-.5161 Z.71
N3310 X-.1889 Y-.5813 Z.7
N3320 X-.0384 Y-.61 Z.69
N3330 X.1145 Y-.6004 Z.68
N3340 X.2603 Y-.5531 Z.67
N3350 X.3896 Y-.471 Z.66
N3360 X.4945 Y-.3593 Z.65
N3370 X.5683 Y-.225 Z.64
N3380 X.6064 Y-.0766 Z.63
N3390 Y.0766 Z.62
N3400 X.5683 Y.225 Z.61
N3410 X.4945 Y.3593 Z.6
N3420 X.3896 Y.471 Z.59
N3430 X.2603 Y.5531 Z.58
N3440 X.1145 Y.6004 Z.57
N3450 X-.0384 Y.61 Z.56
N3460 X-.1889 Y.5813 Z.55
N3470 X-.3275 Y.5161 Z.54
N3480 X-.4456 Y.4184 Z.53
N3490 X-.5356 Y.2945 Z.52
N3500 X-.592 Y.152 Z.51
N3510 X-.6112 Y0. Z.5
N3520 X-.592 Y-.152 Z.49
N3530 X-.5356 Y-.2945 Z.48
N3540 X-.4456 Y-.4184 Z.47
N3550 X-.3275 Y-.5161 Z.46
N3560 X-.1889 Y-.5813 Z.45
N3570 X-.0384 Y-.61 Z.44
N3580 X.1145 Y-.6004 Z.43
N3590 X.2603 Y-.5531 Z.42
N3600 X.3896 Y-.471 Z.41
N3610 X.4945 Y-.3593 Z.4
N3620 X.5683 Y-.225 Z.39
N3630 X.6064 Y-.0766 Z.38
N3640 Y.0766 Z.37
N3650 X.5683 Y.225 Z.36
N3660 X.4945 Y.3593 Z.35
N3670 X.3896 Y.471 Z.34
N3680 X.2603 Y.5531 Z.33
N3690 X.1145 Y.6004 Z.32
N3700 X-.0384 Y.61 Z.31
N3710 X-.1889 Y.5813 Z.3
N3720 X-.3275 Y.5161 Z.29
N3730 X-.4456 Y.4184 Z.28
N3740 X-.5356 Y.2945 Z.27
N3750 X-.592 Y.152 Z.26
N3760 X-.6112 Y0. Z.25
N3770 X-.592 Y-.152 Z.24
N3780 X-.5356 Y-.2945 Z.23
N3790 X-.4456 Y-.4184 Z.22
N3800 X-.3275 Y-.5161 Z.21
N3810 X-.1889 Y-.5813 Z.2
N3820 X-.0384 Y-.61 Z.19
N3830 X.1145 Y-.6004 Z.18
N3840 X.2603 Y-.5531 Z.17
N3850 X.3896 Y-.471 Z.16
N3860 X.4945 Y-.3593 Z.15
N3870 X.5683 Y-.225 Z.14
N3880 X.6064 Y-.0766 Z.13
N3890 Y.0766 Z.12
N3900 X.5683 Y.225 Z.11
N3910 X.4945 Y.3593 Z.1
N3920 X.3896 Y.471 Z.09
N3930 X.2603 Y.5531 Z.08
N3940 X.1145 Y.6004 Z.07
N3950 X-.0384 Y.61 Z.06
N3960 X-.1889 Y.5813 Z.05
N3970 X-.3275 Y.5161 Z.04
N3980 X-.4456 Y.4184 Z.03
N3990 X-.5356 Y.2945 Z.02
N4000 X-.592 Y.152 Z.01
N4010 X-.6112 Y0. Z0.
N4020 X-.4602
N4030 Z1.75
N4040 G0 X-.4682
N4050 G1 Z1.25 ;F6.42
N4060 X-.6192
N4070 X-.5998 Y-.154 Z1.24
N4080 X-.5427 Y-.2983 Z1.23
N4090 X-.4514 Y-.4239 Z1.22
N4100 X-.3318 Y-.5229 Z1.21
N4110 X-.1914 Y-.5889 Z1.2
N4120 X-.0389 Y-.618 Z1.19
N4130 X.116 Y-.6083 Z1.18
N4140 X.2637 Y-.5603 Z1.17
N4150 X.3947 Y-.4771 Z1.16
N4160 X.501 Y-.364 Z1.15
N4170 X.5758 Y-.228 Z1.14
N4180 X.6144 Y-.0776 Z1.13
N4190 Y.0776 Z1.12
N4200 X.5758 Y.228 Z1.11
N4210 X.501 Y.364 Z1.1
N4220 X.3947 Y.4771 Z1.09
N4230 X.2637 Y.5603 Z1.08
N4240 X.116 Y.6083 Z1.07
N4250 X-.0389 Y.618 Z1.06
N4260 X-.1914 Y.5889 Z1.05
N4270 X-.3318 Y.5229 Z1.04
N4280 X-.4514 Y.4239 Z1.03
N4290 X-.5427 Y.2983 Z1.02
N4300 X-.5998 Y.154 Z1.01
N4310 X-.6192 Y0. Z1.
N4320 X-.5998 Y-.154 Z.99
N4330 X-.5427 Y-.2983 Z.98
N4340 X-.4514 Y-.4239 Z.97
N4350 X-.3318 Y-.5229 Z.96
N4360 X-.1914 Y-.5889 Z.95
N4370 X-.0389 Y-.618 Z.94
N4380 X.116 Y-.6083 Z.93
N4390 X.2637 Y-.5603 Z.92
N4400 X.3947 Y-.4771 Z.91
N4410 X.501 Y-.364 Z.9
N4420 X.5758 Y-.228 Z.89
N4430 X.6144 Y-.0776 Z.88
N4440 Y.0776 Z.87
N4450 X.5758 Y.228 Z.86
N4460 X.501 Y.364 Z.85
N4470 X.3947 Y.4771 Z.84
N4480 X.2637 Y.5603 Z.83
N4490 X.116 Y.6083 Z.82
N4500 X-.0389 Y.618 Z.81
N4510 X-.1914 Y.5889 Z.8
N4520 X-.3318 Y.5229 Z.79
N4530 X-.4514 Y.4239 Z.78
N4540 X-.5427 Y.2983 Z.77
N4550 X-.5998 Y.154 Z.76
N4560 X-.6192 Y0. Z.75
N4570 X-.5998 Y-.154 Z.74
N4580 X-.5427 Y-.2983 Z.73
N4590 X-.4514 Y-.4239 Z.72
N4600 X-.3318 Y-.5229 Z.71
N4610 X-.1914 Y-.5889 Z.7
N4620 X-.0389 Y-.618 Z.69
N4630 X.116 Y-.6083 Z.68
N4640 X.2637 Y-.5603 Z.67
N4650 X.3947 Y-.4771 Z.66
N4660 X.501 Y-.364 Z.65
N4670 X.5758 Y-.228 Z.64
N4680 X.6144 Y-.0776 Z.63
N4690 Y.0776 Z.62
N4700 X.5758 Y.228 Z.61
N4710 X.501 Y.364 Z.6
N4720 X.3947 Y.4771 Z.59
N4730 X.2637 Y.5603 Z.58
N4740 X.116 Y.6083 Z.57
N4750 X-.0389 Y.618 Z.56
N4760 X-.1914 Y.5889 Z.55
N4770 X-.3318 Y.5229 Z.54
N4780 X-.4514 Y.4239 Z.53
N4790 X-.5427 Y.2983 Z.52
N4800 X-.5998 Y.154 Z.51
N4810 X-.6192 Y0. Z.5
N4820 X-.5998 Y-.154 Z.49
N4830 X-.5427 Y-.2983 Z.48
N4840 X-.4514 Y-.4239 Z.47
N4850 X-.3318 Y-.5229 Z.46
N4860 X-.1914 Y-.5889 Z.45
N4870 X-.0389 Y-.618 Z.44
N4880 X.116 Y-.6083 Z.43
N4890 X.2637 Y-.5603 Z.42
N4900 X.3947 Y-.4771 Z.41
N4910 X.501 Y-.364 Z.4
N4920 X.5758 Y-.228 Z.39
N4930 X.6144 Y-.0776 Z.38
N4940 Y.0776 Z.37
N4950 X.5758 Y.228 Z.36
N4960 X.501 Y.364 Z.35
N4970 X.3947 Y.4771 Z.34
N4980 X.2637 Y.5603 Z.33
N4990 X.116 Y.6083 Z.32
N5000 X-.0389 Y.618 Z.31
N5010 X-.1914 Y.5889 Z.3
N5020 X-.3318 Y.5229 Z.29
N5030 X-.4514 Y.4239 Z.28
N5040 X-.5427 Y.2983 Z.27
N5050 X-.5998 Y.154 Z.26
N5060 X-.6192 Y0. Z.25
N5070 X-.5998 Y-.154 Z.24
N5080 X-.5427 Y-.2983 Z.23
N5090 X-.4514 Y-.4239 Z.22
N5100 X-.3318 Y-.5229 Z.21
N5110 X-.1914 Y-.5889 Z.2
N5120 X-.0389 Y-.618 Z.19
N5130 X.116 Y-.6083 Z.18
N5140 X.2637 Y-.5603 Z.17
N5150 X.3947 Y-.4771 Z.16
N5160 X.501 Y-.364 Z.15
N5170 X.5758 Y-.228 Z.14
N5180 X.6144 Y-.0776 Z.13
N5190 Y.0776 Z.12
N5200 X.5758 Y.228 Z.11
N5210 X.501 Y.364 Z.1
N5220 X.3947 Y.4771 Z.09
N5230 X.2637 Y.5603 Z.08
N5240 X.116 Y.6083 Z.07
N5250 X-.0389 Y.618 Z.06
N5260 X-.1914 Y.5889 Z.05
N5270 X-.3318 Y.5229 Z.04
N5280 X-.4514 Y.4239 Z.03
N5290 X-.5427 Y.2983 Z.02
N5300 X-.5998 Y.154 Z.01
N5310 X-.6192 Y0. Z0.
N5320 X-.4682
N5330 Z1.75
N5340 G0 X-.4763
N5350 G1 Z1.25 ;F6.42
N5360 X-.6272
N5370 X-.6075 Y-.156 Z1.24
N5380 X-.5497 Y-.3022 Z1.23
N5390 X-.4572 Y-.4294 Z1.22
N5400 X-.3361 Y-.5296 Z1.21
N5410 X-.1938 Y-.5966 Z1.2
N5420 X-.0394 Y-.626 Z1.19
N5430 X.1175 Y-.6161 Z1.18
N5440 X.2671 Y-.5676 Z1.17
N5450 X.3998 Y-.4833 Z1.16
N5460 X.5075 Y-.3687 Z1.15
N5470 X.5832 Y-.2309 Z1.14
N5480 X.6223 Y-.0786 Z1.13
N5490 Y.0786 Z1.12
N5500 X.5832 Y.2309 Z1.11
N5510 X.5075 Y.3687 Z1.1
N5520 X.3998 Y.4833 Z1.09
N5530 X.2671 Y.5676 Z1.08
N5540 X.1175 Y.6161 Z1.07
N5550 X-.0394 Y.626 Z1.06
N5560 X-.1938 Y.5966 Z1.05
N5570 X-.3361 Y.5296 Z1.04
N5580 X-.4572 Y.4294 Z1.03
N5590 X-.5497 Y.3022 Z1.02
N5600 X-.6075 Y.156 Z1.01
N5610 X-.6272 Y0. Z1.
N5620 X-.6075 Y-.156 Z.99
N5630 X-.5497 Y-.3022 Z.98
N5640 X-.4572 Y-.4294 Z.97
N5650 X-.3361 Y-.5296 Z.96
N5660 X-.1938 Y-.5966 Z.95
N5670 X-.0394 Y-.626 Z.94
N5680 X.1175 Y-.6161 Z.93
N5690 X.2671 Y-.5676 Z.92
N5700 X.3998 Y-.4833 Z.91
N5710 X.5075 Y-.3687 Z.9
N5720 X.5832 Y-.2309 Z.89
N5730 X.6223 Y-.0786 Z.88
N5740 Y.0786 Z.87
N5750 X.5832 Y.2309 Z.86
N5760 X.5075 Y.3687 Z.85
N5770 X.3998 Y.4833 Z.84
N5780 X.2671 Y.5676 Z.83
N5790 X.1175 Y.6161 Z.82
N5800 X-.0394 Y.626 Z.81
N5810 X-.1938 Y.5966 Z.8
N5820 X-.3361 Y.5296 Z.79
N5830 X-.4572 Y.4294 Z.78
N5840 X-.5497 Y.3022 Z.77
N5850 X-.6075 Y.156 Z.76
N5860 X-.6272 Y0. Z.75
N5870 X-.6075 Y-.156 Z.74
N5880 X-.5497 Y-.3022 Z.73
N5890 X-.4572 Y-.4294 Z.72
N5900 X-.3361 Y-.5296 Z.71
N5910 X-.1938 Y-.5966 Z.7
N5920 X-.0394 Y-.626 Z.69
N5930 X.1175 Y-.6161 Z.68
N5940 X.2671 Y-.5676 Z.67
N5950 X.3998 Y-.4833 Z.66
N5960 X.5075 Y-.3687 Z.65
N5970 X.5832 Y-.2309 Z.64
N5980 X.6223 Y-.0786 Z.63
N5990 Y.0786 Z.62
N6000 X.5832 Y.2309 Z.61
N6010 X.5075 Y.3687 Z.6
N6020 X.3998 Y.4833 Z.59
N6030 X.2671 Y.5676 Z.58
N6040 X.1175 Y.6161 Z.57
N6050 X-.0394 Y.626 Z.56
N6060 X-.1938 Y.5966 Z.55
N6070 X-.3361 Y.5296 Z.54
N6080 X-.4572 Y.4294 Z.53
N6090 X-.5497 Y.3022 Z.52
N6100 X-.6075 Y.156 Z.51
N6110 X-.6272 Y0. Z.5
N6120 X-.6075 Y-.156 Z.49
N6130 X-.5497 Y-.3022 Z.48
N6140 X-.4572 Y-.4294 Z.47
N6150 X-.3361 Y-.5296 Z.46
N6160 X-.1938 Y-.5966 Z.45
N6170 X-.0394 Y-.626 Z.44
N6180 X.1175 Y-.6161 Z.43
N6190 X.2671 Y-.5676 Z.42
N6200 X.3998 Y-.4833 Z.41
N6210 X.5075 Y-.3687 Z.4
N6220 X.5832 Y-.2309 Z.39
N6230 X.6223 Y-.0786 Z.38
N6240 Y.0786 Z.37
N6250 X.5832 Y.2309 Z.36
N6260 X.5075 Y.3687 Z.35
N6270 X.3998 Y.4833 Z.34
N6280 X.2671 Y.5676 Z.33
N6290 X.1175 Y.6161 Z.32
N6300 X-.0394 Y.626 Z.31
N6310 X-.1938 Y.5966 Z.3
N6320 X-.3361 Y.5296 Z.29
N6330 X-.4572 Y.4294 Z.28
N6340 X-.5497 Y.3022 Z.27
N6350 X-.6075 Y.156 Z.26
N6360 X-.6272 Y0. Z.25
N6370 X-.6075 Y-.156 Z.24
N6380 X-.5497 Y-.3022 Z.23
N6390 X-.4572 Y-.4294 Z.22
N6400 X-.3361 Y-.5296 Z.21
N6410 X-.1938 Y-.5966 Z.2
N6420 X-.0394 Y-.626 Z.19
N6430 X.1175 Y-.6161 Z.18
N6440 X.2671 Y-.5676 Z.17
N6450 X.3998 Y-.4833 Z.16
N6460 X.5075 Y-.3687 Z.15
N6470 X.5832 Y-.2309 Z.14
N6480 X.6223 Y-.0786 Z.13
N6490 Y.0786 Z.12
N6500 X.5832 Y.2309 Z.11
N6510 X.5075 Y.3687 Z.1
N6520 X.3998 Y.4833 Z.09
N6530 X.2671 Y.5676 Z.08
N6540 X.1175 Y.6161 Z.07
N6550 X-.0394 Y.626 Z.06
N6560 X-.1938 Y.5966 Z.05
N6570 X-.3361 Y.5296 Z.04
N6580 X-.4572 Y.4294 Z.03
N6590 X-.5497 Y.3022 Z.02
N6600 X-.6075 Y.156 Z.01
N6610 X-.6272 Y0. Z0.
N6620 X-.4763
N6630 Z1.75
N6640 G0 X-.4843
N6650 G1 Z1.25 ;F6.42
N6660 X-.6352
N6670 X-.6168 Y-.152 Z1.2404
N6680 X-.5625 Y-.2952 Z1.2308
N6690 X-.4755 Y-.4212 Z1.2212
N6700 X-.3609 Y-.5228 Z1.2115
N6710 X-.2253 Y-.594 Z1.2019
N6720 X-.0766 Y-.6306 Z1.1923
N6730 X.0766 Z1.1827
N6740 X.2253 Y-.594 Z1.1731
N6750 X.3609 Y-.5228 Z1.1635
N6760 X.4755 Y-.4212 Z1.1538
N6770 X.5625 Y-.2952 Z1.1442
N6780 X.6168 Y-.152 Z1.1346
N6790 X.6352 Y0. Z1.125
N6800 X.6168 Y.152 Z1.1154
N6810 X.5625 Y.2952 Z1.1058
N6820 X.4755 Y.4212 Z1.0962
N6830 X.3609 Y.5228 Z1.0865
N6840 X.2253 Y.594 Z1.0769
N6850 X.0766 Y.6306 Z1.0673
N6860 X-.0766 Z1.0577
N6870 X-.2253 Y.594 Z1.0481
N6880 X-.3609 Y.5228 Z1.0385
N6890 X-.4755 Y.4212 Z1.0288
N6900 X-.5625 Y.2952 Z1.0192
N6910 X-.6168 Y.152 Z1.0096
N6920 X-.6352 Y0. Z1.
N6930 X-.6168 Y-.152 Z.9904
N6940 X-.5625 Y-.2952 Z.9808
N6950 X-.4755 Y-.4212 Z.9712
N6960 X-.3609 Y-.5228 Z.9615
N6970 X-.2253 Y-.594 Z.9519
N6980 X-.0766 Y-.6306 Z.9423
N6990 X.0766 Z.9327
N7000 X.2253 Y-.594 Z.9231
N7010 X.3609 Y-.5228 Z.9135
N7020 X.4755 Y-.4212 Z.9038
N7030 X.5625 Y-.2952 Z.8942
N7040 X.6168 Y-.152 Z.8846
N7050 X.6352 Y0. Z.875
N7060 X.6168 Y.152 Z.8654
N7070 X.5625 Y.2952 Z.8558
N7080 X.4755 Y.4212 Z.8462
N7090 X.3609 Y.5228 Z.8365
N7100 X.2253 Y.594 Z.8269
N7110 X.0766 Y.6306 Z.8173
N7120 X-.0766 Z.8077
N7130 X-.2253 Y.594 Z.7981
N7140 X-.3609 Y.5228 Z.7885
N7150 X-.4755 Y.4212 Z.7788
N7160 X-.5625 Y.2952 Z.7692
N7170 X-.6168 Y.152 Z.7596
N7180 X-.6352 Y0. Z.75
N7190 X-.6168 Y-.152 Z.7404
N7200 X-.5625 Y-.2952 Z.7308
N7210 X-.4755 Y-.4212 Z.7212
N7220 X-.3609 Y-.5228 Z.7115
N7230 X-.2253 Y-.594 Z.7019
N7240 X-.0766 Y-.6306 Z.6923
N7250 X.0766 Z.6827
N7260 X.2253 Y-.594 Z.6731
N7270 X.3609 Y-.5228 Z.6635
N7280 X.4755 Y-.4212 Z.6538
N7290 X.5625 Y-.2952 Z.6442
N7300 X.6168 Y-.152 Z.6346
N7310 X.6352 Y0. Z.625
N7320 X.6168 Y.152 Z.6154
N7330 X.5625 Y.2952 Z.6058
N7340 X.4755 Y.4212 Z.5962
N7350 X.3609 Y.5228 Z.5865
N7360 X.2253 Y.594 Z.5769
N7370 X.0766 Y.6306 Z.5673
N7380 X-.0766 Z.5577
N7390 X-.2253 Y.594 Z.5481
N7400 X-.3609 Y.5228 Z.5385
N7410 X-.4755 Y.4212 Z.5288
N7420 X-.5625 Y.2952 Z.5192
N7430 X-.6168 Y.152 Z.5096
N7440 X-.6352 Y0. Z.5
N7450 X-.6168 Y-.152 Z.4904
N7460 X-.5625 Y-.2952 Z.4808
N7470 X-.4755 Y-.4212 Z.4712
N7480 X-.3609 Y-.5228 Z.4615
N7490 X-.2253 Y-.594 Z.4519
N7500 X-.0766 Y-.6306 Z.4423
N7510 X.0766 Z.4327
N7520 X.2253 Y-.594 Z.4231
N7530 X.3609 Y-.5228 Z.4135
N7540 X.4755 Y-.4212 Z.4038
N7550 X.5625 Y-.2952 Z.3942
N7560 X.6168 Y-.152 Z.3846
N7570 X.6352 Y0. Z.375
N7580 X.6168 Y.152 Z.3654
N7590 X.5625 Y.2952 Z.3558
N7600 X.4755 Y.4212 Z.3462
N7610 X.3609 Y.5228 Z.3365
N7620 X.2253 Y.594 Z.3269
N7630 X.0766 Y.6306 Z.3173
N7640 X-.0766 Z.3077
N7650 X-.2253 Y.594 Z.2981
N7660 X-.3609 Y.5228 Z.2885
N7670 X-.4755 Y.4212 Z.2788
N7680 X-.5625 Y.2952 Z.2692
N7690 X-.6168 Y.152 Z.2596
N7700 X-.6352 Y0. Z.25
N7710 X-.6168 Y-.152 Z.2404
N7720 X-.5625 Y-.2952 Z.2308
N7730 X-.4755 Y-.4212 Z.2212
N7740 X-.3609 Y-.5228 Z.2115
N7750 X-.2253 Y-.594 Z.2019
N7760 X-.0766 Y-.6306 Z.1923
N7770 X.0766 Z.1827
N7780 X.2253 Y-.594 Z.1731
N7790 X.3609 Y-.5228 Z.1635
N7800 X.4755 Y-.4212 Z.1538
N7810 X.5625 Y-.2952 Z.1442
N7820 X.6168 Y-.152 Z.1346
N7830 X.6352 Y0. Z.125
N7840 X.6168 Y.152 Z.1154
N7850 X.5625 Y.2952 Z.1058
N7860 X.4755 Y.4212 Z.0962
N7870 X.3609 Y.5228 Z.0865
N7880 X.2253 Y.594 Z.0769
N7890 X.0766 Y.6306 Z.0673
N7900 X-.0766 Z.0577
N7910 X-.2253 Y.594 Z.0481
N7920 X-.3609 Y.5228 Z.0385
N7930 X-.4755 Y.4212 Z.0288
N7940 X-.5625 Y.2952 Z.0192
N7950 X-.6168 Y.152 Z.0096
N7960 X-.6352 Y0. Z0.
N7970 X-.4843
N7980 Z1.75
N7990 G0 X-.4923
N8000 G1 Z1.25 ;F6.42
N8010 X-.6432
N8020 X-.6246 Y-.1539 Z1.2404
N8030 X-.5696 Y-.2989 Z1.2308
N8040 X-.4815 Y-.4266 Z1.2212
N8050 X-.3654 Y-.5294 Z1.2115
N8060 X-.2281 Y-.6014 Z1.2019
N8070 X-.0775 Y-.6386 Z1.1923
N8080 X.0775 Z1.1827
N8090 X.2281 Y-.6014 Z1.1731
N8100 X.3654 Y-.5294 Z1.1635
N8110 X.4815 Y-.4266 Z1.1538
N8120 X.5696 Y-.2989 Z1.1442
N8130 X.6246 Y-.1539 Z1.1346
N8140 X.6432 Y0. Z1.125
N8150 X.6246 Y.1539 Z1.1154
N8160 X.5696 Y.2989 Z1.1058
N8170 X.4815 Y.4266 Z1.0962
N8180 X.3654 Y.5294 Z1.0865
N8190 X.2281 Y.6014 Z1.0769
N8200 X.0775 Y.6386 Z1.0673
N8210 X-.0775 Z1.0577
N8220 X-.2281 Y.6014 Z1.0481
N8230 X-.3654 Y.5294 Z1.0385
N8240 X-.4815 Y.4266 Z1.0288
N8250 X-.5696 Y.2989 Z1.0192
N8260 X-.6246 Y.1539 Z1.0096
N8270 X-.6432 Y0. Z1.
N8280 X-.6246 Y-.1539 Z.9904
N8290 X-.5696 Y-.2989 Z.9808
N8300 X-.4815 Y-.4266 Z.9712
N8310 X-.3654 Y-.5294 Z.9615
N8320 X-.2281 Y-.6014 Z.9519
N8330 X-.0775 Y-.6386 Z.9423
N8340 X.0775 Z.9327
N8350 X.2281 Y-.6014 Z.9231
N8360 X.3654 Y-.5294 Z.9135
N8370 X.4815 Y-.4266 Z.9038
N8380 X.5696 Y-.2989 Z.8942
N8390 X.6246 Y-.1539 Z.8846
N8400 X.6432 Y0. Z.875
N8410 X.6246 Y.1539 Z.8654
N8420 X.5696 Y.2989 Z.8558
N8430 X.4815 Y.4266 Z.8462
N8440 X.3654 Y.5294 Z.8365
N8450 X.2281 Y.6014 Z.8269
N8460 X.0775 Y.6386 Z.8173
N8470 X-.0775 Z.8077
N8480 X-.2281 Y.6014 Z.7981
N8490 X-.3654 Y.5294 Z.7885
N8500 X-.4815 Y.4266 Z.7788
N8510 X-.5696 Y.2989 Z.7692
N8520 X-.6246 Y.1539 Z.7596
N8530 X-.6432 Y0. Z.75
N8540 X-.6246 Y-.1539 Z.7404
N8550 X-.5696 Y-.2989 Z.7308
N8560 X-.4815 Y-.4266 Z.7212
N8570 X-.3654 Y-.5294 Z.7115
N8580 X-.2281 Y-.6014 Z.7019
N8590 X-.0775 Y-.6386 Z.6923
N8600 X.0775 Z.6827
N8610 X.2281 Y-.6014 Z.6731
N8620 X.3654 Y-.5294 Z.6635
N8630 X.4815 Y-.4266 Z.6538
N8640 X.5696 Y-.2989 Z.6442
N8650 X.6246 Y-.1539 Z.6346
N8660 X.6432 Y0. Z.625
N8670 X.6246 Y.1539 Z.6154
N8680 X.5696 Y.2989 Z.6058
N8690 X.4815 Y.4266 Z.5962
N8700 X.3654 Y.5294 Z.5865
N8710 X.2281 Y.6014 Z.5769
N8720 X.0775 Y.6386 Z.5673
N8730 X-.0775 Z.5577
N8740 X-.2281 Y.6014 Z.5481
N8750 X-.3654 Y.5294 Z.5385
N8760 X-.4815 Y.4266 Z.5288
N8770 X-.5696 Y.2989 Z.5192
N8780 X-.6246 Y.1539 Z.5096
N8790 X-.6432 Y0. Z.5
N8800 X-.6246 Y-.1539 Z.4904
N8810 X-.5696 Y-.2989 Z.4808
N8820 X-.4815 Y-.4266 Z.4712
N8830 X-.3654 Y-.5294 Z.4615
N8840 X-.2281 Y-.6014 Z.4519
N8850 X-.0775 Y-.6386 Z.4423
N8860 X.0775 Z.4327
N8870 X.2281 Y-.6014 Z.4231
N8880 X.3654 Y-.5294 Z.4135
N8890 X.4815 Y-.4266 Z.4038
N8900 X.5696 Y-.2989 Z.3942
N8910 X.6246 Y-.1539 Z.3846
N8920 X.6432 Y0. Z.375
N8930 X.6246 Y.1539 Z.3654
N8940 X.5696 Y.2989 Z.3558
N8950 X.4815 Y.4266 Z.3462
N8960 X.3654 Y.5294 Z.3365
N8970 X.2281 Y.6014 Z.3269
N8980 X.0775 Y.6386 Z.3173
N8990 X-.0775 Z.3077
N9000 X-.2281 Y.6014 Z.2981
N9010 X-.3654 Y.5294 Z.2885
N9020 X-.4815 Y.4266 Z.2788
N9030 X-.5696 Y.2989 Z.2692
N9040 X-.6246 Y.1539 Z.2596
N9050 X-.6432 Y0. Z.25
N9060 X-.6246 Y-.1539 Z.2404
N9070 X-.5696 Y-.2989 Z.2308
N9080 X-.4815 Y-.4266 Z.2212
N9090 X-.3654 Y-.5294 Z.2115
N9100 X-.2281 Y-.6014 Z.2019
N9110 X-.0775 Y-.6386 Z.1923
N9120 X.0775 Z.1827
N9130 X.2281 Y-.6014 Z.1731
N9140 X.3654 Y-.5294 Z.1635
N9150 X.4815 Y-.4266 Z.1538
N9160 X.5696 Y-.2989 Z.1442
N9170 X.6246 Y-.1539 Z.1346
N9180 X.6432 Y0. Z.125
N9190 X.6246 Y.1539 Z.1154
N9200 X.5696 Y.2989 Z.1058
N9210 X.4815 Y.4266 Z.0962
N9220 X.3654 Y.5294 Z.0865
N9230 X.2281 Y.6014 Z.0769
N9240 X.0775 Y.6386 Z.0673
N9250 X-.0775 Z.0577
N9260 X-.2281 Y.6014 Z.0481
N9270 X-.3654 Y.5294 Z.0385
N9280 X-.4815 Y.4266 Z.0288
N9290 X-.5696 Y.2989 Z.0192
N9300 X-.6246 Y.1539 Z.0096
N9310 X-.6432 Y0. Z0.
N9320 X-.4923
N9330 Z1.75
N9340 G0 X-.5002
N9350 G1 Z1.25 ;F6.42
N9360 X-.6512
N9370 X-.6323 Y-.1559 Z1.2404
N9380 X-.5767 Y-.3027 Z1.2308
N9390 X-.4875 Y-.4319 Z1.2212
N9400 X-.37 Y-.536 Z1.2115
N9410 X-.2309 Y-.6089 Z1.2019
N9420 X-.0785 Y-.6465 Z1.1923
N9430 X.0785 Z1.1827
N9440 X.2309 Y-.6089 Z1.1731
N9450 X.37 Y-.536 Z1.1635
N9460 X.4875 Y-.4319 Z1.1538
N9470 X.5767 Y-.3027 Z1.1442
N9480 X.6323 Y-.1559 Z1.1346
N9490 X.6512 Y0. Z1.125
N9500 X.6323 Y.1559 Z1.1154
N9510 X.5767 Y.3027 Z1.1058
N9520 X.4875 Y.4319 Z1.0962
N9530 X.37 Y.536 Z1.0865
N9540 X.2309 Y.6089 Z1.0769
N9550 X.0785 Y.6465 Z1.0673
N9560 X-.0785 Z1.0577
N9570 X-.2309 Y.6089 Z1.0481
N9580 X-.37 Y.536 Z1.0385
N9590 X-.4875 Y.4319 Z1.0288
N9600 X-.5767 Y.3027 Z1.0192
N9610 X-.6323 Y.1559 Z1.0096
N9620 X-.6512 Y0. Z1.
N9630 X-.6323 Y-.1559 Z.9904
N9640 X-.5767 Y-.3027 Z.9808
N9650 X-.4875 Y-.4319 Z.9712
N9660 X-.37 Y-.536 Z.9615
N9670 X-.2309 Y-.6089 Z.9519
N9680 X-.0785 Y-.6465 Z.9423
N9690 X.0785 Z.9327
N9700 X.2309 Y-.6089 Z.9231
N9710 X.37 Y-.536 Z.9135
N9720 X.4875 Y-.4319 Z.9038
N9730 X.5767 Y-.3027 Z.8942
N9740 X.6323 Y-.1559 Z.8846
N9750 X.6512 Y0. Z.875
N9760 X.6323 Y.1559 Z.8654
N9770 X.5767 Y.3027 Z.8558
N9780 X.4875 Y.4319 Z.8462
N9790 X.37 Y.536 Z.8365
N9800 X.2309 Y.6089 Z.8269
N9810 X.0785 Y.6465 Z.8173
N9820 X-.0785 Z.8077
N9830 X-.2309 Y.6089 Z.7981
N9840 X-.37 Y.536 Z.7885
N9850 X-.4875 Y.4319 Z.7788
N9860 X-.5767 Y.3027 Z.7692
N9870 X-.6323 Y.1559 Z.7596
N9880 X-.6512 Y0. Z.75
N9890 X-.6323 Y-.1559 Z.7404
N9900 X-.5767 Y-.3027 Z.7308
N9910 X-.4875 Y-.4319 Z.7212
N9920 X-.37 Y-.536 Z.7115
N9930 X-.2309 Y-.6089 Z.7019
N9940 X-.0785 Y-.6465 Z.6923
N9950 X.0785 Z.6827
N9960 X.2309 Y-.6089 Z.6731
N9970 X.37 Y-.536 Z.6635
N9980 X.4875 Y-.4319 Z.6538
N9990 X.5767 Y-.3027 Z.6442
N100 X.6323 Y-.1559 Z.6346
N110 X.6512 Y0. Z.625
N120 X.6323 Y.1559 Z.6154
N130 X.5767 Y.3027 Z.6058
N140 X.4875 Y.4319 Z.5962
N150 X.37 Y.536 Z.5865
N160 X.2309 Y.6089 Z.5769
N170 X.0785 Y.6465 Z.5673
N180 X-.0785 Z.5577
N190 X-.2309 Y.6089 Z.5481
N200 X-.37 Y.536 Z.5385
N210 X-.4875 Y.4319 Z.5288
N220 X-.5767 Y.3027 Z.5192
N230 X-.6323 Y.1559 Z.5096
N240 X-.6512 Y0. Z.5
N250 X-.6323 Y-.1559 Z.4904
N260 X-.5767 Y-.3027 Z.4808
N270 X-.4875 Y-.4319 Z.4712
N280 X-.37 Y-.536 Z.4615
N290 X-.2309 Y-.6089 Z.4519
N300 X-.0785 Y-.6465 Z.4423
N310 X.0785 Z.4327
N320 X.2309 Y-.6089 Z.4231
N330 X.37 Y-.536 Z.4135
N340 X.4875 Y-.4319 Z.4038
N350 X.5767 Y-.3027 Z.3942
N360 X.6323 Y-.1559 Z.3846
N370 X.6512 Y0. Z.375
N380 X.6323 Y.1559 Z.3654
N390 X.5767 Y.3027 Z.3558
N400 X.4875 Y.4319 Z.3462
N410 X.37 Y.536 Z.3365
N420 X.2309 Y.6089 Z.3269
N430 X.0785 Y.6465 Z.3173
N440 X-.0785 Z.3077
N450 X-.2309 Y.6089 Z.2981
N460 X-.37 Y.536 Z.2885
N470 X-.4875 Y.4319 Z.2788
N480 X-.5767 Y.3027 Z.2692
N490 X-.6323 Y.1559 Z.2596
N500 X-.6512 Y0. Z.25
N510 X-.6323 Y-.1559 Z.2404
N520 X-.5767 Y-.3027 Z.2308
N530 X-.4875 Y-.4319 Z.2212
N540 X-.37 Y-.536 Z.2115
N550 X-.2309 Y-.6089 Z.2019
N560 X-.0785 Y-.6465 Z.1923
N570 X.0785 Z.1827
N580 X.2309 Y-.6089 Z.1731
N590 X.37 Y-.536 Z.1635
N600 X.4875 Y-.4319 Z.1538
N610 X.5767 Y-.3027 Z.1442
N620 X.6323 Y-.1559 Z.1346
N630 X.6512 Y0. Z.125
N640 X.6323 Y.1559 Z.1154
N650 X.5767 Y.3027 Z.1058
N660 X.4875 Y.4319 Z.0962
N670 X.37 Y.536 Z.0865
N680 X.2309 Y.6089 Z.0769
N690 X.0785 Y.6465 Z.0673
N700 X-.0785 Z.0577
N710 X-.2309 Y.6089 Z.0481
N720 X-.37 Y.536 Z.0385
N730 X-.4875 Y.4319 Z.0288
N740 X-.5767 Y.3027 Z.0192
N750 X-.6323 Y.1559 Z.0096
N760 X-.6512 Y0. Z0.
N770 X-.5002
N780 Z1.75
;N790 M5
;N800 G91 G0 G28 Z0.
;N810 G28 X0. Y0. A0.
;N820 M30
%
