%
O0000(WAAM_CYLINDER_2875_IN62)
(DATE=DD-MM-YY - 17-04-25 TIME=HH:MM - 17:40)
(MCAM ;FILE - C:\USERS\CAILEAN S P15\DOCUMENTS\MASTERCAM\WAAM_CYLINDER.EMCAM)
(NC ;FILE - ;F:\WAAM_CYLINDER_2875_IN62.nc)
(MATERIAL - ALUMINUM INCH - 2024)
( T256 |  1/2 BALL ENDMILL | H256 )
N100 G20
N110 G0 G17 G40 G49 G80 G90
N120 T256 M6
N130 G0 G90 G54 X-.5403 Y0. Z2. A0. S1069 M3
N140 G43 H256 Z1.825
N150 G1 Z1.625 F0.3
N160 X-.5218 Y-.1398 Z1.6094
N170 X-.4679 Y-.2701 Z1.5938
N180 X-.382 Y-.382 Z1.5781
N190 X-.2701 Y-.4679 Z1.5625
N200 X-.1398 Y-.5218 Z1.5469
N210 X0. Y-.5403 Z1.5313
N220 X.1398 Y-.5218 Z1.5156
N230 X.2701 Y-.4679 Z1.5
N240 X.382 Y-.382 Z1.4844
N250 X.4679 Y-.2701 Z1.4688
N260 X.5218 Y-.1398 Z1.4531
N270 X.5403 Y0. Z1.4375
N280 X.5218 Y.1398 Z1.4219
N290 X.4679 Y.2701 Z1.4063
N300 X.382 Y.382 Z1.3906
N310 X.2701 Y.4679 Z1.375
N320 X.1398 Y.5218 Z1.3594
N330 X0. Y.5403 Z1.3438
N340 X-.1398 Y.5218 Z1.3281
N350 X-.2701 Y.4679 Z1.3125
N360 X-.382 Y.382 Z1.2969
N370 X-.4679 Y.2701 Z1.2813
N380 X-.5218 Y.1398 Z1.2656
N390 X-.5403 Y0. Z1.25
N400 X-.5218 Y-.1398 Z1.2344
N410 X-.4679 Y-.2701 Z1.2188
N420 X-.382 Y-.382 Z1.2031
N430 X-.2701 Y-.4679 Z1.1875
N440 X-.1398 Y-.5218 Z1.1719
N450 X0. Y-.5403 Z1.1563
N460 X.1398 Y-.5218 Z1.1406
N470 X.2701 Y-.4679 Z1.125
N480 X.382 Y-.382 Z1.1094
N490 X.4679 Y-.2701 Z1.0938
N500 X.5218 Y-.1398 Z1.0781
N510 X.5403 Y0. Z1.0625
N520 X.5218 Y.1398 Z1.0469
N530 X.4679 Y.2701 Z1.0313
N540 X.382 Y.382 Z1.0156
N550 X.2701 Y.4679 Z1.
N560 X.1398 Y.5218 Z.9844
N570 X0. Y.5403 Z.9688
N580 X-.1398 Y.5218 Z.9531
N590 X-.2701 Y.4679 Z.9375
N600 X-.382 Y.382 Z.9219
N610 X-.4679 Y.2701 Z.9063
N620 X-.5218 Y.1398 Z.8906
N630 X-.5403 Y0. Z.875
N640 X-.5218 Y-.1398 Z.8594
N650 X-.4679 Y-.2701 Z.8438
N660 X-.382 Y-.382 Z.8281
N670 X-.2701 Y-.4679 Z.8125
N680 X-.1398 Y-.5218 Z.7969
N690 X0. Y-.5403 Z.7813
N700 X.1398 Y-.5218 Z.7656
N710 X.2701 Y-.4679 Z.75
N720 X.382 Y-.382 Z.7344
N730 X.4679 Y-.2701 Z.7188
N740 X.5218 Y-.1398 Z.7031
N750 X.5403 Y0. Z.6875
N760 X.5218 Y.1398 Z.6719
N770 X.4679 Y.2701 Z.6563
N780 X.382 Y.382 Z.6406
N790 X.2701 Y.4679 Z.625
N800 X.1398 Y.5218 Z.6094
N810 X0. Y.5403 Z.5938
N820 X-.1398 Y.5218 Z.5781
N830 X-.2701 Y.4679 Z.5625
N840 X-.382 Y.382 Z.5469
N850 X-.4679 Y.2701 Z.5313
N860 X-.5218 Y.1398 Z.5156
N870 X-.5403 Y0. Z.5
N880 X-.5218 Y-.1398 Z.4844
N890 X-.4679 Y-.2701 Z.4688
N900 X-.382 Y-.382 Z.4531
N910 X-.2701 Y-.4679 Z.4375
N920 X-.1398 Y-.5218 Z.4219
N930 X0. Y-.5403 Z.4063
N940 X.1398 Y-.5218 Z.3906
N950 X.2701 Y-.4679 Z.375
N960 X.382 Y-.382 Z.3594
N970 X.4679 Y-.2701 Z.3438
N980 X.5218 Y-.1398 Z.3281
N990 X.5403 Y0. Z.3125
N1000 X.5218 Y.1398 Z.2969
N1010 X.4679 Y.2701 Z.2813
N1020 X.382 Y.382 Z.2656
N1030 X.2701 Y.4679 Z.25
N1040 X.1398 Y.5218 Z.2344
N1050 X0. Y.5403 Z.2188
N1060 X-.1398 Y.5218 Z.2031
N1070 X-.2701 Y.4679 Z.1875
N1080 X-.382 Y.382 Z.1719
N1090 X-.4679 Y.2701 Z.1563
N1100 X-.5218 Y.1398 Z.1406
N1110 X-.5403 Y0. Z.125
N1120 X-.5218 Y-.1398 Z.1094
N1130 X-.4679 Y-.2701 Z.0938
N1140 X-.382 Y-.382 Z.0781
N1150 X-.2701 Y-.4679 Z.0625
N1160 X-.1398 Y-.5218 Z.0469
N1170 X0. Y-.5403 Z.0313
N1180 X.1398 Y-.5218 Z.0156
N1190 X.2701 Y-.4679 Z0.
N1200 G3 X.5403 Y0. I-.2701 J.4679
N1210 X0. Y.5403 I-.5403 J0.
N1220 X-.5403 Y0. I0. J-.5403
N1230 X0. Y-.5403 I.5403 J0.
N1240 X.2701 Y-.4679 I0. J.5403
N1250 G1 X.1891 Y-.3276
N1260 Z.2
N1270 G0 Z1.825
N1280 X-.5483 Y0.
N1290 G1 Z1.625 ;F6.42
N1300 X-.5296 Y-.1419 Z1.6094
N1310 X-.4748 Y-.2741 Z1.5938
N1320 X-.3877 Y-.3877 Z1.5781
N1330 X-.2741 Y-.4748 Z1.5625
N1340 X-.1419 Y-.5296 Z1.5469
N1350 X0. Y-.5483 Z1.5313
N1360 X.1419 Y-.5296 Z1.5156
N1370 X.2741 Y-.4748 Z1.5
N1380 X.3877 Y-.3877 Z1.4844
N1390 X.4748 Y-.2741 Z1.4688
N1400 X.5296 Y-.1419 Z1.4531
N1410 X.5483 Y0. Z1.4375
N1420 X.5296 Y.1419 Z1.4219
N1430 X.4748 Y.2741 Z1.4063
N1440 X.3877 Y.3877 Z1.3906
N1450 X.2741 Y.4748 Z1.375
N1460 X.1419 Y.5296 Z1.3594
N1470 X0. Y.5483 Z1.3438
N1480 X-.1419 Y.5296 Z1.3281
N1490 X-.2741 Y.4748 Z1.3125
N1500 X-.3877 Y.3877 Z1.2969
N1510 X-.4748 Y.2741 Z1.2813
N1520 X-.5296 Y.1419 Z1.2656
N1530 X-.5483 Y0. Z1.25
N1540 X-.5296 Y-.1419 Z1.2344
N1550 X-.4748 Y-.2741 Z1.2188
N1560 X-.3877 Y-.3877 Z1.2031
N1570 X-.2741 Y-.4748 Z1.1875
N1580 X-.1419 Y-.5296 Z1.1719
N1590 X0. Y-.5483 Z1.1563
N1600 X.1419 Y-.5296 Z1.1406
N1610 X.2741 Y-.4748 Z1.125
N1620 X.3877 Y-.3877 Z1.1094
N1630 X.4748 Y-.2741 Z1.0938
N1640 X.5296 Y-.1419 Z1.0781
N1650 X.5483 Y0. Z1.0625
N1660 X.5296 Y.1419 Z1.0469
N1670 X.4748 Y.2741 Z1.0313
N1680 X.3877 Y.3877 Z1.0156
N1690 X.2741 Y.4748 Z1.
N1700 X.1419 Y.5296 Z.9844
N1710 X0. Y.5483 Z.9688
N1720 X-.1419 Y.5296 Z.9531
N1730 X-.2741 Y.4748 Z.9375
N1740 X-.3877 Y.3877 Z.9219
N1750 X-.4748 Y.2741 Z.9063
N1760 X-.5296 Y.1419 Z.8906
N1770 X-.5483 Y0. Z.875
N1780 X-.5296 Y-.1419 Z.8594
N1790 X-.4748 Y-.2741 Z.8438
N1800 X-.3877 Y-.3877 Z.8281
N1810 X-.2741 Y-.4748 Z.8125
N1820 X-.1419 Y-.5296 Z.7969
N1830 X0. Y-.5483 Z.7813
N1840 X.1419 Y-.5296 Z.7656
N1850 X.2741 Y-.4748 Z.75
N1860 X.3877 Y-.3877 Z.7344
N1870 X.4748 Y-.2741 Z.7188
N1880 X.5296 Y-.1419 Z.7031
N1890 X.5483 Y0. Z.6875
N1900 X.5296 Y.1419 Z.6719
N1910 X.4748 Y.2741 Z.6563
N1920 X.3877 Y.3877 Z.6406
N1930 X.2741 Y.4748 Z.625
N1940 X.1419 Y.5296 Z.6094
N1950 X0. Y.5483 Z.5938
N1960 X-.1419 Y.5296 Z.5781
N1970 X-.2741 Y.4748 Z.5625
N1980 X-.3877 Y.3877 Z.5469
N1990 X-.4748 Y.2741 Z.5313
N2000 X-.5296 Y.1419 Z.5156
N2010 X-.5483 Y0. Z.5
N2020 X-.5296 Y-.1419 Z.4844
N2030 X-.4748 Y-.2741 Z.4688
N2040 X-.3877 Y-.3877 Z.4531
N2050 X-.2741 Y-.4748 Z.4375
N2060 X-.1419 Y-.5296 Z.4219
N2070 X0. Y-.5483 Z.4063
N2080 X.1419 Y-.5296 Z.3906
N2090 X.2741 Y-.4748 Z.375
N2100 X.3877 Y-.3877 Z.3594
N2110 X.4748 Y-.2741 Z.3438
N2120 X.5296 Y-.1419 Z.3281
N2130 X.5483 Y0. Z.3125
N2140 X.5296 Y.1419 Z.2969
N2150 X.4748 Y.2741 Z.2813
N2160 X.3877 Y.3877 Z.2656
N2170 X.2741 Y.4748 Z.25
N2180 X.1419 Y.5296 Z.2344
N2190 X0. Y.5483 Z.2188
N2200 X-.1419 Y.5296 Z.2031
N2210 X-.2741 Y.4748 Z.1875
N2220 X-.3877 Y.3877 Z.1719
N2230 X-.4748 Y.2741 Z.1563
N2240 X-.5296 Y.1419 Z.1406
N2250 X-.5483 Y0. Z.125
N2260 X-.5296 Y-.1419 Z.1094
N2270 X-.4748 Y-.2741 Z.0938
N2280 X-.3877 Y-.3877 Z.0781
N2290 X-.2741 Y-.4748 Z.0625
N2300 X-.1419 Y-.5296 Z.0469
N2310 X0. Y-.5483 Z.0313
N2320 X.1419 Y-.5296 Z.0156
N2330 X.2741 Y-.4748 Z0.
N2340 G3 X.5482 Y0. I-.2741 J.4748
N2350 X0. Y.5482 I-.5482 J0.
N2360 X-.5483 Y0. I0. J-.5482
N2370 X0. Y-.5483 I.5483 J0.
N2380 X.2741 Y-.4748 I0. J.5483
N2390 G1 X.1931 Y-.3345
N2400 Z.2
N2410 G0 Z1.825
N2420 X-.5563 Y0.
N2430 G1 Z1.625 ;F6.42
N2440 X-.5373 Y-.144 Z1.6094
N2450 X-.4817 Y-.2781 Z1.5938
N2460 X-.3933 Y-.3933 Z1.5781
N2470 X-.2781 Y-.4817 Z1.5625
N2480 X-.144 Y-.5373 Z1.5469
N2490 X0. Y-.5563 Z1.5313
N2500 X.144 Y-.5373 Z1.5156
N2510 X.2781 Y-.4817 Z1.5
N2520 X.3933 Y-.3933 Z1.4844
N2530 X.4817 Y-.2781 Z1.4688
N2540 X.5373 Y-.144 Z1.4531
N2550 X.5563 Y0. Z1.4375
N2560 X.5373 Y.144 Z1.4219
N2570 X.4817 Y.2781 Z1.4063
N2580 X.3933 Y.3933 Z1.3906
N2590 X.2781 Y.4817 Z1.375
N2600 X.144 Y.5373 Z1.3594
N2610 X0. Y.5563 Z1.3438
N2620 X-.144 Y.5373 Z1.3281
N2630 X-.2781 Y.4817 Z1.3125
N2640 X-.3933 Y.3933 Z1.2969
N2650 X-.4817 Y.2781 Z1.2813
N2660 X-.5373 Y.144 Z1.2656
N2670 X-.5563 Y0. Z1.25
N2680 X-.5373 Y-.144 Z1.2344
N2690 X-.4817 Y-.2781 Z1.2188
N2700 X-.3933 Y-.3933 Z1.2031
N2710 X-.2781 Y-.4817 Z1.1875
N2720 X-.144 Y-.5373 Z1.1719
N2730 X0. Y-.5563 Z1.1563
N2740 X.144 Y-.5373 Z1.1406
N2750 X.2781 Y-.4817 Z1.125
N2760 X.3933 Y-.3933 Z1.1094
N2770 X.4817 Y-.2781 Z1.0938
N2780 X.5373 Y-.144 Z1.0781
N2790 X.5563 Y0. Z1.0625
N2800 X.5373 Y.144 Z1.0469
N2810 X.4817 Y.2781 Z1.0313
N2820 X.3933 Y.3933 Z1.0156
N2830 X.2781 Y.4817 Z1.
N2840 X.144 Y.5373 Z.9844
N2850 X0. Y.5563 Z.9688
N2860 X-.144 Y.5373 Z.9531
N2870 X-.2781 Y.4817 Z.9375
N2880 X-.3933 Y.3933 Z.9219
N2890 X-.4817 Y.2781 Z.9063
N2900 X-.5373 Y.144 Z.8906
N2910 X-.5563 Y0. Z.875
N2920 X-.5373 Y-.144 Z.8594
N2930 X-.4817 Y-.2781 Z.8438
N2940 X-.3933 Y-.3933 Z.8281
N2950 X-.2781 Y-.4817 Z.8125
N2960 X-.144 Y-.5373 Z.7969
N2970 X0. Y-.5563 Z.7813
N2980 X.144 Y-.5373 Z.7656
N2990 X.2781 Y-.4817 Z.75
N3000 X.3933 Y-.3933 Z.7344
N3010 X.4817 Y-.2781 Z.7188
N3020 X.5373 Y-.144 Z.7031
N3030 X.5563 Y0. Z.6875
N3040 X.5373 Y.144 Z.6719
N3050 X.4817 Y.2781 Z.6563
N3060 X.3933 Y.3933 Z.6406
N3070 X.2781 Y.4817 Z.625
N3080 X.144 Y.5373 Z.6094
N3090 X0. Y.5563 Z.5938
N3100 X-.144 Y.5373 Z.5781
N3110 X-.2781 Y.4817 Z.5625
N3120 X-.3933 Y.3933 Z.5469
N3130 X-.4817 Y.2781 Z.5313
N3140 X-.5373 Y.144 Z.5156
N3150 X-.5563 Y0. Z.5
N3160 X-.5373 Y-.144 Z.4844
N3170 X-.4817 Y-.2781 Z.4688
N3180 X-.3933 Y-.3933 Z.4531
N3190 X-.2781 Y-.4817 Z.4375
N3200 X-.144 Y-.5373 Z.4219
N3210 X0. Y-.5563 Z.4063
N3220 X.144 Y-.5373 Z.3906
N3230 X.2781 Y-.4817 Z.375
N3240 X.3933 Y-.3933 Z.3594
N3250 X.4817 Y-.2781 Z.3438
N3260 X.5373 Y-.144 Z.3281
N3270 X.5563 Y0. Z.3125
N3280 X.5373 Y.144 Z.2969
N3290 X.4817 Y.2781 Z.2813
N3300 X.3933 Y.3933 Z.2656
N3310 X.2781 Y.4817 Z.25
N3320 X.144 Y.5373 Z.2344
N3330 X0. Y.5563 Z.2188
N3340 X-.144 Y.5373 Z.2031
N3350 X-.2781 Y.4817 Z.1875
N3360 X-.3933 Y.3933 Z.1719
N3370 X-.4817 Y.2781 Z.1563
N3380 X-.5373 Y.144 Z.1406
N3390 X-.5563 Y0. Z.125
N3400 X-.5373 Y-.144 Z.1094
N3410 X-.4817 Y-.2781 Z.0938
N3420 X-.3933 Y-.3933 Z.0781
N3430 X-.2781 Y-.4817 Z.0625
N3440 X-.144 Y-.5373 Z.0469
N3450 X0. Y-.5563 Z.0313
N3460 X.144 Y-.5373 Z.0156
N3470 X.2781 Y-.4817 Z0.
N3480 G3 X.5562 Y0. I-.2781 J.4817
N3490 X0. Y.5562 I-.5562 J0.
N3500 X-.5563 Y0. I0. J-.5562
N3510 X0. Y-.5563 I.5563 J0.
N3520 X.2781 Y-.4817 I0. J.5563
N3530 G1 X.1971 Y-.3414
N3540 Z.2
N3550 G0 Z1.825
N3560 X-.5643 Y0.
N3570 G1 Z1.625 ;F6.42
N3580 X-.545 Y-.146 Z1.6094
N3590 X-.4887 Y-.2821 Z1.5938
N3600 X-.399 Y-.399 Z1.5781
N3610 X-.2821 Y-.4887 Z1.5625
N3620 X-.146 Y-.545 Z1.5469
N3630 X0. Y-.5643 Z1.5313
N3640 X.146 Y-.545 Z1.5156
N3650 X.2821 Y-.4887 Z1.5
N3660 X.399 Y-.399 Z1.4844
N3670 X.4887 Y-.2821 Z1.4688
N3680 X.545 Y-.146 Z1.4531
N3690 X.5643 Y0. Z1.4375
N3700 X.545 Y.146 Z1.4219
N3710 X.4887 Y.2821 Z1.4063
N3720 X.399 Y.399 Z1.3906
N3730 X.2821 Y.4887 Z1.375
N3740 X.146 Y.545 Z1.3594
N3750 X0. Y.5643 Z1.3438
N3760 X-.146 Y.545 Z1.3281
N3770 X-.2821 Y.4887 Z1.3125
N3780 X-.399 Y.399 Z1.2969
N3790 X-.4887 Y.2821 Z1.2813
N3800 X-.545 Y.146 Z1.2656
N3810 X-.5643 Y0. Z1.25
N3820 X-.545 Y-.146 Z1.2344
N3830 X-.4887 Y-.2821 Z1.2188
N3840 X-.399 Y-.399 Z1.2031
N3850 X-.2821 Y-.4887 Z1.1875
N3860 X-.146 Y-.545 Z1.1719
N3870 X0. Y-.5643 Z1.1563
N3880 X.146 Y-.545 Z1.1406
N3890 X.2821 Y-.4887 Z1.125
N3900 X.399 Y-.399 Z1.1094
N3910 X.4887 Y-.2821 Z1.0938
N3920 X.545 Y-.146 Z1.0781
N3930 X.5643 Y0. Z1.0625
N3940 X.545 Y.146 Z1.0469
N3950 X.4887 Y.2821 Z1.0313
N3960 X.399 Y.399 Z1.0156
N3970 X.2821 Y.4887 Z1.
N3980 X.146 Y.545 Z.9844
N3990 X0. Y.5643 Z.9688
N4000 X-.146 Y.545 Z.9531
N4010 X-.2821 Y.4887 Z.9375
N4020 X-.399 Y.399 Z.9219
N4030 X-.4887 Y.2821 Z.9063
N4040 X-.545 Y.146 Z.8906
N4050 X-.5643 Y0. Z.875
N4060 X-.545 Y-.146 Z.8594
N4070 X-.4887 Y-.2821 Z.8438
N4080 X-.399 Y-.399 Z.8281
N4090 X-.2821 Y-.4887 Z.8125
N4100 X-.146 Y-.545 Z.7969
N4110 X0. Y-.5643 Z.7813
N4120 X.146 Y-.545 Z.7656
N4130 X.2821 Y-.4887 Z.75
N4140 X.399 Y-.399 Z.7344
N4150 X.4887 Y-.2821 Z.7188
N4160 X.545 Y-.146 Z.7031
N4170 X.5643 Y0. Z.6875
N4180 X.545 Y.146 Z.6719
N4190 X.4887 Y.2821 Z.6563
N4200 X.399 Y.399 Z.6406
N4210 X.2821 Y.4887 Z.625
N4220 X.146 Y.545 Z.6094
N4230 X0. Y.5643 Z.5938
N4240 X-.146 Y.545 Z.5781
N4250 X-.2821 Y.4887 Z.5625
N4260 X-.399 Y.399 Z.5469
N4270 X-.4887 Y.2821 Z.5313
N4280 X-.545 Y.146 Z.5156
N4290 X-.5643 Y0. Z.5
N4300 X-.545 Y-.146 Z.4844
N4310 X-.4887 Y-.2821 Z.4688
N4320 X-.399 Y-.399 Z.4531
N4330 X-.2821 Y-.4887 Z.4375
N4340 X-.146 Y-.545 Z.4219
N4350 X0. Y-.5643 Z.4063
N4360 X.146 Y-.545 Z.3906
N4370 X.2821 Y-.4887 Z.375
N4380 X.399 Y-.399 Z.3594
N4390 X.4887 Y-.2821 Z.3438
N4400 X.545 Y-.146 Z.3281
N4410 X.5643 Y0. Z.3125
N4420 X.545 Y.146 Z.2969
N4430 X.4887 Y.2821 Z.2813
N4440 X.399 Y.399 Z.2656
N4450 X.2821 Y.4887 Z.25
N4460 X.146 Y.545 Z.2344
N4470 X0. Y.5643 Z.2188
N4480 X-.146 Y.545 Z.2031
N4490 X-.2821 Y.4887 Z.1875
N4500 X-.399 Y.399 Z.1719
N4510 X-.4887 Y.2821 Z.1563
N4520 X-.545 Y.146 Z.1406
N4530 X-.5643 Y0. Z.125
N4540 X-.545 Y-.146 Z.1094
N4550 X-.4887 Y-.2821 Z.0938
N4560 X-.399 Y-.399 Z.0781
N4570 X-.2821 Y-.4887 Z.0625
N4580 X-.146 Y-.545 Z.0469
N4590 X0. Y-.5643 Z.0313
N4600 X.146 Y-.545 Z.0156
N4610 X.2821 Y-.4887 Z0.
N4620 G3 X.5643 Y0. I-.2821 J.4887
N4630 X0. Y.5643 I-.5643 J0.
N4640 X-.5643 Y0. I0. J-.5643
N4650 X0. Y-.5643 I.5643 J0.
N4660 X.2821 Y-.4887 I0. J.5643
N4670 G1 X.2011 Y-.3484
N4680 Z.2
N4690 G0 Z1.825
N4700 X-.5723 Y0.
N4710 G1 Z1.625 ;F6.42
N4720 X-.5528 Y-.1481 Z1.6094
N4730 X-.4956 Y-.2861 Z1.5938
N4740 X-.4046 Y-.4046 Z1.5781
N4750 X-.2861 Y-.4956 Z1.5625
N4760 X-.1481 Y-.5528 Z1.5469
N4770 X0. Y-.5723 Z1.5313
N4780 X.1481 Y-.5528 Z1.5156
N4790 X.2861 Y-.4956 Z1.5
N4800 X.4046 Y-.4046 Z1.4844
N4810 X.4956 Y-.2861 Z1.4688
N4820 X.5528 Y-.1481 Z1.4531
N4830 X.5723 Y0. Z1.4375
N4840 X.5528 Y.1481 Z1.4219
N4850 X.4956 Y.2861 Z1.4063
N4860 X.4046 Y.4046 Z1.3906
N4870 X.2861 Y.4956 Z1.375
N4880 X.1481 Y.5528 Z1.3594
N4890 X0. Y.5723 Z1.3438
N4900 X-.1481 Y.5528 Z1.3281
N4910 X-.2861 Y.4956 Z1.3125
N4920 X-.4046 Y.4046 Z1.2969
N4930 X-.4956 Y.2861 Z1.2813
N4940 X-.5528 Y.1481 Z1.2656
N4950 X-.5723 Y0. Z1.25
N4960 X-.5528 Y-.1481 Z1.2344
N4970 X-.4956 Y-.2861 Z1.2188
N4980 X-.4046 Y-.4046 Z1.2031
N4990 X-.2861 Y-.4956 Z1.1875
N5000 X-.1481 Y-.5528 Z1.1719
N5010 X0. Y-.5723 Z1.1563
N5020 X.1481 Y-.5528 Z1.1406
N5030 X.2861 Y-.4956 Z1.125
N5040 X.4046 Y-.4046 Z1.1094
N5050 X.4956 Y-.2861 Z1.0938
N5060 X.5528 Y-.1481 Z1.0781
N5070 X.5723 Y0. Z1.0625
N5080 X.5528 Y.1481 Z1.0469
N5090 X.4956 Y.2861 Z1.0313
N5100 X.4046 Y.4046 Z1.0156
N5110 X.2861 Y.4956 Z1.
N5120 X.1481 Y.5528 Z.9844
N5130 X0. Y.5723 Z.9688
N5140 X-.1481 Y.5528 Z.9531
N5150 X-.2861 Y.4956 Z.9375
N5160 X-.4046 Y.4046 Z.9219
N5170 X-.4956 Y.2861 Z.9063
N5180 X-.5528 Y.1481 Z.8906
N5190 X-.5723 Y0. Z.875
N5200 X-.5528 Y-.1481 Z.8594
N5210 X-.4956 Y-.2861 Z.8438
N5220 X-.4046 Y-.4046 Z.8281
N5230 X-.2861 Y-.4956 Z.8125
N5240 X-.1481 Y-.5528 Z.7969
N5250 X0. Y-.5723 Z.7813
N5260 X.1481 Y-.5528 Z.7656
N5270 X.2861 Y-.4956 Z.75
N5280 X.4046 Y-.4046 Z.7344
N5290 X.4956 Y-.2861 Z.7188
N5300 X.5528 Y-.1481 Z.7031
N5310 X.5723 Y0. Z.6875
N5320 X.5528 Y.1481 Z.6719
N5330 X.4956 Y.2861 Z.6563
N5340 X.4046 Y.4046 Z.6406
N5350 X.2861 Y.4956 Z.625
N5360 X.1481 Y.5528 Z.6094
N5370 X0. Y.5723 Z.5938
N5380 X-.1481 Y.5528 Z.5781
N5390 X-.2861 Y.4956 Z.5625
N5400 X-.4046 Y.4046 Z.5469
N5410 X-.4956 Y.2861 Z.5313
N5420 X-.5528 Y.1481 Z.5156
N5430 X-.5723 Y0. Z.5
N5440 X-.5528 Y-.1481 Z.4844
N5450 X-.4956 Y-.2861 Z.4688
N5460 X-.4046 Y-.4046 Z.4531
N5470 X-.2861 Y-.4956 Z.4375
N5480 X-.1481 Y-.5528 Z.4219
N5490 X0. Y-.5723 Z.4063
N5500 X.1481 Y-.5528 Z.3906
N5510 X.2861 Y-.4956 Z.375
N5520 X.4046 Y-.4046 Z.3594
N5530 X.4956 Y-.2861 Z.3438
N5540 X.5528 Y-.1481 Z.3281
N5550 X.5723 Y0. Z.3125
N5560 X.5528 Y.1481 Z.2969
N5570 X.4956 Y.2861 Z.2813
N5580 X.4046 Y.4046 Z.2656
N5590 X.2861 Y.4956 Z.25
N5600 X.1481 Y.5528 Z.2344
N5610 X0. Y.5723 Z.2188
N5620 X-.1481 Y.5528 Z.2031
N5630 X-.2861 Y.4956 Z.1875
N5640 X-.4046 Y.4046 Z.1719
N5650 X-.4956 Y.2861 Z.1563
N5660 X-.5528 Y.1481 Z.1406
N5670 X-.5723 Y0. Z.125
N5680 X-.5528 Y-.1481 Z.1094
N5690 X-.4956 Y-.2861 Z.0938
N5700 X-.4046 Y-.4046 Z.0781
N5710 X-.2861 Y-.4956 Z.0625
N5720 X-.1481 Y-.5528 Z.0469
N5730 X0. Y-.5723 Z.0313
N5740 X.1481 Y-.5528 Z.0156
N5750 X.2861 Y-.4956 Z0.
N5760 G3 X.5723 Y0. I-.2861 J.4956
N5770 X0. Y.5723 I-.5723 J0.
N5780 X-.5723 Y0. I0. J-.5723
N5790 X0. Y-.5723 I.5723 J0.
N5800 X.2861 Y-.4956 I0. J.5723
N5810 G1 X.2051 Y-.3553
N5820 Z.2
N5830 G0 Z1.825
N5840 X-.5803 Y0.
N5850 G1 Z1.625 ;F6.42
N5860 X-.5605 Y-.1502 Z1.6094
N5870 X-.5025 Y-.2901 Z1.5938
N5880 X-.4103 Y-.4103 Z1.5781
N5890 X-.2901 Y-.5025 Z1.5625
N5900 X-.1502 Y-.5605 Z1.5469
N5910 X0. Y-.5803 Z1.5313
N5920 X.1502 Y-.5605 Z1.5156
N5930 X.2901 Y-.5025 Z1.5
N5940 X.4103 Y-.4103 Z1.4844
N5950 X.5025 Y-.2901 Z1.4688
N5960 X.5605 Y-.1502 Z1.4531
N5970 X.5803 Y0. Z1.4375
N5980 X.5605 Y.1502 Z1.4219
N5990 X.5025 Y.2901 Z1.4063
N6000 X.4103 Y.4103 Z1.3906
N6010 X.2901 Y.5025 Z1.375
N6020 X.1502 Y.5605 Z1.3594
N6030 X0. Y.5803 Z1.3438
N6040 X-.1502 Y.5605 Z1.3281
N6050 X-.2901 Y.5025 Z1.3125
N6060 X-.4103 Y.4103 Z1.2969
N6070 X-.5025 Y.2901 Z1.2813
N6080 X-.5605 Y.1502 Z1.2656
N6090 X-.5803 Y0. Z1.25
N6100 X-.5605 Y-.1502 Z1.2344
N6110 X-.5025 Y-.2901 Z1.2188
N6120 X-.4103 Y-.4103 Z1.2031
N6130 X-.2901 Y-.5025 Z1.1875
N6140 X-.1502 Y-.5605 Z1.1719
N6150 X0. Y-.5803 Z1.1563
N6160 X.1502 Y-.5605 Z1.1406
N6170 X.2901 Y-.5025 Z1.125
N6180 X.4103 Y-.4103 Z1.1094
N6190 X.5025 Y-.2901 Z1.0938
N6200 X.5605 Y-.1502 Z1.0781
N6210 X.5803 Y0. Z1.0625
N6220 X.5605 Y.1502 Z1.0469
N6230 X.5025 Y.2901 Z1.0313
N6240 X.4103 Y.4103 Z1.0156
N6250 X.2901 Y.5025 Z1.
N6260 X.1502 Y.5605 Z.9844
N6270 X0. Y.5803 Z.9688
N6280 X-.1502 Y.5605 Z.9531
N6290 X-.2901 Y.5025 Z.9375
N6300 X-.4103 Y.4103 Z.9219
N6310 X-.5025 Y.2901 Z.9063
N6320 X-.5605 Y.1502 Z.8906
N6330 X-.5803 Y0. Z.875
N6340 X-.5605 Y-.1502 Z.8594
N6350 X-.5025 Y-.2901 Z.8438
N6360 X-.4103 Y-.4103 Z.8281
N6370 X-.2901 Y-.5025 Z.8125
N6380 X-.1502 Y-.5605 Z.7969
N6390 X0. Y-.5803 Z.7813
N6400 X.1502 Y-.5605 Z.7656
N6410 X.2901 Y-.5025 Z.75
N6420 X.4103 Y-.4103 Z.7344
N6430 X.5025 Y-.2901 Z.7188
N6440 X.5605 Y-.1502 Z.7031
N6450 X.5803 Y0. Z.6875
N6460 X.5605 Y.1502 Z.6719
N6470 X.5025 Y.2901 Z.6563
N6480 X.4103 Y.4103 Z.6406
N6490 X.2901 Y.5025 Z.625
N6500 X.1502 Y.5605 Z.6094
N6510 X0. Y.5803 Z.5938
N6520 X-.1502 Y.5605 Z.5781
N6530 X-.2901 Y.5025 Z.5625
N6540 X-.4103 Y.4103 Z.5469
N6550 X-.5025 Y.2901 Z.5313
N6560 X-.5605 Y.1502 Z.5156
N6570 X-.5803 Y0. Z.5
N6580 X-.5605 Y-.1502 Z.4844
N6590 X-.5025 Y-.2901 Z.4688
N6600 X-.4103 Y-.4103 Z.4531
N6610 X-.2901 Y-.5025 Z.4375
N6620 X-.1502 Y-.5605 Z.4219
N6630 X0. Y-.5803 Z.4063
N6640 X.1502 Y-.5605 Z.3906
N6650 X.2901 Y-.5025 Z.375
N6660 X.4103 Y-.4103 Z.3594
N6670 X.5025 Y-.2901 Z.3438
N6680 X.5605 Y-.1502 Z.3281
N6690 X.5803 Y0. Z.3125
N6700 X.5605 Y.1502 Z.2969
N6710 X.5025 Y.2901 Z.2813
N6720 X.4103 Y.4103 Z.2656
N6730 X.2901 Y.5025 Z.25
N6740 X.1502 Y.5605 Z.2344
N6750 X0. Y.5803 Z.2188
N6760 X-.1502 Y.5605 Z.2031
N6770 X-.2901 Y.5025 Z.1875
N6780 X-.4103 Y.4103 Z.1719
N6790 X-.5025 Y.2901 Z.1563
N6800 X-.5605 Y.1502 Z.1406
N6810 X-.5803 Y0. Z.125
N6820 X-.5605 Y-.1502 Z.1094
N6830 X-.5025 Y-.2901 Z.0938
N6840 X-.4103 Y-.4103 Z.0781
N6850 X-.2901 Y-.5025 Z.0625
N6860 X-.1502 Y-.5605 Z.0469
N6870 X0. Y-.5803 Z.0313
N6880 X.1502 Y-.5605 Z.0156
N6890 X.2901 Y-.5025 Z0.
N6900 G3 X.5802 Y0. I-.2901 J.5025
N6910 X0. Y.5802 I-.5802 J0.
N6920 X-.5803 Y0. I0. J-.5802
N6930 X0. Y-.5803 I.5803 J0.
N6940 X.2901 Y-.5025 I0. J.5803
N6950 G1 X.2091 Y-.3622
N6960 Z.2
N6970 G0 Z1.825
N6980 X-.5883 Y0.
N6990 G1 Z1.625 ;F6.42
N7000 X-.5698 Y-.1463 Z1.61
N7010 X-.5155 Y-.2834 Z1.595
N7020 X-.4288 Y-.4027 Z1.58
N7030 X-.3152 Y-.4967 Z1.565
N7040 X-.1818 Y-.5595 Z1.55
N7050 X-.0369 Y-.5871 Z1.535
N7060 X.1102 Y-.5778 Z1.52
N7070 X.2505 Y-.5323 Z1.505
N7080 X.375 Y-.4533 Z1.49
N7090 X.4759 Y-.3458 Z1.475
N7100 X.5469 Y-.2165 Z1.46
N7110 X.5836 Y-.0737 Z1.445
N7120 Y.0737 Z1.43
N7130 X.5469 Y.2165 Z1.415
N7140 X.4759 Y.3458 Z1.4
N7150 X.375 Y.4533 Z1.385
N7160 X.2505 Y.5323 Z1.37
N7170 X.1102 Y.5778 Z1.355
N7180 X-.0369 Y.5871 Z1.34
N7190 X-.1818 Y.5595 Z1.325
N7200 X-.3152 Y.4967 Z1.31
N7210 X-.4288 Y.4027 Z1.295
N7220 X-.5155 Y.2834 Z1.28
N7230 X-.5698 Y.1463 Z1.265
N7240 X-.5883 Y0. Z1.25
N7250 X-.5698 Y-.1463 Z1.235
N7260 X-.5155 Y-.2834 Z1.22
N7270 X-.4288 Y-.4027 Z1.205
N7280 X-.3152 Y-.4967 Z1.19
N7290 X-.1818 Y-.5595 Z1.175
N7300 X-.0369 Y-.5871 Z1.16
N7310 X.1102 Y-.5778 Z1.145
N7320 X.2505 Y-.5323 Z1.13
N7330 X.375 Y-.4533 Z1.115
N7340 X.4759 Y-.3458 Z1.1
N7350 X.5469 Y-.2165 Z1.085
N7360 X.5836 Y-.0737 Z1.07
N7370 Y.0737 Z1.055
N7380 X.5469 Y.2165 Z1.04
N7390 X.4759 Y.3458 Z1.025
N7400 X.375 Y.4533 Z1.01
N7410 X.2505 Y.5323 Z.995
N7420 X.1102 Y.5778 Z.98
N7430 X-.0369 Y.5871 Z.965
N7440 X-.1818 Y.5595 Z.95
N7450 X-.3152 Y.4967 Z.935
N7460 X-.4288 Y.4027 Z.92
N7470 X-.5155 Y.2834 Z.905
N7480 X-.5698 Y.1463 Z.89
N7490 X-.5883 Y0. Z.875
N7500 X-.5698 Y-.1463 Z.86
N7510 X-.5155 Y-.2834 Z.845
N7520 X-.4288 Y-.4027 Z.83
N7530 X-.3152 Y-.4967 Z.815
N7540 X-.1818 Y-.5595 Z.8
N7550 X-.0369 Y-.5871 Z.785
N7560 X.1102 Y-.5778 Z.77
N7570 X.2505 Y-.5323 Z.755
N7580 X.375 Y-.4533 Z.74
N7590 X.4759 Y-.3458 Z.725
N7600 X.5469 Y-.2165 Z.71
N7610 X.5836 Y-.0737 Z.695
N7620 Y.0737 Z.68
N7630 X.5469 Y.2165 Z.665
N7640 X.4759 Y.3458 Z.65
N7650 X.375 Y.4533 Z.635
N7660 X.2505 Y.5323 Z.62
N7670 X.1102 Y.5778 Z.605
N7680 X-.0369 Y.5871 Z.59
N7690 X-.1818 Y.5595 Z.575
N7700 X-.3152 Y.4967 Z.56
N7710 X-.4288 Y.4027 Z.545
N7720 X-.5155 Y.2834 Z.53
N7730 X-.5698 Y.1463 Z.515
N7740 X-.5883 Y0. Z.5
N7750 X-.5698 Y-.1463 Z.485
N7760 X-.5155 Y-.2834 Z.47
N7770 X-.4288 Y-.4027 Z.455
N7780 X-.3152 Y-.4967 Z.44
N7790 X-.1818 Y-.5595 Z.425
N7800 X-.0369 Y-.5871 Z.41
N7810 X.1102 Y-.5778 Z.395
N7820 X.2505 Y-.5323 Z.38
N7830 X.375 Y-.4533 Z.365
N7840 X.4759 Y-.3458 Z.35
N7850 X.5469 Y-.2165 Z.335
N7860 X.5836 Y-.0737 Z.32
N7870 Y.0737 Z.305
N7880 X.5469 Y.2165 Z.29
N7890 X.4759 Y.3458 Z.275
N7900 X.375 Y.4533 Z.26
N7910 X.2505 Y.5323 Z.245
N7920 X.1102 Y.5778 Z.23
N7930 X-.0369 Y.5871 Z.215
N7940 X-.1818 Y.5595 Z.2
N7950 X-.3152 Y.4967 Z.185
N7960 X-.4288 Y.4027 Z.17
N7970 X-.5155 Y.2834 Z.155
N7980 X-.5698 Y.1463 Z.14
N7990 X-.5883 Y0. Z.125
N8000 X-.5724 Y-.1357 Z.1111
N8010 X-.5257 Y-.264 Z.0972
N8020 X-.4506 Y-.3781 Z.0833
N8030 X-.3513 Y-.4718 Z.0694
N8040 X-.233 Y-.5401 Z.0556
N8050 X-.1021 Y-.5793 Z.0417
N8060 X.0342 Y-.5873 Z.0278
N8070 X.1687 Y-.5635 Z.0139
N8080 X.2941 Y-.5094 Z0.
N8090 G3 X.5882 Y0. I-.2941 J.5094
N8100 X0. Y.5882 I-.5882 J0.
N8110 X-.5883 Y0. I0. J-.5882
N8120 X0. Y-.5883 I.5883 J0.
N8130 X.2941 Y-.5094 I0. J.5883
N8140 G1 X.2131 Y-.3691
N8150 Z.2
N8160 G0 Z1.825
N8170 X-.5962 Y0.
N8180 G1 Z1.625 ;F6.42
N8190 X-.5775 Y-.1483 Z1.61
N8200 X-.5225 Y-.2872 Z1.595
N8210 X-.4346 Y-.4082 Z1.58
N8220 X-.3195 Y-.5034 Z1.565
N8230 X-.1843 Y-.5671 Z1.55
N8240 X-.0374 Y-.5951 Z1.535
N8250 X.1117 Y-.5857 Z1.52
N8260 X.2539 Y-.5395 Z1.505
N8270 X.3801 Y-.4594 Z1.49
N8280 X.4824 Y-.3505 Z1.475
N8290 X.5544 Y-.2195 Z1.46
N8300 X.5915 Y-.0747 Z1.445
N8310 Y.0747 Z1.43
N8320 X.5544 Y.2195 Z1.415
N8330 X.4824 Y.3505 Z1.4
N8340 X.3801 Y.4594 Z1.385
N8350 X.2539 Y.5395 Z1.37
N8360 X.1117 Y.5857 Z1.355
N8370 X-.0374 Y.5951 Z1.34
N8380 X-.1843 Y.5671 Z1.325
N8390 X-.3195 Y.5034 Z1.31
N8400 X-.4346 Y.4082 Z1.295
N8410 X-.5225 Y.2872 Z1.28
N8420 X-.5775 Y.1483 Z1.265
N8430 X-.5962 Y0. Z1.25
N8440 X-.5775 Y-.1483 Z1.235
N8450 X-.5225 Y-.2872 Z1.22
N8460 X-.4346 Y-.4082 Z1.205
N8470 X-.3195 Y-.5034 Z1.19
N8480 X-.1843 Y-.5671 Z1.175
N8490 X-.0374 Y-.5951 Z1.16
N8500 X.1117 Y-.5857 Z1.145
N8510 X.2539 Y-.5395 Z1.13
N8520 X.3801 Y-.4594 Z1.115
N8530 X.4824 Y-.3505 Z1.1
N8540 X.5544 Y-.2195 Z1.085
N8550 X.5915 Y-.0747 Z1.07
N8560 Y.0747 Z1.055
N8570 X.5544 Y.2195 Z1.04
N8580 X.4824 Y.3505 Z1.025
N8590 X.3801 Y.4594 Z1.01
N8600 X.2539 Y.5395 Z.995
N8610 X.1117 Y.5857 Z.98
N8620 X-.0374 Y.5951 Z.965
N8630 X-.1843 Y.5671 Z.95
N8640 X-.3195 Y.5034 Z.935
N8650 X-.4346 Y.4082 Z.92
N8660 X-.5225 Y.2872 Z.905
N8670 X-.5775 Y.1483 Z.89
N8680 X-.5962 Y0. Z.875
N8690 X-.5775 Y-.1483 Z.86
N8700 X-.5225 Y-.2872 Z.845
N8710 X-.4346 Y-.4082 Z.83
N8720 X-.3195 Y-.5034 Z.815
N8730 X-.1843 Y-.5671 Z.8
N8740 X-.0374 Y-.5951 Z.785
N8750 X.1117 Y-.5857 Z.77
N8760 X.2539 Y-.5395 Z.755
N8770 X.3801 Y-.4594 Z.74
N8780 X.4824 Y-.3505 Z.725
N8790 X.5544 Y-.2195 Z.71
N8800 X.5915 Y-.0747 Z.695
N8810 Y.0747 Z.68
N8820 X.5544 Y.2195 Z.665
N8830 X.4824 Y.3505 Z.65
N8840 X.3801 Y.4594 Z.635
N8850 X.2539 Y.5395 Z.62
N8860 X.1117 Y.5857 Z.605
N8870 X-.0374 Y.5951 Z.59
N8880 X-.1843 Y.5671 Z.575
N8890 X-.3195 Y.5034 Z.56
N8900 X-.4346 Y.4082 Z.545
N8910 X-.5225 Y.2872 Z.53
N8920 X-.5775 Y.1483 Z.515
N8930 X-.5962 Y0. Z.5
N8940 X-.5775 Y-.1483 Z.485
N8950 X-.5225 Y-.2872 Z.47
N8960 X-.4346 Y-.4082 Z.455
N8970 X-.3195 Y-.5034 Z.44
N8980 X-.1843 Y-.5671 Z.425
N8990 X-.0374 Y-.5951 Z.41
N9000 X.1117 Y-.5857 Z.395
N9010 X.2539 Y-.5395 Z.38
N9020 X.3801 Y-.4594 Z.365
N9030 X.4824 Y-.3505 Z.35
N9040 X.5544 Y-.2195 Z.335
N9050 X.5915 Y-.0747 Z.32
N9060 Y.0747 Z.305
N9070 X.5544 Y.2195 Z.29
N9080 X.4824 Y.3505 Z.275
N9090 X.3801 Y.4594 Z.26
N9100 X.2539 Y.5395 Z.245
N9110 X.1117 Y.5857 Z.23
N9120 X-.0374 Y.5951 Z.215
N9130 X-.1843 Y.5671 Z.2
N9140 X-.3195 Y.5034 Z.185
N9150 X-.4346 Y.4082 Z.17
N9160 X-.5225 Y.2872 Z.155
N9170 X-.5775 Y.1483 Z.14
N9180 X-.5962 Y0. Z.125
N9190 X-.5802 Y-.1375 Z.1111
N9200 X-.5328 Y-.2676 Z.0972
N9210 X-.4568 Y-.3833 Z.0833
N9220 X-.3561 Y-.4783 Z.0694
N9230 X-.2362 Y-.5475 Z.0556
N9240 X-.1035 Y-.5872 Z.0417
N9250 X.0347 Y-.5952 Z.0278
N9260 X.171 Y-.5712 Z.0139
N9270 X.2981 Y-.5164 Z0.
N9280 G3 X.5963 Y0. I-.2981 J.5164
N9290 X0. Y.5963 I-.5963 J0.
N9300 X-.5962 Y0. I0. J-.5963
N9310 X0. Y-.5962 I.5962 J0.
N9320 X.2981 Y-.5164 I0. J.5962
N9330 G1 X.2171 Y-.3761
N9340 Z1.825
;N9350 M5
;N9360 G91 G0 G28 Z0.
;N9370 G28 X0. Y0. A0.
;N9380 M30
%
