%
O0000(WAAM_CYLINDER_04042025)
(DATE=DD-MM-YY - 04-04-25 TIME=HH:MM - 11:43)
(MCAM FILE - C:\USERS\CAILEAN S P15\DOCUMENTS\MASTERCAM\WAAM_CYLINDER.EMCAM)
(NC FILE - C:\USERS\CAILEAN S P15\DOWNLOADS\WAAM_CYLINDER_04042025.NC)
(MATERIAL - ALUMINUM INCH - 2024)
( T256 |  1/2 BALL ENDMILL | H256 )
N100 G20
N110 G0 G17 G40 G49 G80 G90
N120 T256 M6
N130 G0 G90 G54 X-.1175 Y0. A0. S1069 M3
N140 G43 H256 Z1.75
N150 Z1.7
N160 G1 Z1.5 ;F6.42
N170 X-.1156 Y-.021 Z1.4929
N180 X-.11 Y-.0413 Z1.4857
N190 X-.1009 Y-.0603 Z1.4786
N200 X-.0885 Y-.0773 Z1.4714
N210 X-.0733 Y-.0919 Z1.4643
N220 X-.0557 Y-.1035 Z1.4571
N230 X-.0363 Y-.1117 Z1.45
N240 X-.0158 Y-.1164 Z1.4429
N250 X.0053 Y-.1174 Z1.4357
N260 X.0261 Y-.1146 Z1.4286
N270 X.0462 Y-.108 Z1.4214
N280 X.0647 Y-.0981 Z1.4143
N290 X.0812 Y-.0849 Z1.4071
N300 X.0951 Y-.0691 Z1.4
N310 X.1059 Y-.051 Z1.3929
N320 X.1133 Y-.0313 Z1.3857
N330 X.117 Y-.0105 Z1.3786
N340 Y.0105 Z1.3714
N350 X.1133 Y.0313 Z1.3643
N360 X.1059 Y.051 Z1.3571
N370 X.0951 Y.0691 Z1.35
N380 X.0812 Y.0849 Z1.3429
N390 X.0647 Y.0981 Z1.3357
N400 X.0462 Y.108 Z1.3286
N410 X.0261 Y.1146 Z1.3214
N420 X.0053 Y.1174 Z1.3143
N430 X-.0158 Y.1164 Z1.3071
N440 X-.0363 Y.1117 Z1.3
N450 X-.0557 Y.1035 Z1.2929
N460 X-.0733 Y.0919 Z1.2857
N470 X-.0885 Y.0773 Z1.2786
N480 X-.1009 Y.0603 Z1.2714
N490 X-.11 Y.0413 Z1.2643
N500 X-.1156 Y.021 Z1.2571
N510 X-.1175 Y0. Z1.25
N520 X-.1156 Y-.021 Z1.2429
N530 X-.11 Y-.0413 Z1.2357
N540 X-.1009 Y-.0603 Z1.2286
N550 X-.0885 Y-.0773 Z1.2214
N560 X-.0733 Y-.0919 Z1.2143
N570 X-.0557 Y-.1035 Z1.2071
N580 X-.0363 Y-.1117 Z1.2
N590 X-.0158 Y-.1164 Z1.1929
N600 X.0053 Y-.1174 Z1.1857
N610 X.0261 Y-.1146 Z1.1786
N620 X.0462 Y-.108 Z1.1714
N630 X.0647 Y-.0981 Z1.1643
N640 X.0812 Y-.0849 Z1.1571
N650 X.0951 Y-.0691 Z1.15
N660 X.1059 Y-.051 Z1.1429
N670 X.1133 Y-.0313 Z1.1357
N680 X.117 Y-.0105 Z1.1286
N690 Y.0105 Z1.1214
N700 X.1133 Y.0313 Z1.1143
N710 X.1059 Y.051 Z1.1071
N720 X.0951 Y.0691 Z1.1
N730 X.0812 Y.0849 Z1.0929
N740 X.0647 Y.0981 Z1.0857
N750 X.0462 Y.108 Z1.0786
N760 X.0261 Y.1146 Z1.0714
N770 X.0053 Y.1174 Z1.0643
N780 X-.0158 Y.1164 Z1.0571
N790 X-.0363 Y.1117 Z1.05
N800 X-.0557 Y.1035 Z1.0429
N810 X-.0733 Y.0919 Z1.0357
N820 X-.0885 Y.0773 Z1.0286
N830 X-.1009 Y.0603 Z1.0214
N840 X-.11 Y.0413 Z1.0143
N850 X-.1156 Y.021 Z1.0071
N860 X-.1175 Y0. Z1.
N870 X-.1156 Y-.021 Z.9929
N880 X-.11 Y-.0413 Z.9857
N890 X-.1009 Y-.0603 Z.9786
N900 X-.0885 Y-.0773 Z.9714
N910 X-.0733 Y-.0919 Z.9643
N920 X-.0557 Y-.1035 Z.9571
N930 X-.0363 Y-.1117 Z.95
N940 X-.0158 Y-.1164 Z.9429
N950 X.0053 Y-.1174 Z.9357
N960 X.0261 Y-.1146 Z.9286
N970 X.0462 Y-.108 Z.9214
N980 X.0647 Y-.0981 Z.9143
N990 X.0812 Y-.0849 Z.9071
N1000 X.0951 Y-.0691 Z.9
N1010 X.1059 Y-.051 Z.8929
N1020 X.1133 Y-.0313 Z.8857
N1030 X.117 Y-.0105 Z.8786
N1040 Y.0105 Z.8714
N1050 X.1133 Y.0313 Z.8643
N1060 X.1059 Y.051 Z.8571
N1070 X.0951 Y.0691 Z.85
N1080 X.0812 Y.0849 Z.8429
N1090 X.0647 Y.0981 Z.8357
N1100 X.0462 Y.108 Z.8286
N1110 X.0261 Y.1146 Z.8214
N1120 X.0053 Y.1174 Z.8143
N1130 X-.0158 Y.1164 Z.8071
N1140 X-.0363 Y.1117 Z.8
N1150 X-.0557 Y.1035 Z.7929
N1160 X-.0733 Y.0919 Z.7857
N1170 X-.0885 Y.0773 Z.7786
N1180 X-.1009 Y.0603 Z.7714
N1190 X-.11 Y.0413 Z.7643
N1200 X-.1156 Y.021 Z.7571
N1210 X-.1175 Y0. Z.75
N1220 X-.1156 Y-.021 Z.7429
N1230 X-.11 Y-.0413 Z.7357
N1240 X-.1009 Y-.0603 Z.7286
N1250 X-.0885 Y-.0773 Z.7214
N1260 X-.0733 Y-.0919 Z.7143
N1270 X-.0557 Y-.1035 Z.7071
N1280 X-.0363 Y-.1117 Z.7
N1290 X-.0158 Y-.1164 Z.6929
N1300 X.0053 Y-.1174 Z.6857
N1310 X.0261 Y-.1146 Z.6786
N1320 X.0462 Y-.108 Z.6714
N1330 X.0647 Y-.0981 Z.6643
N1340 X.0812 Y-.0849 Z.6571
N1350 X.0951 Y-.0691 Z.65
N1360 X.1059 Y-.051 Z.6429
N1370 X.1133 Y-.0313 Z.6357
N1380 X.117 Y-.0105 Z.6286
N1390 Y.0105 Z.6214
N1400 X.1133 Y.0313 Z.6143
N1410 X.1059 Y.051 Z.6071
N1420 X.0951 Y.0691 Z.6
N1430 X.0812 Y.0849 Z.5929
N1440 X.0647 Y.0981 Z.5857
N1450 X.0462 Y.108 Z.5786
N1460 X.0261 Y.1146 Z.5714
N1470 X.0053 Y.1174 Z.5643
N1480 X-.0158 Y.1164 Z.5571
N1490 X-.0363 Y.1117 Z.55
N1500 X-.0557 Y.1035 Z.5429
N1510 X-.0733 Y.0919 Z.5357
N1520 X-.0885 Y.0773 Z.5286
N1530 X-.1009 Y.0603 Z.5214
N1540 X-.11 Y.0413 Z.5143
N1550 X-.1156 Y.021 Z.5071
N1560 X-.1175 Y0. Z.5
N1570 X-.1156 Y-.021 Z.4929
N1580 X-.11 Y-.0413 Z.4857
N1590 X-.1009 Y-.0603 Z.4786
N1600 X-.0885 Y-.0773 Z.4714
N1610 X-.0733 Y-.0919 Z.4643
N1620 X-.0557 Y-.1035 Z.4571
N1630 X-.0363 Y-.1117 Z.45
N1640 X-.0158 Y-.1164 Z.4429
N1650 X.0053 Y-.1174 Z.4357
N1660 X.0261 Y-.1146 Z.4286
N1670 X.0462 Y-.108 Z.4214
N1680 X.0647 Y-.0981 Z.4143
N1690 X.0812 Y-.0849 Z.4071
N1700 X.0951 Y-.0691 Z.4
N1710 X.1059 Y-.051 Z.3929
N1720 X.1133 Y-.0313 Z.3857
N1730 X.117 Y-.0105 Z.3786
N1740 Y.0105 Z.3714
N1750 X.1133 Y.0313 Z.3643
N1760 X.1059 Y.051 Z.3571
N1770 X.0951 Y.0691 Z.35
N1780 X.0812 Y.0849 Z.3429
N1790 X.0647 Y.0981 Z.3357
N1800 X.0462 Y.108 Z.3286
N1810 X.0261 Y.1146 Z.3214
N1820 X.0053 Y.1174 Z.3143
N1830 X-.0158 Y.1164 Z.3071
N1840 X-.0363 Y.1117 Z.3
N1850 X-.0557 Y.1035 Z.2929
N1860 X-.0733 Y.0919 Z.2857
N1870 X-.0885 Y.0773 Z.2786
N1880 X-.1009 Y.0603 Z.2714
N1890 X-.11 Y.0413 Z.2643
N1900 X-.1156 Y.021 Z.2571
N1910 X-.1175 Y0. Z.25
N1920 X-.1156 Y-.021 Z.2429
N1930 X-.11 Y-.0413 Z.2357
N1940 X-.1009 Y-.0603 Z.2286
N1950 X-.0885 Y-.0773 Z.2214
N1960 X-.0733 Y-.0919 Z.2143
N1970 X-.0557 Y-.1035 Z.2071
N1980 X-.0363 Y-.1117 Z.2
N1990 X-.0158 Y-.1164 Z.1929
N2000 X.0053 Y-.1174 Z.1857
N2010 X.0261 Y-.1146 Z.1786
N2020 X.0462 Y-.108 Z.1714
N2030 X.0647 Y-.0981 Z.1643
N2040 X.0812 Y-.0849 Z.1571
N2050 X.0951 Y-.0691 Z.15
N2060 X.1059 Y-.051 Z.1429
N2070 X.1133 Y-.0313 Z.1357
N2080 X.117 Y-.0105 Z.1286
N2090 Y.0105 Z.1214
N2100 X.1133 Y.0313 Z.1143
N2110 X.1059 Y.051 Z.1071
N2120 X.0951 Y.0691 Z.1
N2130 X.0812 Y.0849 Z.0929
N2140 X.0647 Y.0981 Z.0857
N2150 X.0462 Y.108 Z.0786
N2160 X.0261 Y.1146 Z.0714
N2170 X.0053 Y.1174 Z.0643
N2180 X-.0158 Y.1164 Z.0571
N2190 X-.0363 Y.1117 Z.05
N2200 X-.0557 Y.1035 Z.0429
N2210 X-.0733 Y.0919 Z.0357
N2220 X-.0885 Y.0773 Z.0286
N2230 X-.1009 Y.0603 Z.0214
N2240 X-.11 Y.0413 Z.0143
N2250 X-.1156 Y.021 Z.0071
N2260 X-.1175 Y0. Z0.
; N2270 G3 X0. Y-.1175 I.1175 J0.
; N2280 X.1175 Y0. I0. J.1175
; N2290 X0. Y.1175 I-.1175 J0.
; N2300 X-.1175 Y0. I0. J-.1175
N2310 G1 X.0825
N2320 Z.2
N2330 G0 Z.25
N2340 Z1.7
N2350 X-.1275
N2360 G1 Z1.5 ;F6.42
N2370 X-.1256 Y-.0221 Z1.4931
N2380 X-.1198 Y-.0436 Z1.4861
N2390 X-.1104 Y-.0638 Z1.4792
N2400 X-.0977 Y-.082 Z1.4722
N2410 X-.082 Y-.0977 Z1.4653
N2420 X-.0638 Y-.1104 Z1.4583
N2430 X-.0436 Y-.1198 Z1.4514
N2440 X-.0221 Y-.1256 Z1.4444
N2450 X0. Y-.1275 Z1.4375
N2460 X.0221 Y-.1256 Z1.4306
N2470 X.0436 Y-.1198 Z1.4236
N2480 X.0638 Y-.1104 Z1.4167
N2490 X.082 Y-.0977 Z1.4097
N2500 X.0977 Y-.082 Z1.4028
N2510 X.1104 Y-.0638 Z1.3958
N2520 X.1198 Y-.0436 Z1.3889
N2530 X.1256 Y-.0221 Z1.3819
N2540 X.1275 Y0. Z1.375
N2550 X.1256 Y.0221 Z1.3681
N2560 X.1198 Y.0436 Z1.3611
N2570 X.1104 Y.0638 Z1.3542
N2580 X.0977 Y.082 Z1.3472
N2590 X.082 Y.0977 Z1.3403
N2600 X.0638 Y.1104 Z1.3333
N2610 X.0436 Y.1198 Z1.3264
N2620 X.0221 Y.1256 Z1.3194
N2630 X0. Y.1275 Z1.3125
N2640 X-.0221 Y.1256 Z1.3056
N2650 X-.0436 Y.1198 Z1.2986
N2660 X-.0638 Y.1104 Z1.2917
N2670 X-.082 Y.0977 Z1.2847
N2680 X-.0977 Y.082 Z1.2778
N2690 X-.1104 Y.0638 Z1.2708
N2700 X-.1198 Y.0436 Z1.2639
N2710 X-.1256 Y.0221 Z1.2569
N2720 X-.1275 Y0. Z1.25
N2730 X-.1256 Y-.0221 Z1.2431
N2740 X-.1198 Y-.0436 Z1.2361
N2750 X-.1104 Y-.0638 Z1.2292
N2760 X-.0977 Y-.082 Z1.2222
N2770 X-.082 Y-.0977 Z1.2153
N2780 X-.0638 Y-.1104 Z1.2083
N2790 X-.0436 Y-.1198 Z1.2014
N2800 X-.0221 Y-.1256 Z1.1944
N2810 X0. Y-.1275 Z1.1875
N2820 X.0221 Y-.1256 Z1.1806
N2830 X.0436 Y-.1198 Z1.1736
N2840 X.0638 Y-.1104 Z1.1667
N2850 X.082 Y-.0977 Z1.1597
N2860 X.0977 Y-.082 Z1.1528
N2870 X.1104 Y-.0638 Z1.1458
N2880 X.1198 Y-.0436 Z1.1389
N2890 X.1256 Y-.0221 Z1.1319
N2900 X.1275 Y0. Z1.125
N2910 X.1256 Y.0221 Z1.1181
N2920 X.1198 Y.0436 Z1.1111
N2930 X.1104 Y.0638 Z1.1042
N2940 X.0977 Y.082 Z1.0972
N2950 X.082 Y.0977 Z1.0903
N2960 X.0638 Y.1104 Z1.0833
N2970 X.0436 Y.1198 Z1.0764
N2980 X.0221 Y.1256 Z1.0694
N2990 X0. Y.1275 Z1.0625
N3000 X-.0221 Y.1256 Z1.0556
N3010 X-.0436 Y.1198 Z1.0486
N3020 X-.0638 Y.1104 Z1.0417
N3030 X-.082 Y.0977 Z1.0347
N3040 X-.0977 Y.082 Z1.0278
N3050 X-.1104 Y.0638 Z1.0208
N3060 X-.1198 Y.0436 Z1.0139
N3070 X-.1256 Y.0221 Z1.0069
N3080 X-.1275 Y0. Z1.
N3090 X-.1256 Y-.0221 Z.9931
N3100 X-.1198 Y-.0436 Z.9861
N3110 X-.1104 Y-.0638 Z.9792
N3120 X-.0977 Y-.082 Z.9722
N3130 X-.082 Y-.0977 Z.9653
N3140 X-.0638 Y-.1104 Z.9583
N3150 X-.0436 Y-.1198 Z.9514
N3160 X-.0221 Y-.1256 Z.9444
N3170 X0. Y-.1275 Z.9375
N3180 X.0221 Y-.1256 Z.9306
N3190 X.0436 Y-.1198 Z.9236
N3200 X.0638 Y-.1104 Z.9167
N3210 X.082 Y-.0977 Z.9097
N3220 X.0977 Y-.082 Z.9028
N3230 X.1104 Y-.0638 Z.8958
N3240 X.1198 Y-.0436 Z.8889
N3250 X.1256 Y-.0221 Z.8819
N3260 X.1275 Y0. Z.875
N3270 X.1256 Y.0221 Z.8681
N3280 X.1198 Y.0436 Z.8611
N3290 X.1104 Y.0638 Z.8542
N3300 X.0977 Y.082 Z.8472
N3310 X.082 Y.0977 Z.8403
N3320 X.0638 Y.1104 Z.8333
N3330 X.0436 Y.1198 Z.8264
N3340 X.0221 Y.1256 Z.8194
N3350 X0. Y.1275 Z.8125
N3360 X-.0221 Y.1256 Z.8056
N3370 X-.0436 Y.1198 Z.7986
N3380 X-.0638 Y.1104 Z.7917
N3390 X-.082 Y.0977 Z.7847
N3400 X-.0977 Y.082 Z.7778
N3410 X-.1104 Y.0638 Z.7708
N3420 X-.1198 Y.0436 Z.7639
N3430 X-.1256 Y.0221 Z.7569
N3440 X-.1275 Y0. Z.75
N3450 X-.1256 Y-.0221 Z.7431
N3460 X-.1198 Y-.0436 Z.7361
N3470 X-.1104 Y-.0638 Z.7292
N3480 X-.0977 Y-.082 Z.7222
N3490 X-.082 Y-.0977 Z.7153
N3500 X-.0638 Y-.1104 Z.7083
N3510 X-.0436 Y-.1198 Z.7014
N3520 X-.0221 Y-.1256 Z.6944
N3530 X0. Y-.1275 Z.6875
N3540 X.0221 Y-.1256 Z.6806
N3550 X.0436 Y-.1198 Z.6736
N3560 X.0638 Y-.1104 Z.6667
N3570 X.082 Y-.0977 Z.6597
N3580 X.0977 Y-.082 Z.6528
N3590 X.1104 Y-.0638 Z.6458
N3600 X.1198 Y-.0436 Z.6389
N3610 X.1256 Y-.0221 Z.6319
N3620 X.1275 Y0. Z.625
N3630 X.1256 Y.0221 Z.6181
N3640 X.1198 Y.0436 Z.6111
N3650 X.1104 Y.0638 Z.6042
N3660 X.0977 Y.082 Z.5972
N3670 X.082 Y.0977 Z.5903
N3680 X.0638 Y.1104 Z.5833
N3690 X.0436 Y.1198 Z.5764
N3700 X.0221 Y.1256 Z.5694
N3710 X0. Y.1275 Z.5625
N3720 X-.0221 Y.1256 Z.5556
N3730 X-.0436 Y.1198 Z.5486
N3740 X-.0638 Y.1104 Z.5417
N3750 X-.082 Y.0977 Z.5347
N3760 X-.0977 Y.082 Z.5278
N3770 X-.1104 Y.0638 Z.5208
N3780 X-.1198 Y.0436 Z.5139
N3790 X-.1256 Y.0221 Z.5069
N3800 X-.1275 Y0. Z.5
N3810 X-.1256 Y-.0221 Z.4931
N3820 X-.1198 Y-.0436 Z.4861
N3830 X-.1104 Y-.0638 Z.4792
N3840 X-.0977 Y-.082 Z.4722
N3850 X-.082 Y-.0977 Z.4653
N3860 X-.0638 Y-.1104 Z.4583
N3870 X-.0436 Y-.1198 Z.4514
N3880 X-.0221 Y-.1256 Z.4444
N3890 X0. Y-.1275 Z.4375
N3900 X.0221 Y-.1256 Z.4306
N3910 X.0436 Y-.1198 Z.4236
N3920 X.0638 Y-.1104 Z.4167
N3930 X.082 Y-.0977 Z.4097
N3940 X.0977 Y-.082 Z.4028
N3950 X.1104 Y-.0638 Z.3958
N3960 X.1198 Y-.0436 Z.3889
N3970 X.1256 Y-.0221 Z.3819
N3980 X.1275 Y0. Z.375
N3990 X.1256 Y.0221 Z.3681
N4000 X.1198 Y.0436 Z.3611
N4010 X.1104 Y.0638 Z.3542
N4020 X.0977 Y.082 Z.3472
N4030 X.082 Y.0977 Z.3403
N4040 X.0638 Y.1104 Z.3333
N4050 X.0436 Y.1198 Z.3264
N4060 X.0221 Y.1256 Z.3194
N4070 X0. Y.1275 Z.3125
N4080 X-.0221 Y.1256 Z.3056
N4090 X-.0436 Y.1198 Z.2986
N4100 X-.0638 Y.1104 Z.2917
N4110 X-.082 Y.0977 Z.2847
N4120 X-.0977 Y.082 Z.2778
N4130 X-.1104 Y.0638 Z.2708
N4140 X-.1198 Y.0436 Z.2639
N4150 X-.1256 Y.0221 Z.2569
N4160 X-.1275 Y0. Z.25
N4170 X-.1256 Y-.0221 Z.2431
N4180 X-.1198 Y-.0436 Z.2361
N4190 X-.1104 Y-.0638 Z.2292
N4200 X-.0977 Y-.082 Z.2222
N4210 X-.082 Y-.0977 Z.2153
N4220 X-.0638 Y-.1104 Z.2083
N4230 X-.0436 Y-.1198 Z.2014
N4240 X-.0221 Y-.1256 Z.1944
N4250 X0. Y-.1275 Z.1875
N4260 X.0221 Y-.1256 Z.1806
N4270 X.0436 Y-.1198 Z.1736
N4280 X.0638 Y-.1104 Z.1667
N4290 X.082 Y-.0977 Z.1597
N4300 X.0977 Y-.082 Z.1528
N4310 X.1104 Y-.0638 Z.1458
N4320 X.1198 Y-.0436 Z.1389
N4330 X.1256 Y-.0221 Z.1319
N4340 X.1275 Y0. Z.125
N4350 X.1256 Y.0221 Z.1181
N4360 X.1198 Y.0436 Z.1111
N4370 X.1104 Y.0638 Z.1042
N4380 X.0977 Y.082 Z.0972
N4390 X.082 Y.0977 Z.0903
N4400 X.0638 Y.1104 Z.0833
N4410 X.0436 Y.1198 Z.0764
N4420 X.0221 Y.1256 Z.0694
N4430 X0. Y.1275 Z.0625
N4440 X-.0221 Y.1256 Z.0556
N4450 X-.0436 Y.1198 Z.0486
N4460 X-.0638 Y.1104 Z.0417
N4470 X-.082 Y.0977 Z.0347
N4480 X-.0977 Y.082 Z.0278
N4490 X-.1104 Y.0638 Z.0208
N4500 X-.1198 Y.0436 Z.0139
N4510 X-.1256 Y.0221 Z.0069
N4520 X-.1275 Y0. Z0.
; N4530 G3 X0. Y-.1275 I.1275 J0.
; N4540 X.1275 Y0. I0. J.1275
; N4550 X0. Y.1275 I-.1275 J0.
; N4560 X-.1275 Y0. I0. J-.1275
N4570 G1 X.0725
N4580 Z.2
N4590 G0 Z.25
N4600 Z1.7
N4610 X-.1375
N4620 G1 Z1.5 ;F6.42
N4630 X-.1355 Y-.0232 Z1.4932
N4640 X-.1296 Y-.0458 Z1.4865
N4650 X-.12 Y-.0671 Z1.4797
N4660 X-.107 Y-.0864 Z1.473
N4670 X-.0908 Y-.1032 Z1.4662
N4680 X-.0721 Y-.1171 Z1.4595
N4690 X-.0513 Y-.1276 Z1.4527
N4700 X-.029 Y-.1344 Z1.4459
N4710 X-.0058 Y-.1374 Z1.4392
N4720 X.0175 Y-.1364 Z1.4324
N4730 X.0403 Y-.1315 Z1.4257
N4740 X.0619 Y-.1228 Z1.4189
N4750 X.0818 Y-.1105 Z1.4122
N4760 X.0993 Y-.0951 Z1.4054
N4770 X.1139 Y-.077 Z1.3986
N4780 X.1253 Y-.0566 Z1.3919
N4790 X.1331 Y-.0346 Z1.3851
N4800 X.137 Y-.0117 Z1.3784
N4810 Y.0117 Z1.3716
N4820 X.1331 Y.0346 Z1.3649
N4830 X.1253 Y.0566 Z1.3581
N4840 X.1139 Y.077 Z1.3514
N4850 X.0993 Y.0951 Z1.3446
N4860 X.0818 Y.1105 Z1.3378
N4870 X.0619 Y.1228 Z1.3311
N4880 X.0403 Y.1315 Z1.3243
N4890 X.0175 Y.1364 Z1.3176
N4900 X-.0058 Y.1374 Z1.3108
N4910 X-.029 Y.1344 Z1.3041
N4920 X-.0513 Y.1276 Z1.2973
N4930 X-.0721 Y.1171 Z1.2905
N4940 X-.0908 Y.1032 Z1.2838
N4950 X-.107 Y.0864 Z1.277
N4960 X-.12 Y.0671 Z1.2703
N4970 X-.1296 Y.0458 Z1.2635
N4980 X-.1355 Y.0232 Z1.2568
N4990 X-.1375 Y0. Z1.25
N5000 X-.1355 Y-.0232 Z1.2432
N5010 X-.1296 Y-.0458 Z1.2365
N5020 X-.12 Y-.0671 Z1.2297
N5030 X-.107 Y-.0864 Z1.223
N5040 X-.0908 Y-.1032 Z1.2162
N5050 X-.0721 Y-.1171 Z1.2095
N5060 X-.0513 Y-.1276 Z1.2027
N5070 X-.029 Y-.1344 Z1.1959
N5080 X-.0058 Y-.1374 Z1.1892
N5090 X.0175 Y-.1364 Z1.1824
N5100 X.0403 Y-.1315 Z1.1757
N5110 X.0619 Y-.1228 Z1.1689
N5120 X.0818 Y-.1105 Z1.1622
N5130 X.0993 Y-.0951 Z1.1554
N5140 X.1139 Y-.077 Z1.1486
N5150 X.1253 Y-.0566 Z1.1419
N5160 X.1331 Y-.0346 Z1.1351
N5170 X.137 Y-.0117 Z1.1284
N5180 Y.0117 Z1.1216
N5190 X.1331 Y.0346 Z1.1149
N5200 X.1253 Y.0566 Z1.1081
N5210 X.1139 Y.077 Z1.1014
N5220 X.0993 Y.0951 Z1.0946
N5230 X.0818 Y.1105 Z1.0878
N5240 X.0619 Y.1228 Z1.0811
N5250 X.0403 Y.1315 Z1.0743
N5260 X.0175 Y.1364 Z1.0676
N5270 X-.0058 Y.1374 Z1.0608
N5280 X-.029 Y.1344 Z1.0541
N5290 X-.0513 Y.1276 Z1.0473
N5300 X-.0721 Y.1171 Z1.0405
N5310 X-.0908 Y.1032 Z1.0338
N5320 X-.107 Y.0864 Z1.027
N5330 X-.12 Y.0671 Z1.0203
N5340 X-.1296 Y.0458 Z1.0135
N5350 X-.1355 Y.0232 Z1.0068
N5360 X-.1375 Y0. Z1.
N5370 X-.1355 Y-.0232 Z.9932
N5380 X-.1296 Y-.0458 Z.9865
N5390 X-.12 Y-.0671 Z.9797
N5400 X-.107 Y-.0864 Z.973
N5410 X-.0908 Y-.1032 Z.9662
N5420 X-.0721 Y-.1171 Z.9595
N5430 X-.0513 Y-.1276 Z.9527
N5440 X-.029 Y-.1344 Z.9459
N5450 X-.0058 Y-.1374 Z.9392
N5460 X.0175 Y-.1364 Z.9324
N5470 X.0403 Y-.1315 Z.9257
N5480 X.0619 Y-.1228 Z.9189
N5490 X.0818 Y-.1105 Z.9122
N5500 X.0993 Y-.0951 Z.9054
N5510 X.1139 Y-.077 Z.8986
N5520 X.1253 Y-.0566 Z.8919
N5530 X.1331 Y-.0346 Z.8851
N5540 X.137 Y-.0117 Z.8784
N5550 Y.0117 Z.8716
N5560 X.1331 Y.0346 Z.8649
N5570 X.1253 Y.0566 Z.8581
N5580 X.1139 Y.077 Z.8514
N5590 X.0993 Y.0951 Z.8446
N5600 X.0818 Y.1105 Z.8378
N5610 X.0619 Y.1228 Z.8311
N5620 X.0403 Y.1315 Z.8243
N5630 X.0175 Y.1364 Z.8176
N5640 X-.0058 Y.1374 Z.8108
N5650 X-.029 Y.1344 Z.8041
N5660 X-.0513 Y.1276 Z.7973
N5670 X-.0721 Y.1171 Z.7905
N5680 X-.0908 Y.1032 Z.7838
N5690 X-.107 Y.0864 Z.777
N5700 X-.12 Y.0671 Z.7703
N5710 X-.1296 Y.0458 Z.7635
N5720 X-.1355 Y.0232 Z.7568
N5730 X-.1375 Y0. Z.75
N5740 X-.1355 Y-.0232 Z.7432
N5750 X-.1296 Y-.0458 Z.7365
N5760 X-.12 Y-.0671 Z.7297
N5770 X-.107 Y-.0864 Z.723
N5780 X-.0908 Y-.1032 Z.7162
N5790 X-.0721 Y-.1171 Z.7095
N5800 X-.0513 Y-.1276 Z.7027
N5810 X-.029 Y-.1344 Z.6959
N5820 X-.0058 Y-.1374 Z.6892
N5830 X.0175 Y-.1364 Z.6824
N5840 X.0403 Y-.1315 Z.6757
N5850 X.0619 Y-.1228 Z.6689
N5860 X.0818 Y-.1105 Z.6622
N5870 X.0993 Y-.0951 Z.6554
N5880 X.1139 Y-.077 Z.6486
N5890 X.1253 Y-.0566 Z.6419
N5900 X.1331 Y-.0346 Z.6351
N5910 X.137 Y-.0117 Z.6284
N5920 Y.0117 Z.6216
N5930 X.1331 Y.0346 Z.6149
N5940 X.1253 Y.0566 Z.6081
N5950 X.1139 Y.077 Z.6014
N5960 X.0993 Y.0951 Z.5946
N5970 X.0818 Y.1105 Z.5878
N5980 X.0619 Y.1228 Z.5811
N5990 X.0403 Y.1315 Z.5743
N6000 X.0175 Y.1364 Z.5676
N6010 X-.0058 Y.1374 Z.5608
N6020 X-.029 Y.1344 Z.5541
N6030 X-.0513 Y.1276 Z.5473
N6040 X-.0721 Y.1171 Z.5405
N6050 X-.0908 Y.1032 Z.5338
N6060 X-.107 Y.0864 Z.527
N6070 X-.12 Y.0671 Z.5203
N6080 X-.1296 Y.0458 Z.5135
N6090 X-.1355 Y.0232 Z.5068
N6100 X-.1375 Y0. Z.5
N6110 X-.1355 Y-.0232 Z.4932
N6120 X-.1296 Y-.0458 Z.4865
N6130 X-.12 Y-.0671 Z.4797
N6140 X-.107 Y-.0864 Z.473
N6150 X-.0908 Y-.1032 Z.4662
N6160 X-.0721 Y-.1171 Z.4595
N6170 X-.0513 Y-.1276 Z.4527
N6180 X-.029 Y-.1344 Z.4459
N6190 X-.0058 Y-.1374 Z.4392
N6200 X.0175 Y-.1364 Z.4324
N6210 X.0403 Y-.1315 Z.4257
N6220 X.0619 Y-.1228 Z.4189
N6230 X.0818 Y-.1105 Z.4122
N6240 X.0993 Y-.0951 Z.4054
N6250 X.1139 Y-.077 Z.3986
N6260 X.1253 Y-.0566 Z.3919
N6270 X.1331 Y-.0346 Z.3851
N6280 X.137 Y-.0117 Z.3784
N6290 Y.0117 Z.3716
N6300 X.1331 Y.0346 Z.3649
N6310 X.1253 Y.0566 Z.3581
N6320 X.1139 Y.077 Z.3514
N6330 X.0993 Y.0951 Z.3446
N6340 X.0818 Y.1105 Z.3378
N6350 X.0619 Y.1228 Z.3311
N6360 X.0403 Y.1315 Z.3243
N6370 X.0175 Y.1364 Z.3176
N6380 X-.0058 Y.1374 Z.3108
N6390 X-.029 Y.1344 Z.3041
N6400 X-.0513 Y.1276 Z.2973
N6410 X-.0721 Y.1171 Z.2905
N6420 X-.0908 Y.1032 Z.2838
N6430 X-.107 Y.0864 Z.277
N6440 X-.12 Y.0671 Z.2703
N6450 X-.1296 Y.0458 Z.2635
N6460 X-.1355 Y.0232 Z.2568
N6470 X-.1375 Y0. Z.25
N6480 X-.1355 Y-.0232 Z.2432
N6490 X-.1296 Y-.0458 Z.2365
N6500 X-.12 Y-.0671 Z.2297
N6510 X-.107 Y-.0864 Z.223
N6520 X-.0908 Y-.1032 Z.2162
N6530 X-.0721 Y-.1171 Z.2095
N6540 X-.0513 Y-.1276 Z.2027
N6550 X-.029 Y-.1344 Z.1959
N6560 X-.0058 Y-.1374 Z.1892
N6570 X.0175 Y-.1364 Z.1824
N6580 X.0403 Y-.1315 Z.1757
N6590 X.0619 Y-.1228 Z.1689
N6600 X.0818 Y-.1105 Z.1622
N6610 X.0993 Y-.0951 Z.1554
N6620 X.1139 Y-.077 Z.1486
N6630 X.1253 Y-.0566 Z.1419
N6640 X.1331 Y-.0346 Z.1351
N6650 X.137 Y-.0117 Z.1284
N6660 Y.0117 Z.1216
N6670 X.1331 Y.0346 Z.1149
N6680 X.1253 Y.0566 Z.1081
N6690 X.1139 Y.077 Z.1014
N6700 X.0993 Y.0951 Z.0946
N6710 X.0818 Y.1105 Z.0878
N6720 X.0619 Y.1228 Z.0811
N6730 X.0403 Y.1315 Z.0743
N6740 X.0175 Y.1364 Z.0676
N6750 X-.0058 Y.1374 Z.0608
N6760 X-.029 Y.1344 Z.0541
N6770 X-.0513 Y.1276 Z.0473
N6780 X-.0721 Y.1171 Z.0405
N6790 X-.0908 Y.1032 Z.0338
N6800 X-.107 Y.0864 Z.027
N6810 X-.12 Y.0671 Z.0203
N6820 X-.1296 Y.0458 Z.0135
N6830 X-.1355 Y.0232 Z.0068
N6840 X-.1375 Y0. Z0.
; N6850 G3 X0. Y-.1375 I.1375 J0.
; N6860 X.1375 Y0. I0. J.1375
; N6870 X0. Y.1375 I-.1375 J0.
; N6880 X-.1375 Y0. I0. J-.1375
N6890 G1 X.0625
N6900 Z.2
N6910 G0 Z.25
N6920 Z1.7
N6930 X-.1475
N6940 G1 Z1.5 ;F6.42
N6950 X-.1456 Y-.0237 Z1.4936
N6960 X-.1399 Y-.0467 Z1.4872
N6970 X-.1306 Y-.0685 Z1.4808
N6980 X-.1179 Y-.0886 Z1.4744
N6990 X-.1022 Y-.1064 Z1.4679
N7000 X-.0838 Y-.1214 Z1.4615
N7010 X-.0632 Y-.1333 Z1.4551
N7020 X-.041 Y-.1417 Z1.4487
N7030 X-.0178 Y-.1464 Z1.4423
N7040 X.0059 Y-.1474 Z1.4359
N7050 X.0295 Y-.1445 Z1.4295
N7060 X.0523 Y-.1379 Z1.4231
N7070 X.0737 Y-.1277 Z1.4167
N7080 X.0933 Y-.1143 Z1.4103
N7090 X.1104 Y-.0978 Z1.4038
N7100 X.1247 Y-.0788 Z1.3974
N7110 X.1357 Y-.0578 Z1.391
N7120 X.1432 Y-.0353 Z1.3846
N7130 X.147 Y-.0119 Z1.3782
N7140 Y.0119 Z1.3718
N7150 X.1432 Y.0353 Z1.3654
N7160 X.1357 Y.0578 Z1.359
N7170 X.1247 Y.0788 Z1.3526
N7180 X.1104 Y.0978 Z1.3462
N7190 X.0933 Y.1143 Z1.3397
N7200 X.0737 Y.1277 Z1.3333
N7210 X.0523 Y.1379 Z1.3269
N7220 X.0295 Y.1445 Z1.3205
N7230 X.0059 Y.1474 Z1.3141
N7240 X-.0178 Y.1464 Z1.3077
N7250 X-.041 Y.1417 Z1.3013
N7260 X-.0632 Y.1333 Z1.2949
N7270 X-.0838 Y.1214 Z1.2885
N7280 X-.1022 Y.1064 Z1.2821
N7290 X-.1179 Y.0886 Z1.2756
N7300 X-.1306 Y.0685 Z1.2692
N7310 X-.1399 Y.0467 Z1.2628
N7320 X-.1456 Y.0237 Z1.2564
N7330 X-.1475 Y0. Z1.25
N7340 X-.1456 Y-.0237 Z1.2436
N7350 X-.1399 Y-.0467 Z1.2372
N7360 X-.1306 Y-.0685 Z1.2308
N7370 X-.1179 Y-.0886 Z1.2244
N7380 X-.1022 Y-.1064 Z1.2179
N7390 X-.0838 Y-.1214 Z1.2115
N7400 X-.0632 Y-.1333 Z1.2051
N7410 X-.041 Y-.1417 Z1.1987
N7420 X-.0178 Y-.1464 Z1.1923
N7430 X.0059 Y-.1474 Z1.1859
N7440 X.0295 Y-.1445 Z1.1795
N7450 X.0523 Y-.1379 Z1.1731
N7460 X.0737 Y-.1277 Z1.1667
N7470 X.0933 Y-.1143 Z1.1603
N7480 X.1104 Y-.0978 Z1.1538
N7490 X.1247 Y-.0788 Z1.1474
N7500 X.1357 Y-.0578 Z1.141
N7510 X.1432 Y-.0353 Z1.1346
N7520 X.147 Y-.0119 Z1.1282
N7530 Y.0119 Z1.1218
N7540 X.1432 Y.0353 Z1.1154
N7550 X.1357 Y.0578 Z1.109
N7560 X.1247 Y.0788 Z1.1026
N7570 X.1104 Y.0978 Z1.0962
N7580 X.0933 Y.1143 Z1.0897
N7590 X.0737 Y.1277 Z1.0833
N7600 X.0523 Y.1379 Z1.0769
N7610 X.0295 Y.1445 Z1.0705
N7620 X.0059 Y.1474 Z1.0641
N7630 X-.0178 Y.1464 Z1.0577
N7640 X-.041 Y.1417 Z1.0513
N7650 X-.0632 Y.1333 Z1.0449
N7660 X-.0838 Y.1214 Z1.0385
N7670 X-.1022 Y.1064 Z1.0321
N7680 X-.1179 Y.0886 Z1.0256
N7690 X-.1306 Y.0685 Z1.0192
N7700 X-.1399 Y.0467 Z1.0128
N7710 X-.1456 Y.0237 Z1.0064
N7720 X-.1475 Y0. Z1.
N7730 X-.1456 Y-.0237 Z.9936
N7740 X-.1399 Y-.0467 Z.9872
N7750 X-.1306 Y-.0685 Z.9808
N7760 X-.1179 Y-.0886 Z.9744
N7770 X-.1022 Y-.1064 Z.9679
N7780 X-.0838 Y-.1214 Z.9615
N7790 X-.0632 Y-.1333 Z.9551
N7800 X-.041 Y-.1417 Z.9487
N7810 X-.0178 Y-.1464 Z.9423
N7820 X.0059 Y-.1474 Z.9359
N7830 X.0295 Y-.1445 Z.9295
N7840 X.0523 Y-.1379 Z.9231
N7850 X.0737 Y-.1277 Z.9167
N7860 X.0933 Y-.1143 Z.9103
N7870 X.1104 Y-.0978 Z.9038
N7880 X.1247 Y-.0788 Z.8974
N7890 X.1357 Y-.0578 Z.891
N7900 X.1432 Y-.0353 Z.8846
N7910 X.147 Y-.0119 Z.8782
N7920 Y.0119 Z.8718
N7930 X.1432 Y.0353 Z.8654
N7940 X.1357 Y.0578 Z.859
N7950 X.1247 Y.0788 Z.8526
N7960 X.1104 Y.0978 Z.8462
N7970 X.0933 Y.1143 Z.8397
N7980 X.0737 Y.1277 Z.8333
N7990 X.0523 Y.1379 Z.8269
N8000 X.0295 Y.1445 Z.8205
N8010 X.0059 Y.1474 Z.8141
N8020 X-.0178 Y.1464 Z.8077
N8030 X-.041 Y.1417 Z.8013
N8040 X-.0632 Y.1333 Z.7949
N8050 X-.0838 Y.1214 Z.7885
N8060 X-.1022 Y.1064 Z.7821
N8070 X-.1179 Y.0886 Z.7756
N8080 X-.1306 Y.0685 Z.7692
N8090 X-.1399 Y.0467 Z.7628
N8100 X-.1456 Y.0237 Z.7564
N8110 X-.1475 Y0. Z.75
N8120 X-.1456 Y-.0237 Z.7436
N8130 X-.1399 Y-.0467 Z.7372
N8140 X-.1306 Y-.0685 Z.7308
N8150 X-.1179 Y-.0886 Z.7244
N8160 X-.1022 Y-.1064 Z.7179
N8170 X-.0838 Y-.1214 Z.7115
N8180 X-.0632 Y-.1333 Z.7051
N8190 X-.041 Y-.1417 Z.6987
N8200 X-.0178 Y-.1464 Z.6923
N8210 X.0059 Y-.1474 Z.6859
N8220 X.0295 Y-.1445 Z.6795
N8230 X.0523 Y-.1379 Z.6731
N8240 X.0737 Y-.1277 Z.6667
N8250 X.0933 Y-.1143 Z.6603
N8260 X.1104 Y-.0978 Z.6538
N8270 X.1247 Y-.0788 Z.6474
N8280 X.1357 Y-.0578 Z.641
N8290 X.1432 Y-.0353 Z.6346
N8300 X.147 Y-.0119 Z.6282
N8310 Y.0119 Z.6218
N8320 X.1432 Y.0353 Z.6154
N8330 X.1357 Y.0578 Z.609
N8340 X.1247 Y.0788 Z.6026
N8350 X.1104 Y.0978 Z.5962
N8360 X.0933 Y.1143 Z.5897
N8370 X.0737 Y.1277 Z.5833
N8380 X.0523 Y.1379 Z.5769
N8390 X.0295 Y.1445 Z.5705
N8400 X.0059 Y.1474 Z.5641
N8410 X-.0178 Y.1464 Z.5577
N8420 X-.041 Y.1417 Z.5513
N8430 X-.0632 Y.1333 Z.5449
N8440 X-.0838 Y.1214 Z.5385
N8450 X-.1022 Y.1064 Z.5321
N8460 X-.1179 Y.0886 Z.5256
N8470 X-.1306 Y.0685 Z.5192
N8480 X-.1399 Y.0467 Z.5128
N8490 X-.1456 Y.0237 Z.5064
N8500 X-.1475 Y0. Z.5
N8510 X-.1456 Y-.0237 Z.4936
N8520 X-.1399 Y-.0467 Z.4872
N8530 X-.1306 Y-.0685 Z.4808
N8540 X-.1179 Y-.0886 Z.4744
N8550 X-.1022 Y-.1064 Z.4679
N8560 X-.0838 Y-.1214 Z.4615
N8570 X-.0632 Y-.1333 Z.4551
N8580 X-.041 Y-.1417 Z.4487
N8590 X-.0178 Y-.1464 Z.4423
N8600 X.0059 Y-.1474 Z.4359
N8610 X.0295 Y-.1445 Z.4295
N8620 X.0523 Y-.1379 Z.4231
N8630 X.0737 Y-.1277 Z.4167
N8640 X.0933 Y-.1143 Z.4103
N8650 X.1104 Y-.0978 Z.4038
N8660 X.1247 Y-.0788 Z.3974
N8670 X.1357 Y-.0578 Z.391
N8680 X.1432 Y-.0353 Z.3846
N8690 X.147 Y-.0119 Z.3782
N8700 Y.0119 Z.3718
N8710 X.1432 Y.0353 Z.3654
N8720 X.1357 Y.0578 Z.359
N8730 X.1247 Y.0788 Z.3526
N8740 X.1104 Y.0978 Z.3462
N8750 X.0933 Y.1143 Z.3397
N8760 X.0737 Y.1277 Z.3333
N8770 X.0523 Y.1379 Z.3269
N8780 X.0295 Y.1445 Z.3205
N8790 X.0059 Y.1474 Z.3141
N8800 X-.0178 Y.1464 Z.3077
N8810 X-.041 Y.1417 Z.3013
N8820 X-.0632 Y.1333 Z.2949
N8830 X-.0838 Y.1214 Z.2885
N8840 X-.1022 Y.1064 Z.2821
N8850 X-.1179 Y.0886 Z.2756
N8860 X-.1306 Y.0685 Z.2692
N8870 X-.1399 Y.0467 Z.2628
N8880 X-.1456 Y.0237 Z.2564
N8890 X-.1475 Y0. Z.25
N8900 X-.1456 Y-.0237 Z.2436
N8910 X-.1399 Y-.0467 Z.2372
N8920 X-.1306 Y-.0685 Z.2308
N8930 X-.1179 Y-.0886 Z.2244
N8940 X-.1022 Y-.1064 Z.2179
N8950 X-.0838 Y-.1214 Z.2115
N8960 X-.0632 Y-.1333 Z.2051
N8970 X-.041 Y-.1417 Z.1987
N8980 X-.0178 Y-.1464 Z.1923
N8990 X.0059 Y-.1474 Z.1859
N9000 X.0295 Y-.1445 Z.1795
N9010 X.0523 Y-.1379 Z.1731
N9020 X.0737 Y-.1277 Z.1667
N9030 X.0933 Y-.1143 Z.1603
N9040 X.1104 Y-.0978 Z.1538
N9050 X.1247 Y-.0788 Z.1474
N9060 X.1357 Y-.0578 Z.141
N9070 X.1432 Y-.0353 Z.1346
N9080 X.147 Y-.0119 Z.1282
N9090 Y.0119 Z.1218
N9100 X.1432 Y.0353 Z.1154
N9110 X.1357 Y.0578 Z.109
N9120 X.1247 Y.0788 Z.1026
N9130 X.1104 Y.0978 Z.0962
N9140 X.0933 Y.1143 Z.0897
N9150 X.0737 Y.1277 Z.0833
N9160 X.0523 Y.1379 Z.0769
N9170 X.0295 Y.1445 Z.0705
N9180 X.0059 Y.1474 Z.0641
N9190 X-.0178 Y.1464 Z.0577
N9200 X-.041 Y.1417 Z.0513
N9210 X-.0632 Y.1333 Z.0449
N9220 X-.0838 Y.1214 Z.0385
N9230 X-.1022 Y.1064 Z.0321
N9240 X-.1179 Y.0886 Z.0256
N9250 X-.1306 Y.0685 Z.0192
N9260 X-.1399 Y.0467 Z.0128
N9270 X-.1456 Y.0237 Z.0064
N9280 X-.1475 Y0. Z0.
; N9290 G3 X0. Y-.1475 I.1475 J0.
; N9300 X.1475 Y0. I0. J.1475
; N9310 X0. Y.1475 I-.1475 J0.
; N9320 X-.1475 Y0. I0. J-.1475
N9330 G1 X.0525
N9340 Z.2
N9350 G0 Z.25
N9360 Z1.7
N9370 X-.1575
N9380 G1 Z1.5 ;F6.42
N9390 X-.1556 Y-.0246 Z1.4937
N9400 X-.1498 Y-.0487 Z1.4875
N9410 X-.1403 Y-.0715 Z1.4812
N9420 X-.1274 Y-.0926 Z1.475
N9430 X-.1114 Y-.1114 Z1.4688
N9440 X-.0926 Y-.1274 Z1.4625
N9450 X-.0715 Y-.1403 Z1.4563
N9460 X-.0487 Y-.1498 Z1.45
N9470 X-.0246 Y-.1556 Z1.4438
N9480 X0. Y-.1575 Z1.4375
N9490 X.0246 Y-.1556 Z1.4312
N9500 X.0487 Y-.1498 Z1.425
N9510 X.0715 Y-.1403 Z1.4187
N9520 X.0926 Y-.1274 Z1.4125
N9530 X.1114 Y-.1114 Z1.4063
N9540 X.1274 Y-.0926 Z1.4
N9550 X.1403 Y-.0715 Z1.3938
N9560 X.1498 Y-.0487 Z1.3875
N9570 X.1556 Y-.0246 Z1.3813
N9580 X.1575 Y0. Z1.375
N9590 X.1556 Y.0246 Z1.3687
N9600 X.1498 Y.0487 Z1.3625
N9610 X.1403 Y.0715 Z1.3562
N9620 X.1274 Y.0926 Z1.35
N9630 X.1114 Y.1114 Z1.3438
N9640 X.0926 Y.1274 Z1.3375
N9650 X.0715 Y.1403 Z1.3313
N9660 X.0487 Y.1498 Z1.325
N9670 X.0246 Y.1556 Z1.3188
N9680 X0. Y.1575 Z1.3125
N9690 X-.0246 Y.1556 Z1.3062
N9700 X-.0487 Y.1498 Z1.3
N9710 X-.0715 Y.1403 Z1.2937
N9720 X-.0926 Y.1274 Z1.2875
N9730 X-.1114 Y.1114 Z1.2813
N9740 X-.1274 Y.0926 Z1.275
N9750 X-.1403 Y.0715 Z1.2688
N9760 X-.1498 Y.0487 Z1.2625
N9770 X-.1556 Y.0246 Z1.2563
N9780 X-.1575 Y0. Z1.25
N9790 X-.1556 Y-.0246 Z1.2437
N9800 X-.1498 Y-.0487 Z1.2375
N9810 X-.1403 Y-.0715 Z1.2312
N9820 X-.1274 Y-.0926 Z1.225
N9830 X-.1114 Y-.1114 Z1.2188
N9840 X-.0926 Y-.1274 Z1.2125
N9850 X-.0715 Y-.1403 Z1.2063
N9860 X-.0487 Y-.1498 Z1.2
N9870 X-.0246 Y-.1556 Z1.1938
N9880 X0. Y-.1575 Z1.1875
N9890 X.0246 Y-.1556 Z1.1812
N9900 X.0487 Y-.1498 Z1.175
N9910 X.0715 Y-.1403 Z1.1687
N9920 X.0926 Y-.1274 Z1.1625
N9930 X.1114 Y-.1114 Z1.1563
N9940 X.1274 Y-.0926 Z1.15
N9950 X.1403 Y-.0715 Z1.1438
N9960 X.1498 Y-.0487 Z1.1375
N9970 X.1556 Y-.0246 Z1.1313
N9980 X.1575 Y0. Z1.125
N9990 X.1556 Y.0246 Z1.1187
N100 X.1498 Y.0487 Z1.1125
N110 X.1403 Y.0715 Z1.1062
N120 X.1274 Y.0926 Z1.1
N130 X.1114 Y.1114 Z1.0938
N140 X.0926 Y.1274 Z1.0875
N150 X.0715 Y.1403 Z1.0813
N160 X.0487 Y.1498 Z1.075
N170 X.0246 Y.1556 Z1.0688
N180 X0. Y.1575 Z1.0625
N190 X-.0246 Y.1556 Z1.0562
N200 X-.0487 Y.1498 Z1.05
N210 X-.0715 Y.1403 Z1.0437
N220 X-.0926 Y.1274 Z1.0375
N230 X-.1114 Y.1114 Z1.0313
N240 X-.1274 Y.0926 Z1.025
N250 X-.1403 Y.0715 Z1.0188
N260 X-.1498 Y.0487 Z1.0125
N270 X-.1556 Y.0246 Z1.0063
N280 X-.1575 Y0. Z1.
N290 X-.1556 Y-.0246 Z.9938
N300 X-.1498 Y-.0487 Z.9875
N310 X-.1403 Y-.0715 Z.9812
N320 X-.1274 Y-.0926 Z.975
N330 X-.1114 Y-.1114 Z.9688
N340 X-.0926 Y-.1274 Z.9625
N350 X-.0715 Y-.1403 Z.9563
N360 X-.0487 Y-.1498 Z.95
N370 X-.0246 Y-.1556 Z.9437
N380 X0. Y-.1575 Z.9375
N390 X.0246 Y-.1556 Z.9313
N400 X.0487 Y-.1498 Z.925
N410 X.0715 Y-.1403 Z.9187
N420 X.0926 Y-.1274 Z.9125
N430 X.1114 Y-.1114 Z.9063
N440 X.1274 Y-.0926 Z.9
N450 X.1403 Y-.0715 Z.8938
N460 X.1498 Y-.0487 Z.8875
N470 X.1556 Y-.0246 Z.8812
N480 X.1575 Y0. Z.875
N490 X.1556 Y.0246 Z.8688
N500 X.1498 Y.0487 Z.8625
N510 X.1403 Y.0715 Z.8562
N520 X.1274 Y.0926 Z.85
N530 X.1114 Y.1114 Z.8438
N540 X.0926 Y.1274 Z.8375
N550 X.0715 Y.1403 Z.8313
N560 X.0487 Y.1498 Z.825
N570 X.0246 Y.1556 Z.8187
N580 X0. Y.1575 Z.8125
N590 X-.0246 Y.1556 Z.8063
N600 X-.0487 Y.1498 Z.8
N610 X-.0715 Y.1403 Z.7937
N620 X-.0926 Y.1274 Z.7875
N630 X-.1114 Y.1114 Z.7813
N640 X-.1274 Y.0926 Z.775
N650 X-.1403 Y.0715 Z.7688
N660 X-.1498 Y.0487 Z.7625
N670 X-.1556 Y.0246 Z.7562
N680 X-.1575 Y0. Z.75
N690 X-.1556 Y-.0246 Z.7438
N700 X-.1498 Y-.0487 Z.7375
N710 X-.1403 Y-.0715 Z.7312
N720 X-.1274 Y-.0926 Z.725
N730 X-.1114 Y-.1114 Z.7188
N740 X-.0926 Y-.1274 Z.7125
N750 X-.0715 Y-.1403 Z.7063
N760 X-.0487 Y-.1498 Z.7
N770 X-.0246 Y-.1556 Z.6937
N780 X0. Y-.1575 Z.6875
N790 X.0246 Y-.1556 Z.6813
N800 X.0487 Y-.1498 Z.675
N810 X.0715 Y-.1403 Z.6687
N820 X.0926 Y-.1274 Z.6625
N830 X.1114 Y-.1114 Z.6563
N840 X.1274 Y-.0926 Z.65
N850 X.1403 Y-.0715 Z.6438
N860 X.1498 Y-.0487 Z.6375
N870 X.1556 Y-.0246 Z.6312
N880 X.1575 Y0. Z.625
N890 X.1556 Y.0246 Z.6188
N900 X.1498 Y.0487 Z.6125
N910 X.1403 Y.0715 Z.6062
N920 X.1274 Y.0926 Z.6
N930 X.1114 Y.1114 Z.5938
N940 X.0926 Y.1274 Z.5875
N950 X.0715 Y.1403 Z.5813
N960 X.0487 Y.1498 Z.575
N970 X.0246 Y.1556 Z.5687
N980 X0. Y.1575 Z.5625
N990 X-.0246 Y.1556 Z.5563
N1000 X-.0487 Y.1498 Z.55
N1010 X-.0715 Y.1403 Z.5437
N1020 X-.0926 Y.1274 Z.5375
N1030 X-.1114 Y.1114 Z.5313
N1040 X-.1274 Y.0926 Z.525
N1050 X-.1403 Y.0715 Z.5188
N1060 X-.1498 Y.0487 Z.5125
N1070 X-.1556 Y.0246 Z.5062
N1080 X-.1575 Y0. Z.5
N1090 X-.1556 Y-.0246 Z.4938
N1100 X-.1498 Y-.0487 Z.4875
N1110 X-.1403 Y-.0715 Z.4813
N1120 X-.1274 Y-.0926 Z.475
N1130 X-.1114 Y-.1114 Z.4688
N1140 X-.0926 Y-.1274 Z.4625
N1150 X-.0715 Y-.1403 Z.4562
N1160 X-.0487 Y-.1498 Z.45
N1170 X-.0246 Y-.1556 Z.4437
N1180 X0. Y-.1575 Z.4375
N1190 X.0246 Y-.1556 Z.4313
N1200 X.0487 Y-.1498 Z.425
N1210 X.0715 Y-.1403 Z.4188
N1220 X.0926 Y-.1274 Z.4125
N1230 X.1114 Y-.1114 Z.4063
N1240 X.1274 Y-.0926 Z.4
N1250 X.1403 Y-.0715 Z.3937
N1260 X.1498 Y-.0487 Z.3875
N1270 X.1556 Y-.0246 Z.3812
N1280 X.1575 Y0. Z.375
N1290 X.1556 Y.0246 Z.3688
N1300 X.1498 Y.0487 Z.3625
N1310 X.1403 Y.0715 Z.3563
N1320 X.1274 Y.0926 Z.35
N1330 X.1114 Y.1114 Z.3438
N1340 X.0926 Y.1274 Z.3375
N1350 X.0715 Y.1403 Z.3312
N1360 X.0487 Y.1498 Z.325
N1370 X.0246 Y.1556 Z.3187
N1380 X0. Y.1575 Z.3125
N1390 X-.0246 Y.1556 Z.3063
N1400 X-.0487 Y.1498 Z.3
N1410 X-.0715 Y.1403 Z.2938
N1420 X-.0926 Y.1274 Z.2875
N1430 X-.1114 Y.1114 Z.2813
N1440 X-.1274 Y.0926 Z.275
N1450 X-.1403 Y.0715 Z.2687
N1460 X-.1498 Y.0487 Z.2625
N1470 X-.1556 Y.0246 Z.2562
N1480 X-.1575 Y0. Z.25
N1490 X-.1556 Y-.0246 Z.2437
N1500 X-.1498 Y-.0487 Z.2375
N1510 X-.1403 Y-.0715 Z.2313
N1520 X-.1274 Y-.0926 Z.225
N1530 X-.1114 Y-.1114 Z.2188
N1540 X-.0926 Y-.1274 Z.2125
N1550 X-.0715 Y-.1403 Z.2062
N1560 X-.0487 Y-.1498 Z.2
N1570 X-.0246 Y-.1556 Z.1938
N1580 X0. Y-.1575 Z.1875
N1590 X.0246 Y-.1556 Z.1812
N1600 X.0487 Y-.1498 Z.175
N1610 X.0715 Y-.1403 Z.1688
N1620 X.0926 Y-.1274 Z.1625
N1630 X.1114 Y-.1114 Z.1563
N1640 X.1274 Y-.0926 Z.15
N1650 X.1403 Y-.0715 Z.1437
N1660 X.1498 Y-.0487 Z.1375
N1670 X.1556 Y-.0246 Z.1313
N1680 X.1575 Y0. Z.125
N1690 X.1556 Y.0246 Z.1187
N1700 X.1498 Y.0487 Z.1125
N1710 X.1403 Y.0715 Z.1062
N1720 X.1274 Y.0926 Z.1
N1730 X.1114 Y.1114 Z.0938
N1740 X.0926 Y.1274 Z.0875
N1750 X.0715 Y.1403 Z.0813
N1760 X.0487 Y.1498 Z.075
N1770 X.0246 Y.1556 Z.0688
N1780 X0. Y.1575 Z.0625
N1790 X-.0246 Y.1556 Z.0563
N1800 X-.0487 Y.1498 Z.05
N1810 X-.0715 Y.1403 Z.0437
N1820 X-.0926 Y.1274 Z.0375
N1830 X-.1114 Y.1114 Z.0313
N1840 X-.1274 Y.0926 Z.025
N1850 X-.1403 Y.0715 Z.0187
N1860 X-.1498 Y.0487 Z.0125
N1870 X-.1556 Y.0246 Z.0063
N1880 X-.1575 Y0. Z0.
; N1890 G3 X0. Y-.1575 I.1575 J0.
; N1900 X.1575 Y0. I0. J.1575
; N1910 X0. Y.1575 I-.1575 J0.
; N1920 X-.1575 Y0. I0. J-.1575
N1930 G1 X.0425
N1940 Z.2
N1950 G0 Z.25
N1960 Z1.7
N1970 X-.1675
N1980 G1 Z1.5 ;F6.42
N1990 X-.1655 Y-.0256 Z1.4939
N2000 X-.1597 Y-.0505 Z1.4878
N2010 X-.1501 Y-.0743 Z1.4817
N2020 X-.137 Y-.0964 Z1.4756
N2030 X-.1207 Y-.1161 Z1.4695
N2040 X-.1015 Y-.1332 Z1.4634
N2050 X-.08 Y-.1472 Z1.4573
N2060 X-.0566 Y-.1576 Z1.4512
N2070 X-.0319 Y-.1644 Z1.4451
N2080 X-.0064 Y-.1674 Z1.439
N2090 X.0192 Y-.1664 Z1.4329
N2100 X.0444 Y-.1615 Z1.4268
N2110 X.0685 Y-.1528 Z1.4207
N2120 X.091 Y-.1406 Z1.4146
N2130 X.1114 Y-.125 Z1.4085
N2140 X.1292 Y-.1066 Z1.4024
N2150 X.144 Y-.0856 Z1.3963
N2160 X.1554 Y-.0626 Z1.3902
N2170 X.1631 Y-.0382 Z1.3841
N2180 X.167 Y-.0128 Z1.378
N2190 Y.0128 Z1.372
N2200 X.1631 Y.0382 Z1.3659
N2210 X.1554 Y.0626 Z1.3598
N2220 X.144 Y.0856 Z1.3537
N2230 X.1292 Y.1066 Z1.3476
N2240 X.1114 Y.125 Z1.3415
N2250 X.091 Y.1406 Z1.3354
N2260 X.0685 Y.1528 Z1.3293
N2270 X.0444 Y.1615 Z1.3232
N2280 X.0192 Y.1664 Z1.3171
N2290 X-.0064 Y.1674 Z1.311
N2300 X-.0319 Y.1644 Z1.3049
N2310 X-.0566 Y.1576 Z1.2988
N2320 X-.08 Y.1472 Z1.2927
N2330 X-.1015 Y.1332 Z1.2866
N2340 X-.1207 Y.1161 Z1.2805
N2350 X-.137 Y.0964 Z1.2744
N2360 X-.1501 Y.0743 Z1.2683
N2370 X-.1597 Y.0505 Z1.2622
N2380 X-.1655 Y.0256 Z1.2561
N2390 X-.1675 Y0. Z1.25
N2400 X-.1655 Y-.0256 Z1.2439
N2410 X-.1597 Y-.0505 Z1.2378
N2420 X-.1501 Y-.0743 Z1.2317
N2430 X-.137 Y-.0964 Z1.2256
N2440 X-.1207 Y-.1161 Z1.2195
N2450 X-.1015 Y-.1332 Z1.2134
N2460 X-.08 Y-.1472 Z1.2073
N2470 X-.0566 Y-.1576 Z1.2012
N2480 X-.0319 Y-.1644 Z1.1951
N2490 X-.0064 Y-.1674 Z1.189
N2500 X.0192 Y-.1664 Z1.1829
N2510 X.0444 Y-.1615 Z1.1768
N2520 X.0685 Y-.1528 Z1.1707
N2530 X.091 Y-.1406 Z1.1646
N2540 X.1114 Y-.125 Z1.1585
N2550 X.1292 Y-.1066 Z1.1524
N2560 X.144 Y-.0856 Z1.1463
N2570 X.1554 Y-.0626 Z1.1402
N2580 X.1631 Y-.0382 Z1.1341
N2590 X.167 Y-.0128 Z1.128
N2600 Y.0128 Z1.122
N2610 X.1631 Y.0382 Z1.1159
N2620 X.1554 Y.0626 Z1.1098
N2630 X.144 Y.0856 Z1.1037
N2640 X.1292 Y.1066 Z1.0976
N2650 X.1114 Y.125 Z1.0915
N2660 X.091 Y.1406 Z1.0854
N2670 X.0685 Y.1528 Z1.0793
N2680 X.0444 Y.1615 Z1.0732
N2690 X.0192 Y.1664 Z1.0671
N2700 X-.0064 Y.1674 Z1.061
N2710 X-.0319 Y.1644 Z1.0549
N2720 X-.0566 Y.1576 Z1.0488
N2730 X-.08 Y.1472 Z1.0427
N2740 X-.1015 Y.1332 Z1.0366
N2750 X-.1207 Y.1161 Z1.0305
N2760 X-.137 Y.0964 Z1.0244
N2770 X-.1501 Y.0743 Z1.0183
N2780 X-.1597 Y.0505 Z1.0122
N2790 X-.1655 Y.0256 Z1.0061
N2800 X-.1675 Y0. Z1.
N2810 X-.1655 Y-.0256 Z.9939
N2820 X-.1597 Y-.0505 Z.9878
N2830 X-.1501 Y-.0743 Z.9817
N2840 X-.137 Y-.0964 Z.9756
N2850 X-.1207 Y-.1161 Z.9695
N2860 X-.1015 Y-.1332 Z.9634
N2870 X-.08 Y-.1472 Z.9573
N2880 X-.0566 Y-.1576 Z.9512
N2890 X-.0319 Y-.1644 Z.9451
N2900 X-.0064 Y-.1674 Z.939
N2910 X.0192 Y-.1664 Z.9329
N2920 X.0444 Y-.1615 Z.9268
N2930 X.0685 Y-.1528 Z.9207
N2940 X.091 Y-.1406 Z.9146
N2950 X.1114 Y-.125 Z.9085
N2960 X.1292 Y-.1066 Z.9024
N2970 X.144 Y-.0856 Z.8963
N2980 X.1554 Y-.0626 Z.8902
N2990 X.1631 Y-.0382 Z.8841
N3000 X.167 Y-.0128 Z.878
N3010 Y.0128 Z.872
N3020 X.1631 Y.0382 Z.8659
N3030 X.1554 Y.0626 Z.8598
N3040 X.144 Y.0856 Z.8537
N3050 X.1292 Y.1066 Z.8476
N3060 X.1114 Y.125 Z.8415
N3070 X.091 Y.1406 Z.8354
N3080 X.0685 Y.1528 Z.8293
N3090 X.0444 Y.1615 Z.8232
N3100 X.0192 Y.1664 Z.8171
N3110 X-.0064 Y.1674 Z.811
N3120 X-.0319 Y.1644 Z.8049
N3130 X-.0566 Y.1576 Z.7988
N3140 X-.08 Y.1472 Z.7927
N3150 X-.1015 Y.1332 Z.7866
N3160 X-.1207 Y.1161 Z.7805
N3170 X-.137 Y.0964 Z.7744
N3180 X-.1501 Y.0743 Z.7683
N3190 X-.1597 Y.0505 Z.7622
N3200 X-.1655 Y.0256 Z.7561
N3210 X-.1675 Y0. Z.75
N3220 X-.1655 Y-.0256 Z.7439
N3230 X-.1597 Y-.0505 Z.7378
N3240 X-.1501 Y-.0743 Z.7317
N3250 X-.137 Y-.0964 Z.7256
N3260 X-.1207 Y-.1161 Z.7195
N3270 X-.1015 Y-.1332 Z.7134
N3280 X-.08 Y-.1472 Z.7073
N3290 X-.0566 Y-.1576 Z.7012
N3300 X-.0319 Y-.1644 Z.6951
N3310 X-.0064 Y-.1674 Z.689
N3320 X.0192 Y-.1664 Z.6829
N3330 X.0444 Y-.1615 Z.6768
N3340 X.0685 Y-.1528 Z.6707
N3350 X.091 Y-.1406 Z.6646
N3360 X.1114 Y-.125 Z.6585
N3370 X.1292 Y-.1066 Z.6524
N3380 X.144 Y-.0856 Z.6463
N3390 X.1554 Y-.0626 Z.6402
N3400 X.1631 Y-.0382 Z.6341
N3410 X.167 Y-.0128 Z.628
N3420 Y.0128 Z.622
N3430 X.1631 Y.0382 Z.6159
N3440 X.1554 Y.0626 Z.6098
N3450 X.144 Y.0856 Z.6037
N3460 X.1292 Y.1066 Z.5976
N3470 X.1114 Y.125 Z.5915
N3480 X.091 Y.1406 Z.5854
N3490 X.0685 Y.1528 Z.5793
N3500 X.0444 Y.1615 Z.5732
N3510 X.0192 Y.1664 Z.5671
N3520 X-.0064 Y.1674 Z.561
N3530 X-.0319 Y.1644 Z.5549
N3540 X-.0566 Y.1576 Z.5488
N3550 X-.08 Y.1472 Z.5427
N3560 X-.1015 Y.1332 Z.5366
N3570 X-.1207 Y.1161 Z.5305
N3580 X-.137 Y.0964 Z.5244
N3590 X-.1501 Y.0743 Z.5183
N3600 X-.1597 Y.0505 Z.5122
N3610 X-.1655 Y.0256 Z.5061
N3620 X-.1675 Y0. Z.5
N3630 X-.1655 Y-.0256 Z.4939
N3640 X-.1597 Y-.0505 Z.4878
N3650 X-.1501 Y-.0743 Z.4817
N3660 X-.137 Y-.0964 Z.4756
N3670 X-.1207 Y-.1161 Z.4695
N3680 X-.1015 Y-.1332 Z.4634
N3690 X-.08 Y-.1472 Z.4573
N3700 X-.0566 Y-.1576 Z.4512
N3710 X-.0319 Y-.1644 Z.4451
N3720 X-.0064 Y-.1674 Z.439
N3730 X.0192 Y-.1664 Z.4329
N3740 X.0444 Y-.1615 Z.4268
N3750 X.0685 Y-.1528 Z.4207
N3760 X.091 Y-.1406 Z.4146
N3770 X.1114 Y-.125 Z.4085
N3780 X.1292 Y-.1066 Z.4024
N3790 X.144 Y-.0856 Z.3963
N3800 X.1554 Y-.0626 Z.3902
N3810 X.1631 Y-.0382 Z.3841
N3820 X.167 Y-.0128 Z.378
N3830 Y.0128 Z.372
N3840 X.1631 Y.0382 Z.3659
N3850 X.1554 Y.0626 Z.3598
N3860 X.144 Y.0856 Z.3537
N3870 X.1292 Y.1066 Z.3476
N3880 X.1114 Y.125 Z.3415
N3890 X.091 Y.1406 Z.3354
N3900 X.0685 Y.1528 Z.3293
N3910 X.0444 Y.1615 Z.3232
N3920 X.0192 Y.1664 Z.3171
N3930 X-.0064 Y.1674 Z.311
N3940 X-.0319 Y.1644 Z.3049
N3950 X-.0566 Y.1576 Z.2988
N3960 X-.08 Y.1472 Z.2927
N3970 X-.1015 Y.1332 Z.2866
N3980 X-.1207 Y.1161 Z.2805
N3990 X-.137 Y.0964 Z.2744
N4000 X-.1501 Y.0743 Z.2683
N4010 X-.1597 Y.0505 Z.2622
N4020 X-.1655 Y.0256 Z.2561
N4030 X-.1675 Y0. Z.25
N4040 X-.1655 Y-.0256 Z.2439
N4050 X-.1597 Y-.0505 Z.2378
N4060 X-.1501 Y-.0743 Z.2317
N4070 X-.137 Y-.0964 Z.2256
N4080 X-.1207 Y-.1161 Z.2195
N4090 X-.1015 Y-.1332 Z.2134
N4100 X-.08 Y-.1472 Z.2073
N4110 X-.0566 Y-.1576 Z.2012
N4120 X-.0319 Y-.1644 Z.1951
N4130 X-.0064 Y-.1674 Z.189
N4140 X.0192 Y-.1664 Z.1829
N4150 X.0444 Y-.1615 Z.1768
N4160 X.0685 Y-.1528 Z.1707
N4170 X.091 Y-.1406 Z.1646
N4180 X.1114 Y-.125 Z.1585
N4190 X.1292 Y-.1066 Z.1524
N4200 X.144 Y-.0856 Z.1463
N4210 X.1554 Y-.0626 Z.1402
N4220 X.1631 Y-.0382 Z.1341
N4230 X.167 Y-.0128 Z.128
N4240 Y.0128 Z.122
N4250 X.1631 Y.0382 Z.1159
N4260 X.1554 Y.0626 Z.1098
N4270 X.144 Y.0856 Z.1037
N4280 X.1292 Y.1066 Z.0976
N4290 X.1114 Y.125 Z.0915
N4300 X.091 Y.1406 Z.0854
N4310 X.0685 Y.1528 Z.0793
N4320 X.0444 Y.1615 Z.0732
N4330 X.0192 Y.1664 Z.0671
N4340 X-.0064 Y.1674 Z.061
N4350 X-.0319 Y.1644 Z.0549
N4360 X-.0566 Y.1576 Z.0488
N4370 X-.08 Y.1472 Z.0427
N4380 X-.1015 Y.1332 Z.0366
N4390 X-.1207 Y.1161 Z.0305
N4400 X-.137 Y.0964 Z.0244
N4410 X-.1501 Y.0743 Z.0183
N4420 X-.1597 Y.0505 Z.0122
N4430 X-.1655 Y.0256 Z.0061
N4440 X-.1675 Y0. Z0.
; N4450 G3 X0. Y-.1675 I.1675 J0.
; N4460 X.1675 Y0. I0. J.1675
; N4470 X0. Y.1675 I-.1675 J0.
; N4480 X-.1675 Y0. I0. J-.1675
N4490 G1 X.0325
N4500 Z.2
N4510 G0 Z.25
N4520 Z1.7
N4530 X-.1775
N4540 G1 Z1.5 ;F6.42
N4550 X-.1755 Y-.0265 Z1.494
N4560 X-.1696 Y-.0523 Z1.4881
N4570 X-.1599 Y-.077 Z1.4821
N4580 X-.1467 Y-.1 Z1.4762
N4590 X-.1301 Y-.1207 Z1.4702
N4600 X-.1107 Y-.1388 Z1.4643
N4610 X-.0887 Y-.1537 Z1.4583
N4620 X-.0648 Y-.1652 Z1.4524
N4630 X-.0395 Y-.173 Z1.4464
N4640 X-.0133 Y-.177 Z1.4405
N4650 X.0133 Z1.4345
N4660 X.0395 Y-.173 Z1.4286
N4670 X.0648 Y-.1652 Z1.4226
N4680 X.0887 Y-.1537 Z1.4167
N4690 X.1107 Y-.1388 Z1.4107
N4700 X.1301 Y-.1207 Z1.4048
N4710 X.1467 Y-.1 Z1.3988
N4720 X.1599 Y-.077 Z1.3929
N4730 X.1696 Y-.0523 Z1.3869
N4740 X.1755 Y-.0265 Z1.381
N4750 X.1775 Y0. Z1.375
N4760 X.1755 Y.0265 Z1.369
N4770 X.1696 Y.0523 Z1.3631
N4780 X.1599 Y.077 Z1.3571
N4790 X.1467 Y.1 Z1.3512
N4800 X.1301 Y.1207 Z1.3452
N4810 X.1107 Y.1388 Z1.3393
N4820 X.0887 Y.1537 Z1.3333
N4830 X.0648 Y.1652 Z1.3274
N4840 X.0395 Y.173 Z1.3214
N4850 X.0133 Y.177 Z1.3155
N4860 X-.0133 Z1.3095
N4870 X-.0395 Y.173 Z1.3036
N4880 X-.0648 Y.1652 Z1.2976
N4890 X-.0887 Y.1537 Z1.2917
N4900 X-.1107 Y.1388 Z1.2857
N4910 X-.1301 Y.1207 Z1.2798
N4920 X-.1467 Y.1 Z1.2738
N4930 X-.1599 Y.077 Z1.2679
N4940 X-.1696 Y.0523 Z1.2619
N4950 X-.1755 Y.0265 Z1.256
N4960 X-.1775 Y0. Z1.25
N4970 X-.1755 Y-.0265 Z1.244
N4980 X-.1696 Y-.0523 Z1.2381
N4990 X-.1599 Y-.077 Z1.2321
N5000 X-.1467 Y-.1 Z1.2262
N5010 X-.1301 Y-.1207 Z1.2202
N5020 X-.1107 Y-.1388 Z1.2143
N5030 X-.0887 Y-.1537 Z1.2083
N5040 X-.0648 Y-.1652 Z1.2024
N5050 X-.0395 Y-.173 Z1.1964
N5060 X-.0133 Y-.177 Z1.1905
N5070 X.0133 Z1.1845
N5080 X.0395 Y-.173 Z1.1786
N5090 X.0648 Y-.1652 Z1.1726
N5100 X.0887 Y-.1537 Z1.1667
N5110 X.1107 Y-.1388 Z1.1607
N5120 X.1301 Y-.1207 Z1.1548
N5130 X.1467 Y-.1 Z1.1488
N5140 X.1599 Y-.077 Z1.1429
N5150 X.1696 Y-.0523 Z1.1369
N5160 X.1755 Y-.0265 Z1.131
N5170 X.1775 Y0. Z1.125
N5180 X.1755 Y.0265 Z1.119
N5190 X.1696 Y.0523 Z1.1131
N5200 X.1599 Y.077 Z1.1071
N5210 X.1467 Y.1 Z1.1012
N5220 X.1301 Y.1207 Z1.0952
N5230 X.1107 Y.1388 Z1.0893
N5240 X.0887 Y.1537 Z1.0833
N5250 X.0648 Y.1652 Z1.0774
N5260 X.0395 Y.173 Z1.0714
N5270 X.0133 Y.177 Z1.0655
N5280 X-.0133 Z1.0595
N5290 X-.0395 Y.173 Z1.0536
N5300 X-.0648 Y.1652 Z1.0476
N5310 X-.0887 Y.1537 Z1.0417
N5320 X-.1107 Y.1388 Z1.0357
N5330 X-.1301 Y.1207 Z1.0298
N5340 X-.1467 Y.1 Z1.0238
N5350 X-.1599 Y.077 Z1.0179
N5360 X-.1696 Y.0523 Z1.0119
N5370 X-.1755 Y.0265 Z1.006
N5380 X-.1775 Y0. Z1.
N5390 X-.1755 Y-.0265 Z.994
N5400 X-.1696 Y-.0523 Z.9881
N5410 X-.1599 Y-.077 Z.9821
N5420 X-.1467 Y-.1 Z.9762
N5430 X-.1301 Y-.1207 Z.9702
N5440 X-.1107 Y-.1388 Z.9643
N5450 X-.0887 Y-.1537 Z.9583
N5460 X-.0648 Y-.1652 Z.9524
N5470 X-.0395 Y-.173 Z.9464
N5480 X-.0133 Y-.177 Z.9405
N5490 X.0133 Z.9345
N5500 X.0395 Y-.173 Z.9286
N5510 X.0648 Y-.1652 Z.9226
N5520 X.0887 Y-.1537 Z.9167
N5530 X.1107 Y-.1388 Z.9107
N5540 X.1301 Y-.1207 Z.9048
N5550 X.1467 Y-.1 Z.8988
N5560 X.1599 Y-.077 Z.8929
N5570 X.1696 Y-.0523 Z.8869
N5580 X.1755 Y-.0265 Z.881
N5590 X.1775 Y0. Z.875
N5600 X.1755 Y.0265 Z.869
N5610 X.1696 Y.0523 Z.8631
N5620 X.1599 Y.077 Z.8571
N5630 X.1467 Y.1 Z.8512
N5640 X.1301 Y.1207 Z.8452
N5650 X.1107 Y.1388 Z.8393
N5660 X.0887 Y.1537 Z.8333
N5670 X.0648 Y.1652 Z.8274
N5680 X.0395 Y.173 Z.8214
N5690 X.0133 Y.177 Z.8155
N5700 X-.0133 Z.8095
N5710 X-.0395 Y.173 Z.8036
N5720 X-.0648 Y.1652 Z.7976
N5730 X-.0887 Y.1537 Z.7917
N5740 X-.1107 Y.1388 Z.7857
N5750 X-.1301 Y.1207 Z.7798
N5760 X-.1467 Y.1 Z.7738
N5770 X-.1599 Y.077 Z.7679
N5780 X-.1696 Y.0523 Z.7619
N5790 X-.1755 Y.0265 Z.756
N5800 X-.1775 Y0. Z.75
N5810 X-.1755 Y-.0265 Z.744
N5820 X-.1696 Y-.0523 Z.7381
N5830 X-.1599 Y-.077 Z.7321
N5840 X-.1467 Y-.1 Z.7262
N5850 X-.1301 Y-.1207 Z.7202
N5860 X-.1107 Y-.1388 Z.7143
N5870 X-.0887 Y-.1537 Z.7083
N5880 X-.0648 Y-.1652 Z.7024
N5890 X-.0395 Y-.173 Z.6964
N5900 X-.0133 Y-.177 Z.6905
N5910 X.0133 Z.6845
N5920 X.0395 Y-.173 Z.6786
N5930 X.0648 Y-.1652 Z.6726
N5940 X.0887 Y-.1537 Z.6667
N5950 X.1107 Y-.1388 Z.6607
N5960 X.1301 Y-.1207 Z.6548
N5970 X.1467 Y-.1 Z.6488
N5980 X.1599 Y-.077 Z.6429
N5990 X.1696 Y-.0523 Z.6369
N6000 X.1755 Y-.0265 Z.631
N6010 X.1775 Y0. Z.625
N6020 X.1755 Y.0265 Z.619
N6030 X.1696 Y.0523 Z.6131
N6040 X.1599 Y.077 Z.6071
N6050 X.1467 Y.1 Z.6012
N6060 X.1301 Y.1207 Z.5952
N6070 X.1107 Y.1388 Z.5893
N6080 X.0887 Y.1537 Z.5833
N6090 X.0648 Y.1652 Z.5774
N6100 X.0395 Y.173 Z.5714
N6110 X.0133 Y.177 Z.5655
N6120 X-.0133 Z.5595
N6130 X-.0395 Y.173 Z.5536
N6140 X-.0648 Y.1652 Z.5476
N6150 X-.0887 Y.1537 Z.5417
N6160 X-.1107 Y.1388 Z.5357
N6170 X-.1301 Y.1207 Z.5298
N6180 X-.1467 Y.1 Z.5238
N6190 X-.1599 Y.077 Z.5179
N6200 X-.1696 Y.0523 Z.5119
N6210 X-.1755 Y.0265 Z.506
N6220 X-.1775 Y0. Z.5
N6230 X-.1755 Y-.0265 Z.494
N6240 X-.1696 Y-.0523 Z.4881
N6250 X-.1599 Y-.077 Z.4821
N6260 X-.1467 Y-.1 Z.4762
N6270 X-.1301 Y-.1207 Z.4702
N6280 X-.1107 Y-.1388 Z.4643
N6290 X-.0887 Y-.1537 Z.4583
N6300 X-.0648 Y-.1652 Z.4524
N6310 X-.0395 Y-.173 Z.4464
N6320 X-.0133 Y-.177 Z.4405
N6330 X.0133 Z.4345
N6340 X.0395 Y-.173 Z.4286
N6350 X.0648 Y-.1652 Z.4226
N6360 X.0887 Y-.1537 Z.4167
N6370 X.1107 Y-.1388 Z.4107
N6380 X.1301 Y-.1207 Z.4048
N6390 X.1467 Y-.1 Z.3988
N6400 X.1599 Y-.077 Z.3929
N6410 X.1696 Y-.0523 Z.3869
N6420 X.1755 Y-.0265 Z.381
N6430 X.1775 Y0. Z.375
N6440 X.1755 Y.0265 Z.369
N6450 X.1696 Y.0523 Z.3631
N6460 X.1599 Y.077 Z.3571
N6470 X.1467 Y.1 Z.3512
N6480 X.1301 Y.1207 Z.3452
N6490 X.1107 Y.1388 Z.3393
N6500 X.0887 Y.1537 Z.3333
N6510 X.0648 Y.1652 Z.3274
N6520 X.0395 Y.173 Z.3214
N6530 X.0133 Y.177 Z.3155
N6540 X-.0133 Z.3095
N6550 X-.0395 Y.173 Z.3036
N6560 X-.0648 Y.1652 Z.2976
N6570 X-.0887 Y.1537 Z.2917
N6580 X-.1107 Y.1388 Z.2857
N6590 X-.1301 Y.1207 Z.2798
N6600 X-.1467 Y.1 Z.2738
N6610 X-.1599 Y.077 Z.2679
N6620 X-.1696 Y.0523 Z.2619
N6630 X-.1755 Y.0265 Z.256
N6640 X-.1775 Y0. Z.25
N6650 X-.1755 Y-.0265 Z.244
N6660 X-.1696 Y-.0523 Z.2381
N6670 X-.1599 Y-.077 Z.2321
N6680 X-.1467 Y-.1 Z.2262
N6690 X-.1301 Y-.1207 Z.2202
N6700 X-.1107 Y-.1388 Z.2143
N6710 X-.0887 Y-.1537 Z.2083
N6720 X-.0648 Y-.1652 Z.2024
N6730 X-.0395 Y-.173 Z.1964
N6740 X-.0133 Y-.177 Z.1905
N6750 X.0133 Z.1845
N6760 X.0395 Y-.173 Z.1786
N6770 X.0648 Y-.1652 Z.1726
N6780 X.0887 Y-.1537 Z.1667
N6790 X.1107 Y-.1388 Z.1607
N6800 X.1301 Y-.1207 Z.1548
N6810 X.1467 Y-.1 Z.1488
N6820 X.1599 Y-.077 Z.1429
N6830 X.1696 Y-.0523 Z.1369
N6840 X.1755 Y-.0265 Z.131
N6850 X.1775 Y0. Z.125
N6860 X.1755 Y.0265 Z.119
N6870 X.1696 Y.0523 Z.1131
N6880 X.1599 Y.077 Z.1071
N6890 X.1467 Y.1 Z.1012
N6900 X.1301 Y.1207 Z.0952
N6910 X.1107 Y.1388 Z.0893
N6920 X.0887 Y.1537 Z.0833
N6930 X.0648 Y.1652 Z.0774
N6940 X.0395 Y.173 Z.0714
N6950 X.0133 Y.177 Z.0655
N6960 X-.0133 Z.0595
N6970 X-.0395 Y.173 Z.0536
N6980 X-.0648 Y.1652 Z.0476
N6990 X-.0887 Y.1537 Z.0417
N7000 X-.1107 Y.1388 Z.0357
N7010 X-.1301 Y.1207 Z.0298
N7020 X-.1467 Y.1 Z.0238
N7030 X-.1599 Y.077 Z.0179
N7040 X-.1696 Y.0523 Z.0119
N7050 X-.1755 Y.0265 Z.006
N7060 X-.1775 Y0. Z0.
; N7070 G3 X0. Y-.1775 I.1775 J0.
; N7080 X.1775 Y0. I0. J.1775
; N7090 X0. Y.1775 I-.1775 J0.
; N7100 X-.1775 Y0. I0. J-.1775
N7110 G1 X.0225
N7120 Z.2
N7130 G0 Z.25
N7140 Z1.7
N7150 X-.1875
N7160 G1 Z1.5 ;F6.42
N7170 X-.1856 Y-.0267 Z1.4943
N7180 X-.1799 Y-.0528 Z1.4886
N7190 X-.1706 Y-.0779 Z1.483
N7200 X-.1577 Y-.1014 Z1.4773
N7210 X-.1417 Y-.1228 Z1.4716
N7220 X-.1228 Y-.1417 Z1.4659
N7230 X-.1014 Y-.1577 Z1.4602
N7240 X-.0779 Y-.1706 Z1.4545
N7250 X-.0528 Y-.1799 Z1.4489
N7260 X-.0267 Y-.1856 Z1.4432
N7270 X0. Y-.1875 Z1.4375
N7280 X.0267 Y-.1856 Z1.4318
N7290 X.0528 Y-.1799 Z1.4261
N7300 X.0779 Y-.1706 Z1.4205
N7310 X.1014 Y-.1577 Z1.4148
N7320 X.1228 Y-.1417 Z1.4091
N7330 X.1417 Y-.1228 Z1.4034
N7340 X.1577 Y-.1014 Z1.3977
N7350 X.1706 Y-.0779 Z1.392
N7360 X.1799 Y-.0528 Z1.3864
N7370 X.1856 Y-.0267 Z1.3807
N7380 X.1875 Y0. Z1.375
N7390 X.1856 Y.0267 Z1.3693
N7400 X.1799 Y.0528 Z1.3636
N7410 X.1706 Y.0779 Z1.358
N7420 X.1577 Y.1014 Z1.3523
N7430 X.1417 Y.1228 Z1.3466
N7440 X.1228 Y.1417 Z1.3409
N7450 X.1014 Y.1577 Z1.3352
N7460 X.0779 Y.1706 Z1.3295
N7470 X.0528 Y.1799 Z1.3239
N7480 X.0267 Y.1856 Z1.3182
N7490 X0. Y.1875 Z1.3125
N7500 X-.0267 Y.1856 Z1.3068
N7510 X-.0528 Y.1799 Z1.3011
N7520 X-.0779 Y.1706 Z1.2955
N7530 X-.1014 Y.1577 Z1.2898
N7540 X-.1228 Y.1417 Z1.2841
N7550 X-.1417 Y.1228 Z1.2784
N7560 X-.1577 Y.1014 Z1.2727
N7570 X-.1706 Y.0779 Z1.267
N7580 X-.1799 Y.0528 Z1.2614
N7590 X-.1856 Y.0267 Z1.2557
N7600 X-.1875 Y0. Z1.25
N7610 X-.1856 Y-.0267 Z1.2443
N7620 X-.1799 Y-.0528 Z1.2386
N7630 X-.1706 Y-.0779 Z1.233
N7640 X-.1577 Y-.1014 Z1.2273
N7650 X-.1417 Y-.1228 Z1.2216
N7660 X-.1228 Y-.1417 Z1.2159
N7670 X-.1014 Y-.1577 Z1.2102
N7680 X-.0779 Y-.1706 Z1.2045
N7690 X-.0528 Y-.1799 Z1.1989
N7700 X-.0267 Y-.1856 Z1.1932
N7710 X0. Y-.1875 Z1.1875
N7720 X.0267 Y-.1856 Z1.1818
N7730 X.0528 Y-.1799 Z1.1761
N7740 X.0779 Y-.1706 Z1.1705
N7750 X.1014 Y-.1577 Z1.1648
N7760 X.1228 Y-.1417 Z1.1591
N7770 X.1417 Y-.1228 Z1.1534
N7780 X.1577 Y-.1014 Z1.1477
N7790 X.1706 Y-.0779 Z1.142
N7800 X.1799 Y-.0528 Z1.1364
N7810 X.1856 Y-.0267 Z1.1307
N7820 X.1875 Y0. Z1.125
N7830 X.1856 Y.0267 Z1.1193
N7840 X.1799 Y.0528 Z1.1136
N7850 X.1706 Y.0779 Z1.108
N7860 X.1577 Y.1014 Z1.1023
N7870 X.1417 Y.1228 Z1.0966
N7880 X.1228 Y.1417 Z1.0909
N7890 X.1014 Y.1577 Z1.0852
N7900 X.0779 Y.1706 Z1.0795
N7910 X.0528 Y.1799 Z1.0739
N7920 X.0267 Y.1856 Z1.0682
N7930 X0. Y.1875 Z1.0625
N7940 X-.0267 Y.1856 Z1.0568
N7950 X-.0528 Y.1799 Z1.0511
N7960 X-.0779 Y.1706 Z1.0455
N7970 X-.1014 Y.1577 Z1.0398
N7980 X-.1228 Y.1417 Z1.0341
N7990 X-.1417 Y.1228 Z1.0284
N8000 X-.1577 Y.1014 Z1.0227
N8010 X-.1706 Y.0779 Z1.017
N8020 X-.1799 Y.0528 Z1.0114
N8030 X-.1856 Y.0267 Z1.0057
N8040 X-.1875 Y0. Z1.
N8050 X-.1856 Y-.0267 Z.9943
N8060 X-.1799 Y-.0528 Z.9886
N8070 X-.1706 Y-.0779 Z.983
N8080 X-.1577 Y-.1014 Z.9773
N8090 X-.1417 Y-.1228 Z.9716
N8100 X-.1228 Y-.1417 Z.9659
N8110 X-.1014 Y-.1577 Z.9602
N8120 X-.0779 Y-.1706 Z.9545
N8130 X-.0528 Y-.1799 Z.9489
N8140 X-.0267 Y-.1856 Z.9432
N8150 X0. Y-.1875 Z.9375
N8160 X.0267 Y-.1856 Z.9318
N8170 X.0528 Y-.1799 Z.9261
N8180 X.0779 Y-.1706 Z.9205
N8190 X.1014 Y-.1577 Z.9148
N8200 X.1228 Y-.1417 Z.9091
N8210 X.1417 Y-.1228 Z.9034
N8220 X.1577 Y-.1014 Z.8977
N8230 X.1706 Y-.0779 Z.892
N8240 X.1799 Y-.0528 Z.8864
N8250 X.1856 Y-.0267 Z.8807
N8260 X.1875 Y0. Z.875
N8270 X.1856 Y.0267 Z.8693
N8280 X.1799 Y.0528 Z.8636
N8290 X.1706 Y.0779 Z.858
N8300 X.1577 Y.1014 Z.8523
N8310 X.1417 Y.1228 Z.8466
N8320 X.1228 Y.1417 Z.8409
N8330 X.1014 Y.1577 Z.8352
N8340 X.0779 Y.1706 Z.8295
N8350 X.0528 Y.1799 Z.8239
N8360 X.0267 Y.1856 Z.8182
N8370 X0. Y.1875 Z.8125
N8380 X-.0267 Y.1856 Z.8068
N8390 X-.0528 Y.1799 Z.8011
N8400 X-.0779 Y.1706 Z.7955
N8410 X-.1014 Y.1577 Z.7898
N8420 X-.1228 Y.1417 Z.7841
N8430 X-.1417 Y.1228 Z.7784
N8440 X-.1577 Y.1014 Z.7727
N8450 X-.1706 Y.0779 Z.767
N8460 X-.1799 Y.0528 Z.7614
N8470 X-.1856 Y.0267 Z.7557
N8480 X-.1875 Y0. Z.75
N8490 X-.1856 Y-.0267 Z.7443
N8500 X-.1799 Y-.0528 Z.7386
N8510 X-.1706 Y-.0779 Z.733
N8520 X-.1577 Y-.1014 Z.7273
N8530 X-.1417 Y-.1228 Z.7216
N8540 X-.1228 Y-.1417 Z.7159
N8550 X-.1014 Y-.1577 Z.7102
N8560 X-.0779 Y-.1706 Z.7045
N8570 X-.0528 Y-.1799 Z.6989
N8580 X-.0267 Y-.1856 Z.6932
N8590 X0. Y-.1875 Z.6875
N8600 X.0267 Y-.1856 Z.6818
N8610 X.0528 Y-.1799 Z.6761
N8620 X.0779 Y-.1706 Z.6705
N8630 X.1014 Y-.1577 Z.6648
N8640 X.1228 Y-.1417 Z.6591
N8650 X.1417 Y-.1228 Z.6534
N8660 X.1577 Y-.1014 Z.6477
N8670 X.1706 Y-.0779 Z.642
N8680 X.1799 Y-.0528 Z.6364
N8690 X.1856 Y-.0267 Z.6307
N8700 X.1875 Y0. Z.625
N8710 X.1856 Y.0267 Z.6193
N8720 X.1799 Y.0528 Z.6136
N8730 X.1706 Y.0779 Z.608
N8740 X.1577 Y.1014 Z.6023
N8750 X.1417 Y.1228 Z.5966
N8760 X.1228 Y.1417 Z.5909
N8770 X.1014 Y.1577 Z.5852
N8780 X.0779 Y.1706 Z.5795
N8790 X.0528 Y.1799 Z.5739
N8800 X.0267 Y.1856 Z.5682
N8810 X0. Y.1875 Z.5625
N8820 X-.0267 Y.1856 Z.5568
N8830 X-.0528 Y.1799 Z.5511
N8840 X-.0779 Y.1706 Z.5455
N8850 X-.1014 Y.1577 Z.5398
N8860 X-.1228 Y.1417 Z.5341
N8870 X-.1417 Y.1228 Z.5284
N8880 X-.1577 Y.1014 Z.5227
N8890 X-.1706 Y.0779 Z.517
N8900 X-.1799 Y.0528 Z.5114
N8910 X-.1856 Y.0267 Z.5057
N8920 X-.1875 Y0. Z.5
N8930 X-.1856 Y-.0267 Z.4943
N8940 X-.1799 Y-.0528 Z.4886
N8950 X-.1706 Y-.0779 Z.483
N8960 X-.1577 Y-.1014 Z.4773
N8970 X-.1417 Y-.1228 Z.4716
N8980 X-.1228 Y-.1417 Z.4659
N8990 X-.1014 Y-.1577 Z.4602
N9000 X-.0779 Y-.1706 Z.4545
N9010 X-.0528 Y-.1799 Z.4489
N9020 X-.0267 Y-.1856 Z.4432
N9030 X0. Y-.1875 Z.4375
N9040 X.0267 Y-.1856 Z.4318
N9050 X.0528 Y-.1799 Z.4261
N9060 X.0779 Y-.1706 Z.4205
N9070 X.1014 Y-.1577 Z.4148
N9080 X.1228 Y-.1417 Z.4091
N9090 X.1417 Y-.1228 Z.4034
N9100 X.1577 Y-.1014 Z.3977
N9110 X.1706 Y-.0779 Z.392
N9120 X.1799 Y-.0528 Z.3864
N9130 X.1856 Y-.0267 Z.3807
N9140 X.1875 Y0. Z.375
N9150 X.1856 Y.0267 Z.3693
N9160 X.1799 Y.0528 Z.3636
N9170 X.1706 Y.0779 Z.358
N9180 X.1577 Y.1014 Z.3523
N9190 X.1417 Y.1228 Z.3466
N9200 X.1228 Y.1417 Z.3409
N9210 X.1014 Y.1577 Z.3352
N9220 X.0779 Y.1706 Z.3295
N9230 X.0528 Y.1799 Z.3239
N9240 X.0267 Y.1856 Z.3182
N9250 X0. Y.1875 Z.3125
N9260 X-.0267 Y.1856 Z.3068
N9270 X-.0528 Y.1799 Z.3011
N9280 X-.0779 Y.1706 Z.2955
N9290 X-.1014 Y.1577 Z.2898
N9300 X-.1228 Y.1417 Z.2841
N9310 X-.1417 Y.1228 Z.2784
N9320 X-.1577 Y.1014 Z.2727
N9330 X-.1706 Y.0779 Z.267
N9340 X-.1799 Y.0528 Z.2614
N9350 X-.1856 Y.0267 Z.2557
N9360 X-.1875 Y0. Z.25
N9370 X-.1856 Y-.0267 Z.2443
N9380 X-.1799 Y-.0528 Z.2386
N9390 X-.1706 Y-.0779 Z.233
N9400 X-.1577 Y-.1014 Z.2273
N9410 X-.1417 Y-.1228 Z.2216
N9420 X-.1228 Y-.1417 Z.2159
N9430 X-.1014 Y-.1577 Z.2102
N9440 X-.0779 Y-.1706 Z.2045
N9450 X-.0528 Y-.1799 Z.1989
N9460 X-.0267 Y-.1856 Z.1932
N9470 X0. Y-.1875 Z.1875
N9480 X.0267 Y-.1856 Z.1818
N9490 X.0528 Y-.1799 Z.1761
N9500 X.0779 Y-.1706 Z.1705
N9510 X.1014 Y-.1577 Z.1648
N9520 X.1228 Y-.1417 Z.1591
N9530 X.1417 Y-.1228 Z.1534
N9540 X.1577 Y-.1014 Z.1477
N9550 X.1706 Y-.0779 Z.142
N9560 X.1799 Y-.0528 Z.1364
N9570 X.1856 Y-.0267 Z.1307
N9580 X.1875 Y0. Z.125
N9590 X.1856 Y.0267 Z.1193
N9600 X.1799 Y.0528 Z.1136
N9610 X.1706 Y.0779 Z.108
N9620 X.1577 Y.1014 Z.1023
N9630 X.1417 Y.1228 Z.0966
N9640 X.1228 Y.1417 Z.0909
N9650 X.1014 Y.1577 Z.0852
N9660 X.0779 Y.1706 Z.0795
N9670 X.0528 Y.1799 Z.0739
N9680 X.0267 Y.1856 Z.0682
N9690 X0. Y.1875 Z.0625
N9700 X-.0267 Y.1856 Z.0568
N9710 X-.0528 Y.1799 Z.0511
N9720 X-.0779 Y.1706 Z.0455
N9730 X-.1014 Y.1577 Z.0398
N9740 X-.1228 Y.1417 Z.0341
N9750 X-.1417 Y.1228 Z.0284
N9760 X-.1577 Y.1014 Z.0227
N9770 X-.1706 Y.0779 Z.017
N9780 X-.1799 Y.0528 Z.0114
N9790 X-.1856 Y.0267 Z.0057
N9800 X-.1875 Y0. Z0.
; N9810 G3 X0. Y-.1875 I.1875 J0.
; N9820 X.1875 Y0. I0. J.1875
; N9830 X0. Y.1875 I-.1875 J0.
; N9840 X-.1875 Y0. I0. J-.1875
N9850 G1 X.0125
N9860 Z.2
N9870 G0 Z1.6
N9880 Z1.75
N9890 X-2.3512
N9900 Z1.7
N9910 G1 Z1.5 ;F6.42
N9920 X-2.3493 Y.0965 Z1.4984
N9930 X-2.3433 Y.1929 Z1.4967
N9940 X-2.3334 Y.2889 Z1.4951
N9950 X-2.3196 Y.3845 Z1.4935
N9960 X-2.3019 Y.4794 Z1.4918
N9970 X-2.2802 Y.5735 Z1.4902
N9980 X-2.2548 Y.6666 Z1.4886
N9990 X-2.2255 Y.7586 Z1.4869
N100 X-2.1925 Y.8494 Z1.4853
N110 X-2.1558 Y.9387 Z1.4837
N120 X-2.1154 Y1.0264 Z1.482
N130 X-2.0715 Y1.1124 Z1.4804
N140 X-2.0241 Y1.1965 Z1.4788
N150 X-1.9732 Y1.2786 Z1.4771
N160 X-1.9191 Y1.3585 Z1.4755
N170 X-1.8617 Y1.4361 Z1.4739
N180 X-1.8012 Y1.5114 Z1.4722
N190 X-1.7376 Y1.584 Z1.4706
N200 X-1.6711 Y1.654 Z1.469
N210 X-1.6018 Y1.7212 Z1.4673
N220 X-1.5298 Y1.7856 Z1.4657
N230 X-1.4552 Y1.8468 Z1.4641
N240 X-1.3781 Y1.905 Z1.4624
N250 X-1.2987 Y1.96 Z1.4608
N260 X-1.2172 Y2.0117 Z1.4592
N270 X-1.1336 Y2.06 Z1.4575
N280 X-1.048 Y2.1048 Z1.4559
N290 X-.9607 Y2.146 Z1.4542
N300 X-.8718 Y2.1836 Z1.4526
N310 X-.7814 Y2.2176 Z1.451
N320 X-.6897 Y2.2478 Z1.4493
N330 X-.5969 Y2.2742 Z1.4477
N340 X-.503 Y2.2968 Z1.4461
N350 X-.4083 Y2.3155 Z1.4444
N360 X-.3129 Y2.3303 Z1.4428
N370 X-.2169 Y2.3412 Z1.4412
N380 X-.1206 Y2.3482 Z1.4395
N390 X-.0241 Y2.3511 Z1.4379
N400 X.0724 Y2.3501 Z1.4363
N410 X.1688 Y2.3452 Z1.4346
N420 X.265 Y2.3363 Z1.433
N430 X.3607 Y2.3234 Z1.4314
N440 X.4557 Y2.3067 Z1.4297
N450 X.5501 Y2.286 Z1.4281
N460 X.6435 Y2.2615 Z1.4265
N470 X.7358 Y2.2332 Z1.4248
N480 X.8268 Y2.2011 Z1.4232
N490 X.9165 Y2.1653 Z1.4216
N500 X1.0046 Y2.1258 Z1.4199
N510 X1.091 Y2.0828 Z1.4183
N520 X1.1756 Y2.0362 Z1.4167
N530 X1.2582 Y1.9863 Z1.415
N540 X1.3387 Y1.9329 Z1.4134
N550 X1.4169 Y1.8763 Z1.4118
N560 X1.4928 Y1.8166 Z1.4101
N570 X1.5661 Y1.7538 Z1.4085
N580 X1.6368 Y1.688 Z1.4069
N590 X1.7047 Y1.6194 Z1.4052
N600 X1.7698 Y1.548 Z1.4036
N610 X1.8318 Y1.4741 Z1.402
N620 X1.8908 Y1.3976 Z1.4003
N630 X1.9466 Y1.3188 Z1.3987
N640 X1.9991 Y1.2378 Z1.3971
N650 X2.0482 Y1.1547 Z1.3954
N660 X2.0939 Y1.0696 Z1.3938
N670 X2.136 Y.9827 Z1.3922
N680 X2.1746 Y.8942 Z1.3905
N690 X2.2095 Y.8042 Z1.3889
N700 X2.2406 Y.7128 Z1.3873
N710 X2.268 Y.6202 Z1.3856
N720 X2.2915 Y.5266 Z1.384
N730 X2.3112 Y.432 Z1.3824
N740 X2.327 Y.3368 Z1.3807
N750 X2.3389 Y.241 Z1.3791
N760 X2.3468 Y.1447 Z1.3775
N770 X2.3508 Y.0483 Z1.3758
N780 Y-.0483 Z1.3742
N790 X2.3468 Y-.1447 Z1.3725
N800 X2.3389 Y-.241 Z1.3709
N810 X2.327 Y-.3368 Z1.3693
N820 X2.3112 Y-.432 Z1.3676
N830 X2.2915 Y-.5266 Z1.366
N840 X2.268 Y-.6202 Z1.3644
N850 X2.2406 Y-.7128 Z1.3627
N860 X2.2095 Y-.8042 Z1.3611
N870 X2.1746 Y-.8942 Z1.3595
N880 X2.136 Y-.9827 Z1.3578
N890 X2.0939 Y-1.0696 Z1.3562
N900 X2.0482 Y-1.1547 Z1.3546
N910 X1.9991 Y-1.2378 Z1.3529
N920 X1.9466 Y-1.3188 Z1.3513
N930 X1.8908 Y-1.3976 Z1.3497
N940 X1.8318 Y-1.4741 Z1.348
N950 X1.7698 Y-1.548 Z1.3464
N960 X1.7047 Y-1.6194 Z1.3448
N970 X1.6368 Y-1.688 Z1.3431
N980 X1.5661 Y-1.7538 Z1.3415
N990 X1.4928 Y-1.8166 Z1.3399
N1000 X1.4169 Y-1.8763 Z1.3382
N1010 X1.3387 Y-1.9329 Z1.3366
N1020 X1.2582 Y-1.9863 Z1.335
N1030 X1.1756 Y-2.0362 Z1.3333
N1040 X1.091 Y-2.0828 Z1.3317
N1050 X1.0046 Y-2.1258 Z1.3301
N1060 X.9165 Y-2.1653 Z1.3284
N1070 X.8268 Y-2.2011 Z1.3268
N1080 X.7358 Y-2.2332 Z1.3252
N1090 X.6435 Y-2.2615 Z1.3235
N1100 X.5501 Y-2.286 Z1.3219
N1110 X.4557 Y-2.3067 Z1.3203
N1120 X.3607 Y-2.3234 Z1.3186
N1130 X.265 Y-2.3363 Z1.317
N1140 X.1688 Y-2.3452 Z1.3154
N1150 X.0724 Y-2.3501 Z1.3137
N1160 X-.0241 Y-2.3511 Z1.3121
N1170 X-.1206 Y-2.3482 Z1.3105
N1180 X-.2169 Y-2.3412 Z1.3088
N1190 X-.3129 Y-2.3303 Z1.3072
N1200 X-.4083 Y-2.3155 Z1.3056
N1210 X-.503 Y-2.2968 Z1.3039
N1220 X-.5969 Y-2.2742 Z1.3023
N1230 X-.6897 Y-2.2478 Z1.3007
N1240 X-.7814 Y-2.2176 Z1.299
N1250 X-.8718 Y-2.1836 Z1.2974
N1260 X-.9607 Y-2.146 Z1.2958
N1270 X-1.048 Y-2.1048 Z1.2941
N1280 X-1.1336 Y-2.06 Z1.2925
N1290 X-1.2172 Y-2.0117 Z1.2908
N1300 X-1.2987 Y-1.96 Z1.2892
N1310 X-1.3781 Y-1.905 Z1.2876
N1320 X-1.4552 Y-1.8468 Z1.2859
N1330 X-1.5298 Y-1.7856 Z1.2843
N1340 X-1.6018 Y-1.7212 Z1.2827
N1350 X-1.6711 Y-1.654 Z1.281
N1360 X-1.7376 Y-1.584 Z1.2794
N1370 X-1.8012 Y-1.5114 Z1.2778
N1380 X-1.8617 Y-1.4361 Z1.2761
N1390 X-1.9191 Y-1.3585 Z1.2745
N1400 X-1.9732 Y-1.2786 Z1.2729
N1410 X-2.0241 Y-1.1965 Z1.2712
N1420 X-2.0715 Y-1.1124 Z1.2696
N1430 X-2.1154 Y-1.0264 Z1.268
N1440 X-2.1558 Y-.9387 Z1.2663
N1450 X-2.1925 Y-.8494 Z1.2647
N1460 X-2.2255 Y-.7586 Z1.2631
N1470 X-2.2548 Y-.6666 Z1.2614
N1480 X-2.2802 Y-.5735 Z1.2598
N1490 X-2.3019 Y-.4794 Z1.2582
N1500 X-2.3196 Y-.3845 Z1.2565
N1510 X-2.3334 Y-.2889 Z1.2549
N1520 X-2.3433 Y-.1929 Z1.2533
N1530 X-2.3493 Y-.0965 Z1.2516
N1540 X-2.3512 Y0. Z1.25
N1550 X-2.3493 Y.0965 Z1.2484
N1560 X-2.3433 Y.1929 Z1.2467
N1570 X-2.3334 Y.2889 Z1.2451
N1580 X-2.3196 Y.3845 Z1.2435
N1590 X-2.3019 Y.4794 Z1.2418
N1600 X-2.2802 Y.5735 Z1.2402
N1610 X-2.2548 Y.6666 Z1.2386
N1620 X-2.2255 Y.7586 Z1.2369
N1630 X-2.1925 Y.8494 Z1.2353
N1640 X-2.1558 Y.9387 Z1.2337
N1650 X-2.1154 Y1.0264 Z1.232
N1660 X-2.0715 Y1.1124 Z1.2304
N1670 X-2.0241 Y1.1965 Z1.2288
N1680 X-1.9732 Y1.2786 Z1.2271
N1690 X-1.9191 Y1.3585 Z1.2255
N1700 X-1.8617 Y1.4361 Z1.2239
N1710 X-1.8012 Y1.5114 Z1.2222
N1720 X-1.7376 Y1.584 Z1.2206
N1730 X-1.6711 Y1.654 Z1.219
N1740 X-1.6018 Y1.7212 Z1.2173
N1750 X-1.5298 Y1.7856 Z1.2157
N1760 X-1.4552 Y1.8468 Z1.2141
N1770 X-1.3781 Y1.905 Z1.2124
N1780 X-1.2987 Y1.96 Z1.2108
N1790 X-1.2172 Y2.0117 Z1.2092
N1800 X-1.1336 Y2.06 Z1.2075
N1810 X-1.048 Y2.1048 Z1.2059
N1820 X-.9607 Y2.146 Z1.2042
N1830 X-.8718 Y2.1836 Z1.2026
N1840 X-.7814 Y2.2176 Z1.201
N1850 X-.6897 Y2.2478 Z1.1993
N1860 X-.5969 Y2.2742 Z1.1977
N1870 X-.503 Y2.2968 Z1.1961
N1880 X-.4083 Y2.3155 Z1.1944
N1890 X-.3129 Y2.3303 Z1.1928
N1900 X-.2169 Y2.3412 Z1.1912
N1910 X-.1206 Y2.3482 Z1.1895
N1920 X-.0241 Y2.3511 Z1.1879
N1930 X.0724 Y2.3501 Z1.1863
N1940 X.1688 Y2.3452 Z1.1846
N1950 X.265 Y2.3363 Z1.183
N1960 X.3607 Y2.3234 Z1.1814
N1970 X.4557 Y2.3067 Z1.1797
N1980 X.5501 Y2.286 Z1.1781
N1990 X.6435 Y2.2615 Z1.1765
N2000 X.7358 Y2.2332 Z1.1748
N2010 X.8268 Y2.2011 Z1.1732
N2020 X.9165 Y2.1653 Z1.1716
N2030 X1.0046 Y2.1258 Z1.1699
N2040 X1.091 Y2.0828 Z1.1683
N2050 X1.1756 Y2.0362 Z1.1667
N2060 X1.2582 Y1.9863 Z1.165
N2070 X1.3387 Y1.9329 Z1.1634
N2080 X1.4169 Y1.8763 Z1.1618
N2090 X1.4928 Y1.8166 Z1.1601
N2100 X1.5661 Y1.7538 Z1.1585
N2110 X1.6368 Y1.688 Z1.1569
N2120 X1.7047 Y1.6194 Z1.1552
N2130 X1.7698 Y1.548 Z1.1536
N2140 X1.8318 Y1.4741 Z1.152
N2150 X1.8908 Y1.3976 Z1.1503
N2160 X1.9466 Y1.3188 Z1.1487
N2170 X1.9991 Y1.2378 Z1.1471
N2180 X2.0482 Y1.1547 Z1.1454
N2190 X2.0939 Y1.0696 Z1.1438
N2200 X2.136 Y.9827 Z1.1422
N2210 X2.1746 Y.8942 Z1.1405
N2220 X2.2095 Y.8042 Z1.1389
N2230 X2.2406 Y.7128 Z1.1373
N2240 X2.268 Y.6202 Z1.1356
N2250 X2.2915 Y.5266 Z1.134
N2260 X2.3112 Y.432 Z1.1324
N2270 X2.327 Y.3368 Z1.1307
N2280 X2.3389 Y.241 Z1.1291
N2290 X2.3468 Y.1447 Z1.1275
N2300 X2.3508 Y.0483 Z1.1258
N2310 Y-.0483 Z1.1242
N2320 X2.3468 Y-.1447 Z1.1225
N2330 X2.3389 Y-.241 Z1.1209
N2340 X2.327 Y-.3368 Z1.1193
N2350 X2.3112 Y-.432 Z1.1176
N2360 X2.2915 Y-.5266 Z1.116
N2370 X2.268 Y-.6202 Z1.1144
N2380 X2.2406 Y-.7128 Z1.1127
N2390 X2.2095 Y-.8042 Z1.1111
N2400 X2.1746 Y-.8942 Z1.1095
N2410 X2.136 Y-.9827 Z1.1078
N2420 X2.0939 Y-1.0696 Z1.1062
N2430 X2.0482 Y-1.1547 Z1.1046
N2440 X1.9991 Y-1.2378 Z1.1029
N2450 X1.9466 Y-1.3188 Z1.1013
N2460 X1.8908 Y-1.3976 Z1.0997
N2470 X1.8318 Y-1.4741 Z1.098
N2480 X1.7698 Y-1.548 Z1.0964
N2490 X1.7047 Y-1.6194 Z1.0948
N2500 X1.6368 Y-1.688 Z1.0931
N2510 X1.5661 Y-1.7538 Z1.0915
N2520 X1.4928 Y-1.8166 Z1.0899
N2530 X1.4169 Y-1.8763 Z1.0882
N2540 X1.3387 Y-1.9329 Z1.0866
N2550 X1.2582 Y-1.9863 Z1.085
N2560 X1.1756 Y-2.0362 Z1.0833
N2570 X1.091 Y-2.0828 Z1.0817
N2580 X1.0046 Y-2.1258 Z1.0801
N2590 X.9165 Y-2.1653 Z1.0784
N2600 X.8268 Y-2.2011 Z1.0768
N2610 X.7358 Y-2.2332 Z1.0752
N2620 X.6435 Y-2.2615 Z1.0735
N2630 X.5501 Y-2.286 Z1.0719
N2640 X.4557 Y-2.3067 Z1.0703
N2650 X.3607 Y-2.3234 Z1.0686
N2660 X.265 Y-2.3363 Z1.067
N2670 X.1688 Y-2.3452 Z1.0654
N2680 X.0724 Y-2.3501 Z1.0637
N2690 X-.0241 Y-2.3511 Z1.0621
N2700 X-.1206 Y-2.3482 Z1.0605
N2710 X-.2169 Y-2.3412 Z1.0588
N2720 X-.3129 Y-2.3303 Z1.0572
N2730 X-.4083 Y-2.3155 Z1.0556
N2740 X-.503 Y-2.2968 Z1.0539
N2750 X-.5969 Y-2.2742 Z1.0523
N2760 X-.6897 Y-2.2478 Z1.0507
N2770 X-.7814 Y-2.2176 Z1.049
N2780 X-.8718 Y-2.1836 Z1.0474
N2790 X-.9607 Y-2.146 Z1.0458
N2800 X-1.048 Y-2.1048 Z1.0441
N2810 X-1.1336 Y-2.06 Z1.0425
N2820 X-1.2172 Y-2.0117 Z1.0408
N2830 X-1.2987 Y-1.96 Z1.0392
N2840 X-1.3781 Y-1.905 Z1.0376
N2850 X-1.4552 Y-1.8468 Z1.0359
N2860 X-1.5298 Y-1.7856 Z1.0343
N2870 X-1.6018 Y-1.7212 Z1.0327
N2880 X-1.6711 Y-1.654 Z1.031
N2890 X-1.7376 Y-1.584 Z1.0294
N2900 X-1.8012 Y-1.5114 Z1.0278
N2910 X-1.8617 Y-1.4361 Z1.0261
N2920 X-1.9191 Y-1.3585 Z1.0245
N2930 X-1.9732 Y-1.2786 Z1.0229
N2940 X-2.0241 Y-1.1965 Z1.0212
N2950 X-2.0715 Y-1.1124 Z1.0196
N2960 X-2.1154 Y-1.0264 Z1.018
N2970 X-2.1558 Y-.9387 Z1.0163
N2980 X-2.1925 Y-.8494 Z1.0147
N2990 X-2.2255 Y-.7586 Z1.0131
N3000 X-2.2548 Y-.6666 Z1.0114
N3010 X-2.2802 Y-.5735 Z1.0098
N3020 X-2.3019 Y-.4794 Z1.0082
N3030 X-2.3196 Y-.3845 Z1.0065
N3040 X-2.3334 Y-.2889 Z1.0049
N3050 X-2.3433 Y-.1929 Z1.0033
N3060 X-2.3493 Y-.0965 Z1.0016
N3070 X-2.3512 Y0. Z1.
N3080 X-2.3493 Y.0965 Z.9984
N3090 X-2.3433 Y.1929 Z.9967
N3100 X-2.3334 Y.2889 Z.9951
N3110 X-2.3196 Y.3845 Z.9935
N3120 X-2.3019 Y.4794 Z.9918
N3130 X-2.2802 Y.5735 Z.9902
N3140 X-2.2548 Y.6666 Z.9886
N3150 X-2.2255 Y.7586 Z.9869
N3160 X-2.1925 Y.8494 Z.9853
N3170 X-2.1558 Y.9387 Z.9837
N3180 X-2.1154 Y1.0264 Z.982
N3190 X-2.0715 Y1.1124 Z.9804
N3200 X-2.0241 Y1.1965 Z.9788
N3210 X-1.9732 Y1.2786 Z.9771
N3220 X-1.9191 Y1.3585 Z.9755
N3230 X-1.8617 Y1.4361 Z.9739
N3240 X-1.8012 Y1.5114 Z.9722
N3250 X-1.7376 Y1.584 Z.9706
N3260 X-1.6711 Y1.654 Z.969
N3270 X-1.6018 Y1.7212 Z.9673
N3280 X-1.5298 Y1.7856 Z.9657
N3290 X-1.4552 Y1.8468 Z.9641
N3300 X-1.3781 Y1.905 Z.9624
N3310 X-1.2987 Y1.96 Z.9608
N3320 X-1.2172 Y2.0117 Z.9592
N3330 X-1.1336 Y2.06 Z.9575
N3340 X-1.048 Y2.1048 Z.9559
N3350 X-.9607 Y2.146 Z.9542
N3360 X-.8718 Y2.1836 Z.9526
N3370 X-.7814 Y2.2176 Z.951
N3380 X-.6897 Y2.2478 Z.9493
N3390 X-.5969 Y2.2742 Z.9477
N3400 X-.503 Y2.2968 Z.9461
N3410 X-.4083 Y2.3155 Z.9444
N3420 X-.3129 Y2.3303 Z.9428
N3430 X-.2169 Y2.3412 Z.9412
N3440 X-.1206 Y2.3482 Z.9395
N3450 X-.0241 Y2.3511 Z.9379
N3460 X.0724 Y2.3501 Z.9363
N3470 X.1688 Y2.3452 Z.9346
N3480 X.265 Y2.3363 Z.933
N3490 X.3607 Y2.3234 Z.9314
N3500 X.4557 Y2.3067 Z.9297
N3510 X.5501 Y2.286 Z.9281
N3520 X.6435 Y2.2615 Z.9265
N3530 X.7358 Y2.2332 Z.9248
N3540 X.8268 Y2.2011 Z.9232
N3550 X.9165 Y2.1653 Z.9216
N3560 X1.0046 Y2.1258 Z.9199
N3570 X1.091 Y2.0828 Z.9183
N3580 X1.1756 Y2.0362 Z.9167
N3590 X1.2582 Y1.9863 Z.915
N3600 X1.3387 Y1.9329 Z.9134
N3610 X1.4169 Y1.8763 Z.9118
N3620 X1.4928 Y1.8166 Z.9101
N3630 X1.5661 Y1.7538 Z.9085
N3640 X1.6368 Y1.688 Z.9069
N3650 X1.7047 Y1.6194 Z.9052
N3660 X1.7698 Y1.548 Z.9036
N3670 X1.8318 Y1.4741 Z.902
N3680 X1.8908 Y1.3976 Z.9003
N3690 X1.9466 Y1.3188 Z.8987
N3700 X1.9991 Y1.2378 Z.8971
N3710 X2.0482 Y1.1547 Z.8954
N3720 X2.0939 Y1.0696 Z.8938
N3730 X2.136 Y.9827 Z.8922
N3740 X2.1746 Y.8942 Z.8905
N3750 X2.2095 Y.8042 Z.8889
N3760 X2.2406 Y.7128 Z.8873
N3770 X2.268 Y.6202 Z.8856
N3780 X2.2915 Y.5266 Z.884
N3790 X2.3112 Y.432 Z.8824
N3800 X2.327 Y.3368 Z.8807
N3810 X2.3389 Y.241 Z.8791
N3820 X2.3468 Y.1447 Z.8775
N3830 X2.3508 Y.0483 Z.8758
N3840 Y-.0483 Z.8742
N3850 X2.3468 Y-.1447 Z.8725
N3860 X2.3389 Y-.241 Z.8709
N3870 X2.327 Y-.3368 Z.8693
N3880 X2.3112 Y-.432 Z.8676
N3890 X2.2915 Y-.5266 Z.866
N3900 X2.268 Y-.6202 Z.8644
N3910 X2.2406 Y-.7128 Z.8627
N3920 X2.2095 Y-.8042 Z.8611
N3930 X2.1746 Y-.8942 Z.8595
N3940 X2.136 Y-.9827 Z.8578
N3950 X2.0939 Y-1.0696 Z.8562
N3960 X2.0482 Y-1.1547 Z.8546
N3970 X1.9991 Y-1.2378 Z.8529
N3980 X1.9466 Y-1.3188 Z.8513
N3990 X1.8908 Y-1.3976 Z.8497
N4000 X1.8318 Y-1.4741 Z.848
N4010 X1.7698 Y-1.548 Z.8464
N4020 X1.7047 Y-1.6194 Z.8448
N4030 X1.6368 Y-1.688 Z.8431
N4040 X1.5661 Y-1.7538 Z.8415
N4050 X1.4928 Y-1.8166 Z.8399
N4060 X1.4169 Y-1.8763 Z.8382
N4070 X1.3387 Y-1.9329 Z.8366
N4080 X1.2582 Y-1.9863 Z.835
N4090 X1.1756 Y-2.0362 Z.8333
N4100 X1.091 Y-2.0828 Z.8317
N4110 X1.0046 Y-2.1258 Z.8301
N4120 X.9165 Y-2.1653 Z.8284
N4130 X.8268 Y-2.2011 Z.8268
N4140 X.7358 Y-2.2332 Z.8252
N4150 X.6435 Y-2.2615 Z.8235
N4160 X.5501 Y-2.286 Z.8219
N4170 X.4557 Y-2.3067 Z.8203
N4180 X.3607 Y-2.3234 Z.8186
N4190 X.265 Y-2.3363 Z.817
N4200 X.1688 Y-2.3452 Z.8154
N4210 X.0724 Y-2.3501 Z.8137
N4220 X-.0241 Y-2.3511 Z.8121
N4230 X-.1206 Y-2.3482 Z.8105
N4240 X-.2169 Y-2.3412 Z.8088
N4250 X-.3129 Y-2.3303 Z.8072
N4260 X-.4083 Y-2.3155 Z.8056
N4270 X-.503 Y-2.2968 Z.8039
N4280 X-.5969 Y-2.2742 Z.8023
N4290 X-.6897 Y-2.2478 Z.8007
N4300 X-.7814 Y-2.2176 Z.799
N4310 X-.8718 Y-2.1836 Z.7974
N4320 X-.9607 Y-2.146 Z.7958
N4330 X-1.048 Y-2.1048 Z.7941
N4340 X-1.1336 Y-2.06 Z.7925
N4350 X-1.2172 Y-2.0117 Z.7908
N4360 X-1.2987 Y-1.96 Z.7892
N4370 X-1.3781 Y-1.905 Z.7876
N4380 X-1.4552 Y-1.8468 Z.7859
N4390 X-1.5298 Y-1.7856 Z.7843
N4400 X-1.6018 Y-1.7212 Z.7827
N4410 X-1.6711 Y-1.654 Z.781
N4420 X-1.7376 Y-1.584 Z.7794
N4430 X-1.8012 Y-1.5114 Z.7778
N4440 X-1.8617 Y-1.4361 Z.7761
N4450 X-1.9191 Y-1.3585 Z.7745
N4460 X-1.9732 Y-1.2786 Z.7729
N4470 X-2.0241 Y-1.1965 Z.7712
N4480 X-2.0715 Y-1.1124 Z.7696
N4490 X-2.1154 Y-1.0264 Z.768
N4500 X-2.1558 Y-.9387 Z.7663
N4510 X-2.1925 Y-.8494 Z.7647
N4520 X-2.2255 Y-.7586 Z.7631
N4530 X-2.2548 Y-.6666 Z.7614
N4540 X-2.2802 Y-.5735 Z.7598
N4550 X-2.3019 Y-.4794 Z.7582
N4560 X-2.3196 Y-.3845 Z.7565
N4570 X-2.3334 Y-.2889 Z.7549
N4580 X-2.3433 Y-.1929 Z.7533
N4590 X-2.3493 Y-.0965 Z.7516
N4600 X-2.3512 Y0. Z.75
N4610 X-2.3493 Y.0965 Z.7484
N4620 X-2.3433 Y.1929 Z.7467
N4630 X-2.3334 Y.2889 Z.7451
N4640 X-2.3196 Y.3845 Z.7435
N4650 X-2.3019 Y.4794 Z.7418
N4660 X-2.2802 Y.5735 Z.7402
N4670 X-2.2548 Y.6666 Z.7386
N4680 X-2.2255 Y.7586 Z.7369
N4690 X-2.1925 Y.8494 Z.7353
N4700 X-2.1558 Y.9387 Z.7337
N4710 X-2.1154 Y1.0264 Z.732
N4720 X-2.0715 Y1.1124 Z.7304
N4730 X-2.0241 Y1.1965 Z.7288
N4740 X-1.9732 Y1.2786 Z.7271
N4750 X-1.9191 Y1.3585 Z.7255
N4760 X-1.8617 Y1.4361 Z.7239
N4770 X-1.8012 Y1.5114 Z.7222
N4780 X-1.7376 Y1.584 Z.7206
N4790 X-1.6711 Y1.654 Z.719
N4800 X-1.6018 Y1.7212 Z.7173
N4810 X-1.5298 Y1.7856 Z.7157
N4820 X-1.4552 Y1.8468 Z.7141
N4830 X-1.3781 Y1.905 Z.7124
N4840 X-1.2987 Y1.96 Z.7108
N4850 X-1.2172 Y2.0117 Z.7092
N4860 X-1.1336 Y2.06 Z.7075
N4870 X-1.048 Y2.1048 Z.7059
N4880 X-.9607 Y2.146 Z.7042
N4890 X-.8718 Y2.1836 Z.7026
N4900 X-.7814 Y2.2176 Z.701
N4910 X-.6897 Y2.2478 Z.6993
N4920 X-.5969 Y2.2742 Z.6977
N4930 X-.503 Y2.2968 Z.6961
N4940 X-.4083 Y2.3155 Z.6944
N4950 X-.3129 Y2.3303 Z.6928
N4960 X-.2169 Y2.3412 Z.6912
N4970 X-.1206 Y2.3482 Z.6895
N4980 X-.0241 Y2.3511 Z.6879
N4990 X.0724 Y2.3501 Z.6863
N5000 X.1688 Y2.3452 Z.6846
N5010 X.265 Y2.3363 Z.683
N5020 X.3607 Y2.3234 Z.6814
N5030 X.4557 Y2.3067 Z.6797
N5040 X.5501 Y2.286 Z.6781
N5050 X.6435 Y2.2615 Z.6765
N5060 X.7358 Y2.2332 Z.6748
N5070 X.8268 Y2.2011 Z.6732
N5080 X.9165 Y2.1653 Z.6716
N5090 X1.0046 Y2.1258 Z.6699
N5100 X1.091 Y2.0828 Z.6683
N5110 X1.1756 Y2.0362 Z.6667
N5120 X1.2582 Y1.9863 Z.665
N5130 X1.3387 Y1.9329 Z.6634
N5140 X1.4169 Y1.8763 Z.6618
N5150 X1.4928 Y1.8166 Z.6601
N5160 X1.5661 Y1.7538 Z.6585
N5170 X1.6368 Y1.688 Z.6569
N5180 X1.7047 Y1.6194 Z.6552
N5190 X1.7698 Y1.548 Z.6536
N5200 X1.8318 Y1.4741 Z.652
N5210 X1.8908 Y1.3976 Z.6503
N5220 X1.9466 Y1.3188 Z.6487
N5230 X1.9991 Y1.2378 Z.6471
N5240 X2.0482 Y1.1547 Z.6454
N5250 X2.0939 Y1.0696 Z.6438
N5260 X2.136 Y.9827 Z.6422
N5270 X2.1746 Y.8942 Z.6405
N5280 X2.2095 Y.8042 Z.6389
N5290 X2.2406 Y.7128 Z.6373
N5300 X2.268 Y.6202 Z.6356
N5310 X2.2915 Y.5266 Z.634
N5320 X2.3112 Y.432 Z.6324
N5330 X2.327 Y.3368 Z.6307
N5340 X2.3389 Y.241 Z.6291
N5350 X2.3468 Y.1447 Z.6275
N5360 X2.3508 Y.0483 Z.6258
N5370 Y-.0483 Z.6242
N5380 X2.3468 Y-.1447 Z.6225
N5390 X2.3389 Y-.241 Z.6209
N5400 X2.327 Y-.3368 Z.6193
N5410 X2.3112 Y-.432 Z.6176
N5420 X2.2915 Y-.5266 Z.616
N5430 X2.268 Y-.6202 Z.6144
N5440 X2.2406 Y-.7128 Z.6127
N5450 X2.2095 Y-.8042 Z.6111
N5460 X2.1746 Y-.8942 Z.6095
N5470 X2.136 Y-.9827 Z.6078
N5480 X2.0939 Y-1.0696 Z.6062
N5490 X2.0482 Y-1.1547 Z.6046
N5500 X1.9991 Y-1.2378 Z.6029
N5510 X1.9466 Y-1.3188 Z.6013
N5520 X1.8908 Y-1.3976 Z.5997
N5530 X1.8318 Y-1.4741 Z.598
N5540 X1.7698 Y-1.548 Z.5964
N5550 X1.7047 Y-1.6194 Z.5948
N5560 X1.6368 Y-1.688 Z.5931
N5570 X1.5661 Y-1.7538 Z.5915
N5580 X1.4928 Y-1.8166 Z.5899
N5590 X1.4169 Y-1.8763 Z.5882
N5600 X1.3387 Y-1.9329 Z.5866
N5610 X1.2582 Y-1.9863 Z.585
N5620 X1.1756 Y-2.0362 Z.5833
N5630 X1.091 Y-2.0828 Z.5817
N5640 X1.0046 Y-2.1258 Z.5801
N5650 X.9165 Y-2.1653 Z.5784
N5660 X.8268 Y-2.2011 Z.5768
N5670 X.7358 Y-2.2332 Z.5752
N5680 X.6435 Y-2.2615 Z.5735
N5690 X.5501 Y-2.286 Z.5719
N5700 X.4557 Y-2.3067 Z.5703
N5710 X.3607 Y-2.3234 Z.5686
N5720 X.265 Y-2.3363 Z.567
N5730 X.1688 Y-2.3452 Z.5654
N5740 X.0724 Y-2.3501 Z.5637
N5750 X-.0241 Y-2.3511 Z.5621
N5760 X-.1206 Y-2.3482 Z.5605
N5770 X-.2169 Y-2.3412 Z.5588
N5780 X-.3129 Y-2.3303 Z.5572
N5790 X-.4083 Y-2.3155 Z.5556
N5800 X-.503 Y-2.2968 Z.5539
N5810 X-.5969 Y-2.2742 Z.5523
N5820 X-.6897 Y-2.2478 Z.5507
N5830 X-.7814 Y-2.2176 Z.549
N5840 X-.8718 Y-2.1836 Z.5474
N5850 X-.9607 Y-2.146 Z.5458
N5860 X-1.048 Y-2.1048 Z.5441
N5870 X-1.1336 Y-2.06 Z.5425
N5880 X-1.2172 Y-2.0117 Z.5408
N5890 X-1.2987 Y-1.96 Z.5392
N5900 X-1.3781 Y-1.905 Z.5376
N5910 X-1.4552 Y-1.8468 Z.5359
N5920 X-1.5298 Y-1.7856 Z.5343
N5930 X-1.6018 Y-1.7212 Z.5327
N5940 X-1.6711 Y-1.654 Z.531
N5950 X-1.7376 Y-1.584 Z.5294
N5960 X-1.8012 Y-1.5114 Z.5278
N5970 X-1.8617 Y-1.4361 Z.5261
N5980 X-1.9191 Y-1.3585 Z.5245
N5990 X-1.9732 Y-1.2786 Z.5229
N6000 X-2.0241 Y-1.1965 Z.5212
N6010 X-2.0715 Y-1.1124 Z.5196
N6020 X-2.1154 Y-1.0264 Z.518
N6030 X-2.1558 Y-.9387 Z.5163
N6040 X-2.1925 Y-.8494 Z.5147
N6050 X-2.2255 Y-.7586 Z.5131
N6060 X-2.2548 Y-.6666 Z.5114
N6070 X-2.2802 Y-.5735 Z.5098
N6080 X-2.3019 Y-.4794 Z.5082
N6090 X-2.3196 Y-.3845 Z.5065
N6100 X-2.3334 Y-.2889 Z.5049
N6110 X-2.3433 Y-.1929 Z.5033
N6120 X-2.3493 Y-.0965 Z.5016
N6130 X-2.3512 Y0. Z.5
N6140 X-2.3493 Y.0965 Z.4984
N6150 X-2.3433 Y.1929 Z.4967
N6160 X-2.3334 Y.2889 Z.4951
N6170 X-2.3196 Y.3845 Z.4935
N6180 X-2.3019 Y.4794 Z.4918
N6190 X-2.2802 Y.5735 Z.4902
N6200 X-2.2548 Y.6666 Z.4886
N6210 X-2.2255 Y.7586 Z.4869
N6220 X-2.1925 Y.8494 Z.4853
N6230 X-2.1558 Y.9387 Z.4837
N6240 X-2.1154 Y1.0264 Z.482
N6250 X-2.0715 Y1.1124 Z.4804
N6260 X-2.0241 Y1.1965 Z.4788
N6270 X-1.9732 Y1.2786 Z.4771
N6280 X-1.9191 Y1.3585 Z.4755
N6290 X-1.8617 Y1.4361 Z.4739
N6300 X-1.8012 Y1.5114 Z.4722
N6310 X-1.7376 Y1.584 Z.4706
N6320 X-1.6711 Y1.654 Z.469
N6330 X-1.6018 Y1.7212 Z.4673
N6340 X-1.5298 Y1.7856 Z.4657
N6350 X-1.4552 Y1.8468 Z.4641
N6360 X-1.3781 Y1.905 Z.4624
N6370 X-1.2987 Y1.96 Z.4608
N6380 X-1.2172 Y2.0117 Z.4592
N6390 X-1.1336 Y2.06 Z.4575
N6400 X-1.048 Y2.1048 Z.4559
N6410 X-.9607 Y2.146 Z.4542
N6420 X-.8718 Y2.1836 Z.4526
N6430 X-.7814 Y2.2176 Z.451
N6440 X-.6897 Y2.2478 Z.4493
N6450 X-.5969 Y2.2742 Z.4477
N6460 X-.503 Y2.2968 Z.4461
N6470 X-.4083 Y2.3155 Z.4444
N6480 X-.3129 Y2.3303 Z.4428
N6490 X-.2169 Y2.3412 Z.4412
N6500 X-.1206 Y2.3482 Z.4395
N6510 X-.0241 Y2.3511 Z.4379
N6520 X.0724 Y2.3501 Z.4363
N6530 X.1688 Y2.3452 Z.4346
N6540 X.265 Y2.3363 Z.433
N6550 X.3607 Y2.3234 Z.4314
N6560 X.4557 Y2.3067 Z.4297
N6570 X.5501 Y2.286 Z.4281
N6580 X.6435 Y2.2615 Z.4265
N6590 X.7358 Y2.2332 Z.4248
N6600 X.8268 Y2.2011 Z.4232
N6610 X.9165 Y2.1653 Z.4216
N6620 X1.0046 Y2.1258 Z.4199
N6630 X1.091 Y2.0828 Z.4183
N6640 X1.1756 Y2.0362 Z.4167
N6650 X1.2582 Y1.9863 Z.415
N6660 X1.3387 Y1.9329 Z.4134
N6670 X1.4169 Y1.8763 Z.4118
N6680 X1.4928 Y1.8166 Z.4101
N6690 X1.5661 Y1.7538 Z.4085
N6700 X1.6368 Y1.688 Z.4069
N6710 X1.7047 Y1.6194 Z.4052
N6720 X1.7698 Y1.548 Z.4036
N6730 X1.8318 Y1.4741 Z.402
N6740 X1.8908 Y1.3976 Z.4003
N6750 X1.9466 Y1.3188 Z.3987
N6760 X1.9991 Y1.2378 Z.3971
N6770 X2.0482 Y1.1547 Z.3954
N6780 X2.0939 Y1.0696 Z.3938
N6790 X2.136 Y.9827 Z.3922
N6800 X2.1746 Y.8942 Z.3905
N6810 X2.2095 Y.8042 Z.3889
N6820 X2.2406 Y.7128 Z.3873
N6830 X2.268 Y.6202 Z.3856
N6840 X2.2915 Y.5266 Z.384
N6850 X2.3112 Y.432 Z.3824
N6860 X2.327 Y.3368 Z.3807
N6870 X2.3389 Y.241 Z.3791
N6880 X2.3468 Y.1447 Z.3775
N6890 X2.3508 Y.0483 Z.3758
N6900 Y-.0483 Z.3742
N6910 X2.3468 Y-.1447 Z.3725
N6920 X2.3389 Y-.241 Z.3709
N6930 X2.327 Y-.3368 Z.3693
N6940 X2.3112 Y-.432 Z.3676
N6950 X2.2915 Y-.5266 Z.366
N6960 X2.268 Y-.6202 Z.3644
N6970 X2.2406 Y-.7128 Z.3627
N6980 X2.2095 Y-.8042 Z.3611
N6990 X2.1746 Y-.8942 Z.3595
N7000 X2.136 Y-.9827 Z.3578
N7010 X2.0939 Y-1.0696 Z.3562
N7020 X2.0482 Y-1.1547 Z.3546
N7030 X1.9991 Y-1.2378 Z.3529
N7040 X1.9466 Y-1.3188 Z.3513
N7050 X1.8908 Y-1.3976 Z.3497
N7060 X1.8318 Y-1.4741 Z.348
N7070 X1.7698 Y-1.548 Z.3464
N7080 X1.7047 Y-1.6194 Z.3448
N7090 X1.6368 Y-1.688 Z.3431
N7100 X1.5661 Y-1.7538 Z.3415
N7110 X1.4928 Y-1.8166 Z.3399
N7120 X1.4169 Y-1.8763 Z.3382
N7130 X1.3387 Y-1.9329 Z.3366
N7140 X1.2582 Y-1.9863 Z.335
N7150 X1.1756 Y-2.0362 Z.3333
N7160 X1.091 Y-2.0828 Z.3317
N7170 X1.0046 Y-2.1258 Z.3301
N7180 X.9165 Y-2.1653 Z.3284
N7190 X.8268 Y-2.2011 Z.3268
N7200 X.7358 Y-2.2332 Z.3252
N7210 X.6435 Y-2.2615 Z.3235
N7220 X.5501 Y-2.286 Z.3219
N7230 X.4557 Y-2.3067 Z.3203
N7240 X.3607 Y-2.3234 Z.3186
N7250 X.265 Y-2.3363 Z.317
N7260 X.1688 Y-2.3452 Z.3154
N7270 X.0724 Y-2.3501 Z.3137
N7280 X-.0241 Y-2.3511 Z.3121
N7290 X-.1206 Y-2.3482 Z.3105
N7300 X-.2169 Y-2.3412 Z.3088
N7310 X-.3129 Y-2.3303 Z.3072
N7320 X-.4083 Y-2.3155 Z.3056
N7330 X-.503 Y-2.2968 Z.3039
N7340 X-.5969 Y-2.2742 Z.3023
N7350 X-.6897 Y-2.2478 Z.3007
N7360 X-.7814 Y-2.2176 Z.299
N7370 X-.8718 Y-2.1836 Z.2974
N7380 X-.9607 Y-2.146 Z.2958
N7390 X-1.048 Y-2.1048 Z.2941
N7400 X-1.1336 Y-2.06 Z.2925
N7410 X-1.2172 Y-2.0117 Z.2908
N7420 X-1.2987 Y-1.96 Z.2892
N7430 X-1.3781 Y-1.905 Z.2876
N7440 X-1.4552 Y-1.8468 Z.2859
N7450 X-1.5298 Y-1.7856 Z.2843
N7460 X-1.6018 Y-1.7212 Z.2827
N7470 X-1.6711 Y-1.654 Z.281
N7480 X-1.7376 Y-1.584 Z.2794
N7490 X-1.8012 Y-1.5114 Z.2778
N7500 X-1.8617 Y-1.4361 Z.2761
N7510 X-1.9191 Y-1.3585 Z.2745
N7520 X-1.9732 Y-1.2786 Z.2729
N7530 X-2.0241 Y-1.1965 Z.2712
N7540 X-2.0715 Y-1.1124 Z.2696
N7550 X-2.1154 Y-1.0264 Z.268
N7560 X-2.1558 Y-.9387 Z.2663
N7570 X-2.1925 Y-.8494 Z.2647
N7580 X-2.2255 Y-.7586 Z.2631
N7590 X-2.2548 Y-.6666 Z.2614
N7600 X-2.2802 Y-.5735 Z.2598
N7610 X-2.3019 Y-.4794 Z.2582
N7620 X-2.3196 Y-.3845 Z.2565
N7630 X-2.3334 Y-.2889 Z.2549
N7640 X-2.3433 Y-.1929 Z.2533
N7650 X-2.3493 Y-.0965 Z.2516
N7660 X-2.3512 Y0. Z.25
N7670 X-2.3493 Y.0965 Z.2484
N7680 X-2.3433 Y.1929 Z.2467
N7690 X-2.3334 Y.2889 Z.2451
N7700 X-2.3196 Y.3845 Z.2435
N7710 X-2.3019 Y.4794 Z.2418
N7720 X-2.2802 Y.5735 Z.2402
N7730 X-2.2548 Y.6666 Z.2386
N7740 X-2.2255 Y.7586 Z.2369
N7750 X-2.1925 Y.8494 Z.2353
N7760 X-2.1558 Y.9387 Z.2337
N7770 X-2.1154 Y1.0264 Z.232
N7780 X-2.0715 Y1.1124 Z.2304
N7790 X-2.0241 Y1.1965 Z.2288
N7800 X-1.9732 Y1.2786 Z.2271
N7810 X-1.9191 Y1.3585 Z.2255
N7820 X-1.8617 Y1.4361 Z.2239
N7830 X-1.8012 Y1.5114 Z.2222
N7840 X-1.7376 Y1.584 Z.2206
N7850 X-1.6711 Y1.654 Z.219
N7860 X-1.6018 Y1.7212 Z.2173
N7870 X-1.5298 Y1.7856 Z.2157
N7880 X-1.4552 Y1.8468 Z.2141
N7890 X-1.3781 Y1.905 Z.2124
N7900 X-1.2987 Y1.96 Z.2108
N7910 X-1.2172 Y2.0117 Z.2092
N7920 X-1.1336 Y2.06 Z.2075
N7930 X-1.048 Y2.1048 Z.2059
N7940 X-.9607 Y2.146 Z.2042
N7950 X-.8718 Y2.1836 Z.2026
N7960 X-.7814 Y2.2176 Z.201
N7970 X-.6897 Y2.2478 Z.1993
N7980 X-.5969 Y2.2742 Z.1977
N7990 X-.503 Y2.2968 Z.1961
N8000 X-.4083 Y2.3155 Z.1944
N8010 X-.3129 Y2.3303 Z.1928
N8020 X-.2169 Y2.3412 Z.1912
N8030 X-.1206 Y2.3482 Z.1895
N8040 X-.0241 Y2.3511 Z.1879
N8050 X.0724 Y2.3501 Z.1863
N8060 X.1688 Y2.3452 Z.1846
N8070 X.265 Y2.3363 Z.183
N8080 X.3607 Y2.3234 Z.1814
N8090 X.4557 Y2.3067 Z.1797
N8100 X.5501 Y2.286 Z.1781
N8110 X.6435 Y2.2615 Z.1765
N8120 X.7358 Y2.2332 Z.1748
N8130 X.8268 Y2.2011 Z.1732
N8140 X.9165 Y2.1653 Z.1716
N8150 X1.0046 Y2.1258 Z.1699
N8160 X1.091 Y2.0828 Z.1683
N8170 X1.1756 Y2.0362 Z.1667
N8180 X1.2582 Y1.9863 Z.165
N8190 X1.3387 Y1.9329 Z.1634
N8200 X1.4169 Y1.8763 Z.1618
N8210 X1.4928 Y1.8166 Z.1601
N8220 X1.5661 Y1.7538 Z.1585
N8230 X1.6368 Y1.688 Z.1569
N8240 X1.7047 Y1.6194 Z.1552
N8250 X1.7698 Y1.548 Z.1536
N8260 X1.8318 Y1.4741 Z.152
N8270 X1.8908 Y1.3976 Z.1503
N8280 X1.9466 Y1.3188 Z.1487
N8290 X1.9991 Y1.2378 Z.1471
N8300 X2.0482 Y1.1547 Z.1454
N8310 X2.0939 Y1.0696 Z.1438
N8320 X2.136 Y.9827 Z.1422
N8330 X2.1746 Y.8942 Z.1405
N8340 X2.2095 Y.8042 Z.1389
N8350 X2.2406 Y.7128 Z.1373
N8360 X2.268 Y.6202 Z.1356
N8370 X2.2915 Y.5266 Z.134
N8380 X2.3112 Y.432 Z.1324
N8390 X2.327 Y.3368 Z.1307
N8400 X2.3389 Y.241 Z.1291
N8410 X2.3468 Y.1447 Z.1275
N8420 X2.3508 Y.0483 Z.1258
N8430 Y-.0483 Z.1242
N8440 X2.3468 Y-.1447 Z.1225
N8450 X2.3389 Y-.241 Z.1209
N8460 X2.327 Y-.3368 Z.1193
N8470 X2.3112 Y-.432 Z.1176
N8480 X2.2915 Y-.5266 Z.116
N8490 X2.268 Y-.6202 Z.1144
N8500 X2.2406 Y-.7128 Z.1127
N8510 X2.2095 Y-.8042 Z.1111
N8520 X2.1746 Y-.8942 Z.1095
N8530 X2.136 Y-.9827 Z.1078
N8540 X2.0939 Y-1.0696 Z.1062
N8550 X2.0482 Y-1.1547 Z.1046
N8560 X1.9991 Y-1.2378 Z.1029
N8570 X1.9466 Y-1.3188 Z.1013
N8580 X1.8908 Y-1.3976 Z.0997
N8590 X1.8318 Y-1.4741 Z.098
N8600 X1.7698 Y-1.548 Z.0964
N8610 X1.7047 Y-1.6194 Z.0948
N8620 X1.6368 Y-1.688 Z.0931
N8630 X1.5661 Y-1.7538 Z.0915
N8640 X1.4928 Y-1.8166 Z.0899
N8650 X1.4169 Y-1.8763 Z.0882
N8660 X1.3387 Y-1.9329 Z.0866
N8670 X1.2582 Y-1.9863 Z.085
N8680 X1.1756 Y-2.0362 Z.0833
N8690 X1.091 Y-2.0828 Z.0817
N8700 X1.0046 Y-2.1258 Z.0801
N8710 X.9165 Y-2.1653 Z.0784
N8720 X.8268 Y-2.2011 Z.0768
N8730 X.7358 Y-2.2332 Z.0752
N8740 X.6435 Y-2.2615 Z.0735
N8750 X.5501 Y-2.286 Z.0719
N8760 X.4557 Y-2.3067 Z.0703
N8770 X.3607 Y-2.3234 Z.0686
N8780 X.265 Y-2.3363 Z.067
N8790 X.1688 Y-2.3452 Z.0654
N8800 X.0724 Y-2.3501 Z.0637
N8810 X-.0241 Y-2.3511 Z.0621
N8820 X-.1206 Y-2.3482 Z.0605
N8830 X-.2169 Y-2.3412 Z.0588
N8840 X-.3129 Y-2.3303 Z.0572
N8850 X-.4083 Y-2.3155 Z.0556
N8860 X-.503 Y-2.2968 Z.0539
N8870 X-.5969 Y-2.2742 Z.0523
N8880 X-.6897 Y-2.2478 Z.0507
N8890 X-.7814 Y-2.2176 Z.049
N8900 X-.8718 Y-2.1836 Z.0474
N8910 X-.9607 Y-2.146 Z.0458
N8920 X-1.048 Y-2.1048 Z.0441
N8930 X-1.1336 Y-2.06 Z.0425
N8940 X-1.2172 Y-2.0117 Z.0408
N8950 X-1.2987 Y-1.96 Z.0392
N8960 X-1.3781 Y-1.905 Z.0376
N8970 X-1.4552 Y-1.8468 Z.0359
N8980 X-1.5298 Y-1.7856 Z.0343
N8990 X-1.6018 Y-1.7212 Z.0327
N9000 X-1.6711 Y-1.654 Z.031
N9010 X-1.7376 Y-1.584 Z.0294
N9020 X-1.8012 Y-1.5114 Z.0278
N9030 X-1.8617 Y-1.4361 Z.0261
N9040 X-1.9191 Y-1.3585 Z.0245
N9050 X-1.9732 Y-1.2786 Z.0229
N9060 X-2.0241 Y-1.1965 Z.0212
N9070 X-2.0715 Y-1.1124 Z.0196
N9080 X-2.1154 Y-1.0264 Z.018
N9090 X-2.1558 Y-.9387 Z.0163
N9100 X-2.1925 Y-.8494 Z.0147
N9110 X-2.2255 Y-.7586 Z.0131
N9120 X-2.2548 Y-.6666 Z.0114
N9130 X-2.2802 Y-.5735 Z.0098
N9140 X-2.3019 Y-.4794 Z.0082
N9150 X-2.3196 Y-.3845 Z.0065
N9160 X-2.3334 Y-.2889 Z.0049
N9170 X-2.3433 Y-.1929 Z.0033
N9180 X-2.3493 Y-.0965 Z.0016
N9190 X-2.3512 Y0. Z0.
; N9200 G2 X0. Y2.3512 I2.3512 J0.
; N9210 X2.3512 Y0. I0. J-2.3512
; N9220 X0. Y-2.3512 I-2.3512 J0.
; N9230 X-2.3512 Y0. I0. J2.3512
N9240 G1 X-2.5513
N9250 Z.2
N9260 G0 Z.25
N9270 Z1.7
N9280 X-2.3413
N9290 G1 Z1.5 ;F6.42
N9300 X-2.3393 Y.0961 Z1.4984
N9310 X-2.3334 Y.1921 Z1.4967
N9320 X-2.3235 Y.2877 Z1.4951
N9330 X-2.3097 Y.3829 Z1.4935
N9340 X-2.2921 Y.4774 Z1.4918
N9350 X-2.2705 Y.5711 Z1.4902
N9360 X-2.2452 Y.6638 Z1.4886
N9370 X-2.216 Y.7554 Z1.4869
N9380 X-2.1832 Y.8458 Z1.4853
N9390 X-2.1466 Y.9347 Z1.4837
N9400 X-2.1064 Y1.022 Z1.482
N9410 X-2.0627 Y1.1076 Z1.4804
N9420 X-2.0155 Y1.1914 Z1.4788
N9430 X-1.9648 Y1.2731 Z1.4771
N9440 X-1.9109 Y1.3527 Z1.4755
N9450 X-1.8538 Y1.43 Z1.4739
N9460 X-1.7935 Y1.5049 Z1.4722
N9470 X-1.7302 Y1.5773 Z1.4706
N9480 X-1.664 Y1.647 Z1.469
N9490 X-1.595 Y1.7139 Z1.4673
N9500 X-1.5233 Y1.778 Z1.4657
N9510 X-1.449 Y1.839 Z1.4641
N9520 X-1.3723 Y1.8969 Z1.4624
N9530 X-1.2932 Y1.9517 Z1.4608
N9540 X-1.212 Y2.0031 Z1.4592
N9550 X-1.1287 Y2.0512 Z1.4575
N9560 X-1.0436 Y2.0958 Z1.4559
N9570 X-.9567 Y2.1369 Z1.4542
N9580 X-.8681 Y2.1744 Z1.4526
N9590 X-.7781 Y2.2082 Z1.451
N9600 X-.6868 Y2.2382 Z1.4493
N9610 X-.5943 Y2.2646 Z1.4477
N9620 X-.5009 Y2.287 Z1.4461
N9630 X-.4066 Y2.3057 Z1.4444
N9640 X-.3116 Y2.3204 Z1.4428
N9650 X-.216 Y2.3313 Z1.4412
N9660 X-.1201 Y2.3382 Z1.4395
N9670 X-.024 Y2.3411 Z1.4379
N9680 X.0721 Y2.3401 Z1.4363
N9690 X.1681 Y2.3352 Z1.4346
N9700 X.2638 Y2.3263 Z1.433
N9710 X.3591 Y2.3135 Z1.4314
N9720 X.4538 Y2.2968 Z1.4297
N9730 X.5477 Y2.2763 Z1.4281
N9740 X.6407 Y2.2519 Z1.4265
N9750 X.7326 Y2.2237 Z1.4248
N9760 X.8233 Y2.1917 Z1.4232
N9770 X.9126 Y2.1561 Z1.4216
N9780 X1.0003 Y2.1168 Z1.4199
N9790 X1.0864 Y2.0739 Z1.4183
N9800 X1.1706 Y2.0276 Z1.4167
N9810 X1.2529 Y1.9778 Z1.415
N9820 X1.333 Y1.9247 Z1.4134
N9830 X1.4109 Y1.8684 Z1.4118
N9840 X1.4864 Y1.8089 Z1.4101
N9850 X1.5594 Y1.7463 Z1.4085
N9860 X1.6298 Y1.6808 Z1.4069
N9870 X1.6975 Y1.6125 Z1.4052
N9880 X1.7622 Y1.5414 Z1.4036
N9890 X1.824 Y1.4678 Z1.402
N9900 X1.8827 Y1.3917 Z1.4003
N9910 X1.9383 Y1.3132 Z1.3987
N9920 X1.9906 Y1.2325 Z1.3971
N9930 X2.0395 Y1.1497 Z1.3954
N9940 X2.085 Y1.065 Z1.3938
N9950 X2.1269 Y.9785 Z1.3922
N9960 X2.1653 Y.8904 Z1.3905
N9970 X2.2001 Y.8008 Z1.3889
N9980 X2.2311 Y.7098 Z1.3873
N9990 X2.2583 Y.6176 Z1.3856
N100 X2.2818 Y.5243 Z1.384
N110 X2.3014 Y.4302 Z1.3824
N120 X2.3171 Y.3354 Z1.3807
N130 X2.3289 Y.2399 Z1.3791
N140 X2.3368 Y.1441 Z1.3775
N150 X2.3408 Y.0481 Z1.3758
N160 Y-.0481 Z1.3742
N170 X2.3368 Y-.1441 Z1.3725
N180 X2.3289 Y-.2399 Z1.3709
N190 X2.3171 Y-.3354 Z1.3693
N200 X2.3014 Y-.4302 Z1.3676
N210 X2.2818 Y-.5243 Z1.366
N220 X2.2583 Y-.6176 Z1.3644
N230 X2.2311 Y-.7098 Z1.3627
N240 X2.2001 Y-.8008 Z1.3611
N250 X2.1653 Y-.8904 Z1.3595
N260 X2.1269 Y-.9785 Z1.3578
N270 X2.085 Y-1.065 Z1.3562
N280 X2.0395 Y-1.1497 Z1.3546
N290 X1.9906 Y-1.2325 Z1.3529
N300 X1.9383 Y-1.3132 Z1.3513
N310 X1.8827 Y-1.3917 Z1.3497
N320 X1.824 Y-1.4678 Z1.348
N330 X1.7622 Y-1.5414 Z1.3464
N340 X1.6975 Y-1.6125 Z1.3448
N350 X1.6298 Y-1.6808 Z1.3431
N360 X1.5594 Y-1.7463 Z1.3415
N370 X1.4864 Y-1.8089 Z1.3399
N380 X1.4109 Y-1.8684 Z1.3382
N390 X1.333 Y-1.9247 Z1.3366
N400 X1.2529 Y-1.9778 Z1.335
N410 X1.1706 Y-2.0276 Z1.3333
N420 X1.0864 Y-2.0739 Z1.3317
N430 X1.0003 Y-2.1168 Z1.3301
N440 X.9126 Y-2.1561 Z1.3284
N450 X.8233 Y-2.1917 Z1.3268
N460 X.7326 Y-2.2237 Z1.3252
N470 X.6407 Y-2.2519 Z1.3235
N480 X.5477 Y-2.2763 Z1.3219
N490 X.4538 Y-2.2968 Z1.3203
N500 X.3591 Y-2.3135 Z1.3186
N510 X.2638 Y-2.3263 Z1.317
N520 X.1681 Y-2.3352 Z1.3154
N530 X.0721 Y-2.3401 Z1.3137
N540 X-.024 Y-2.3411 Z1.3121
N550 X-.1201 Y-2.3382 Z1.3105
N560 X-.216 Y-2.3313 Z1.3088
N570 X-.3116 Y-2.3204 Z1.3072
N580 X-.4066 Y-2.3057 Z1.3056
N590 X-.5009 Y-2.287 Z1.3039
N600 X-.5943 Y-2.2646 Z1.3023
N610 X-.6868 Y-2.2382 Z1.3007
N620 X-.7781 Y-2.2082 Z1.299
N630 X-.8681 Y-2.1744 Z1.2974
N640 X-.9567 Y-2.1369 Z1.2958
N650 X-1.0436 Y-2.0958 Z1.2941
N660 X-1.1287 Y-2.0512 Z1.2925
N670 X-1.212 Y-2.0031 Z1.2908
N680 X-1.2932 Y-1.9517 Z1.2892
N690 X-1.3723 Y-1.8969 Z1.2876
N700 X-1.449 Y-1.839 Z1.2859
N710 X-1.5233 Y-1.778 Z1.2843
N720 X-1.595 Y-1.7139 Z1.2827
N730 X-1.664 Y-1.647 Z1.281
N740 X-1.7302 Y-1.5773 Z1.2794
N750 X-1.7935 Y-1.5049 Z1.2778
N760 X-1.8538 Y-1.43 Z1.2761
N770 X-1.9109 Y-1.3527 Z1.2745
N780 X-1.9648 Y-1.2731 Z1.2729
N790 X-2.0155 Y-1.1914 Z1.2712
N800 X-2.0627 Y-1.1076 Z1.2696
N810 X-2.1064 Y-1.022 Z1.268
N820 X-2.1466 Y-.9347 Z1.2663
N830 X-2.1832 Y-.8458 Z1.2647
N840 X-2.216 Y-.7554 Z1.2631
N850 X-2.2452 Y-.6638 Z1.2614
N860 X-2.2705 Y-.5711 Z1.2598
N870 X-2.2921 Y-.4774 Z1.2582
N880 X-2.3097 Y-.3829 Z1.2565
N890 X-2.3235 Y-.2877 Z1.2549
N900 X-2.3334 Y-.1921 Z1.2533
N910 X-2.3393 Y-.0961 Z1.2516
N920 X-2.3413 Y0. Z1.25
N930 X-2.3393 Y.0961 Z1.2484
N940 X-2.3334 Y.1921 Z1.2467
N950 X-2.3235 Y.2877 Z1.2451
N960 X-2.3097 Y.3829 Z1.2435
N970 X-2.2921 Y.4774 Z1.2418
N980 X-2.2705 Y.5711 Z1.2402
N990 X-2.2452 Y.6638 Z1.2386
N1000 X-2.216 Y.7554 Z1.2369
N1010 X-2.1832 Y.8458 Z1.2353
N1020 X-2.1466 Y.9347 Z1.2337
N1030 X-2.1064 Y1.022 Z1.232
N1040 X-2.0627 Y1.1076 Z1.2304
N1050 X-2.0155 Y1.1914 Z1.2288
N1060 X-1.9648 Y1.2731 Z1.2271
N1070 X-1.9109 Y1.3527 Z1.2255
N1080 X-1.8538 Y1.43 Z1.2239
N1090 X-1.7935 Y1.5049 Z1.2222
N1100 X-1.7302 Y1.5773 Z1.2206
N1110 X-1.664 Y1.647 Z1.219
N1120 X-1.595 Y1.7139 Z1.2173
N1130 X-1.5233 Y1.778 Z1.2157
N1140 X-1.449 Y1.839 Z1.2141
N1150 X-1.3723 Y1.8969 Z1.2124
N1160 X-1.2932 Y1.9517 Z1.2108
N1170 X-1.212 Y2.0031 Z1.2092
N1180 X-1.1287 Y2.0512 Z1.2075
N1190 X-1.0436 Y2.0958 Z1.2059
N1200 X-.9567 Y2.1369 Z1.2042
N1210 X-.8681 Y2.1744 Z1.2026
N1220 X-.7781 Y2.2082 Z1.201
N1230 X-.6868 Y2.2382 Z1.1993
N1240 X-.5943 Y2.2646 Z1.1977
N1250 X-.5009 Y2.287 Z1.1961
N1260 X-.4066 Y2.3057 Z1.1944
N1270 X-.3116 Y2.3204 Z1.1928
N1280 X-.216 Y2.3313 Z1.1912
N1290 X-.1201 Y2.3382 Z1.1895
N1300 X-.024 Y2.3411 Z1.1879
N1310 X.0721 Y2.3401 Z1.1863
N1320 X.1681 Y2.3352 Z1.1846
N1330 X.2638 Y2.3263 Z1.183
N1340 X.3591 Y2.3135 Z1.1814
N1350 X.4538 Y2.2968 Z1.1797
N1360 X.5477 Y2.2763 Z1.1781
N1370 X.6407 Y2.2519 Z1.1765
N1380 X.7326 Y2.2237 Z1.1748
N1390 X.8233 Y2.1917 Z1.1732
N1400 X.9126 Y2.1561 Z1.1716
N1410 X1.0003 Y2.1168 Z1.1699
N1420 X1.0864 Y2.0739 Z1.1683
N1430 X1.1706 Y2.0276 Z1.1667
N1440 X1.2529 Y1.9778 Z1.165
N1450 X1.333 Y1.9247 Z1.1634
N1460 X1.4109 Y1.8684 Z1.1618
N1470 X1.4864 Y1.8089 Z1.1601
N1480 X1.5594 Y1.7463 Z1.1585
N1490 X1.6298 Y1.6808 Z1.1569
N1500 X1.6975 Y1.6125 Z1.1552
N1510 X1.7622 Y1.5414 Z1.1536
N1520 X1.824 Y1.4678 Z1.152
N1530 X1.8827 Y1.3917 Z1.1503
N1540 X1.9383 Y1.3132 Z1.1487
N1550 X1.9906 Y1.2325 Z1.1471
N1560 X2.0395 Y1.1497 Z1.1454
N1570 X2.085 Y1.065 Z1.1438
N1580 X2.1269 Y.9785 Z1.1422
N1590 X2.1653 Y.8904 Z1.1405
N1600 X2.2001 Y.8008 Z1.1389
N1610 X2.2311 Y.7098 Z1.1373
N1620 X2.2583 Y.6176 Z1.1356
N1630 X2.2818 Y.5243 Z1.134
N1640 X2.3014 Y.4302 Z1.1324
N1650 X2.3171 Y.3354 Z1.1307
N1660 X2.3289 Y.2399 Z1.1291
N1670 X2.3368 Y.1441 Z1.1275
N1680 X2.3408 Y.0481 Z1.1258
N1690 Y-.0481 Z1.1242
N1700 X2.3368 Y-.1441 Z1.1225
N1710 X2.3289 Y-.2399 Z1.1209
N1720 X2.3171 Y-.3354 Z1.1193
N1730 X2.3014 Y-.4302 Z1.1176
N1740 X2.2818 Y-.5243 Z1.116
N1750 X2.2583 Y-.6176 Z1.1144
N1760 X2.2311 Y-.7098 Z1.1127
N1770 X2.2001 Y-.8008 Z1.1111
N1780 X2.1653 Y-.8904 Z1.1095
N1790 X2.1269 Y-.9785 Z1.1078
N1800 X2.085 Y-1.065 Z1.1062
N1810 X2.0395 Y-1.1497 Z1.1046
N1820 X1.9906 Y-1.2325 Z1.1029
N1830 X1.9383 Y-1.3132 Z1.1013
N1840 X1.8827 Y-1.3917 Z1.0997
N1850 X1.824 Y-1.4678 Z1.098
N1860 X1.7622 Y-1.5414 Z1.0964
N1870 X1.6975 Y-1.6125 Z1.0948
N1880 X1.6298 Y-1.6808 Z1.0931
N1890 X1.5594 Y-1.7463 Z1.0915
N1900 X1.4864 Y-1.8089 Z1.0899
N1910 X1.4109 Y-1.8684 Z1.0882
N1920 X1.333 Y-1.9247 Z1.0866
N1930 X1.2529 Y-1.9778 Z1.085
N1940 X1.1706 Y-2.0276 Z1.0833
N1950 X1.0864 Y-2.0739 Z1.0817
N1960 X1.0003 Y-2.1168 Z1.0801
N1970 X.9126 Y-2.1561 Z1.0784
N1980 X.8233 Y-2.1917 Z1.0768
N1990 X.7326 Y-2.2237 Z1.0752
N2000 X.6407 Y-2.2519 Z1.0735
N2010 X.5477 Y-2.2763 Z1.0719
N2020 X.4538 Y-2.2968 Z1.0703
N2030 X.3591 Y-2.3135 Z1.0686
N2040 X.2638 Y-2.3263 Z1.067
N2050 X.1681 Y-2.3352 Z1.0654
N2060 X.0721 Y-2.3401 Z1.0637
N2070 X-.024 Y-2.3411 Z1.0621
N2080 X-.1201 Y-2.3382 Z1.0605
N2090 X-.216 Y-2.3313 Z1.0588
N2100 X-.3116 Y-2.3204 Z1.0572
N2110 X-.4066 Y-2.3057 Z1.0556
N2120 X-.5009 Y-2.287 Z1.0539
N2130 X-.5943 Y-2.2646 Z1.0523
N2140 X-.6868 Y-2.2382 Z1.0507
N2150 X-.7781 Y-2.2082 Z1.049
N2160 X-.8681 Y-2.1744 Z1.0474
N2170 X-.9567 Y-2.1369 Z1.0458
N2180 X-1.0436 Y-2.0958 Z1.0441
N2190 X-1.1287 Y-2.0512 Z1.0425
N2200 X-1.212 Y-2.0031 Z1.0408
N2210 X-1.2932 Y-1.9517 Z1.0392
N2220 X-1.3723 Y-1.8969 Z1.0376
N2230 X-1.449 Y-1.839 Z1.0359
N2240 X-1.5233 Y-1.778 Z1.0343
N2250 X-1.595 Y-1.7139 Z1.0327
N2260 X-1.664 Y-1.647 Z1.031
N2270 X-1.7302 Y-1.5773 Z1.0294
N2280 X-1.7935 Y-1.5049 Z1.0278
N2290 X-1.8538 Y-1.43 Z1.0261
N2300 X-1.9109 Y-1.3527 Z1.0245
N2310 X-1.9648 Y-1.2731 Z1.0229
N2320 X-2.0155 Y-1.1914 Z1.0212
N2330 X-2.0627 Y-1.1076 Z1.0196
N2340 X-2.1064 Y-1.022 Z1.018
N2350 X-2.1466 Y-.9347 Z1.0163
N2360 X-2.1832 Y-.8458 Z1.0147
N2370 X-2.216 Y-.7554 Z1.0131
N2380 X-2.2452 Y-.6638 Z1.0114
N2390 X-2.2705 Y-.5711 Z1.0098
N2400 X-2.2921 Y-.4774 Z1.0082
N2410 X-2.3097 Y-.3829 Z1.0065
N2420 X-2.3235 Y-.2877 Z1.0049
N2430 X-2.3334 Y-.1921 Z1.0033
N2440 X-2.3393 Y-.0961 Z1.0016
N2450 X-2.3413 Y0. Z1.
N2460 X-2.3393 Y.0961 Z.9984
N2470 X-2.3334 Y.1921 Z.9967
N2480 X-2.3235 Y.2877 Z.9951
N2490 X-2.3097 Y.3829 Z.9935
N2500 X-2.2921 Y.4774 Z.9918
N2510 X-2.2705 Y.5711 Z.9902
N2520 X-2.2452 Y.6638 Z.9886
N2530 X-2.216 Y.7554 Z.9869
N2540 X-2.1832 Y.8458 Z.9853
N2550 X-2.1466 Y.9347 Z.9837
N2560 X-2.1064 Y1.022 Z.982
N2570 X-2.0627 Y1.1076 Z.9804
N2580 X-2.0155 Y1.1914 Z.9788
N2590 X-1.9648 Y1.2731 Z.9771
N2600 X-1.9109 Y1.3527 Z.9755
N2610 X-1.8538 Y1.43 Z.9739
N2620 X-1.7935 Y1.5049 Z.9722
N2630 X-1.7302 Y1.5773 Z.9706
N2640 X-1.664 Y1.647 Z.969
N2650 X-1.595 Y1.7139 Z.9673
N2660 X-1.5233 Y1.778 Z.9657
N2670 X-1.449 Y1.839 Z.9641
N2680 X-1.3723 Y1.8969 Z.9624
N2690 X-1.2932 Y1.9517 Z.9608
N2700 X-1.212 Y2.0031 Z.9592
N2710 X-1.1287 Y2.0512 Z.9575
N2720 X-1.0436 Y2.0958 Z.9559
N2730 X-.9567 Y2.1369 Z.9542
N2740 X-.8681 Y2.1744 Z.9526
N2750 X-.7781 Y2.2082 Z.951
N2760 X-.6868 Y2.2382 Z.9493
N2770 X-.5943 Y2.2646 Z.9477
N2780 X-.5009 Y2.287 Z.9461
N2790 X-.4066 Y2.3057 Z.9444
N2800 X-.3116 Y2.3204 Z.9428
N2810 X-.216 Y2.3313 Z.9412
N2820 X-.1201 Y2.3382 Z.9395
N2830 X-.024 Y2.3411 Z.9379
N2840 X.0721 Y2.3401 Z.9363
N2850 X.1681 Y2.3352 Z.9346
N2860 X.2638 Y2.3263 Z.933
N2870 X.3591 Y2.3135 Z.9314
N2880 X.4538 Y2.2968 Z.9297
N2890 X.5477 Y2.2763 Z.9281
N2900 X.6407 Y2.2519 Z.9265
N2910 X.7326 Y2.2237 Z.9248
N2920 X.8233 Y2.1917 Z.9232
N2930 X.9126 Y2.1561 Z.9216
N2940 X1.0003 Y2.1168 Z.9199
N2950 X1.0864 Y2.0739 Z.9183
N2960 X1.1706 Y2.0276 Z.9167
N2970 X1.2529 Y1.9778 Z.915
N2980 X1.333 Y1.9247 Z.9134
N2990 X1.4109 Y1.8684 Z.9118
N3000 X1.4864 Y1.8089 Z.9101
N3010 X1.5594 Y1.7463 Z.9085
N3020 X1.6298 Y1.6808 Z.9069
N3030 X1.6975 Y1.6125 Z.9052
N3040 X1.7622 Y1.5414 Z.9036
N3050 X1.824 Y1.4678 Z.902
N3060 X1.8827 Y1.3917 Z.9003
N3070 X1.9383 Y1.3132 Z.8987
N3080 X1.9906 Y1.2325 Z.8971
N3090 X2.0395 Y1.1497 Z.8954
N3100 X2.085 Y1.065 Z.8938
N3110 X2.1269 Y.9785 Z.8922
N3120 X2.1653 Y.8904 Z.8905
N3130 X2.2001 Y.8008 Z.8889
N3140 X2.2311 Y.7098 Z.8873
N3150 X2.2583 Y.6176 Z.8856
N3160 X2.2818 Y.5243 Z.884
N3170 X2.3014 Y.4302 Z.8824
N3180 X2.3171 Y.3354 Z.8807
N3190 X2.3289 Y.2399 Z.8791
N3200 X2.3368 Y.1441 Z.8775
N3210 X2.3408 Y.0481 Z.8758
N3220 Y-.0481 Z.8742
N3230 X2.3368 Y-.1441 Z.8725
N3240 X2.3289 Y-.2399 Z.8709
N3250 X2.3171 Y-.3354 Z.8693
N3260 X2.3014 Y-.4302 Z.8676
N3270 X2.2818 Y-.5243 Z.866
N3280 X2.2583 Y-.6176 Z.8644
N3290 X2.2311 Y-.7098 Z.8627
N3300 X2.2001 Y-.8008 Z.8611
N3310 X2.1653 Y-.8904 Z.8595
N3320 X2.1269 Y-.9785 Z.8578
N3330 X2.085 Y-1.065 Z.8562
N3340 X2.0395 Y-1.1497 Z.8546
N3350 X1.9906 Y-1.2325 Z.8529
N3360 X1.9383 Y-1.3132 Z.8513
N3370 X1.8827 Y-1.3917 Z.8497
N3380 X1.824 Y-1.4678 Z.848
N3390 X1.7622 Y-1.5414 Z.8464
N3400 X1.6975 Y-1.6125 Z.8448
N3410 X1.6298 Y-1.6808 Z.8431
N3420 X1.5594 Y-1.7463 Z.8415
N3430 X1.4864 Y-1.8089 Z.8399
N3440 X1.4109 Y-1.8684 Z.8382
N3450 X1.333 Y-1.9247 Z.8366
N3460 X1.2529 Y-1.9778 Z.835
N3470 X1.1706 Y-2.0276 Z.8333
N3480 X1.0864 Y-2.0739 Z.8317
N3490 X1.0003 Y-2.1168 Z.8301
N3500 X.9126 Y-2.1561 Z.8284
N3510 X.8233 Y-2.1917 Z.8268
N3520 X.7326 Y-2.2237 Z.8252
N3530 X.6407 Y-2.2519 Z.8235
N3540 X.5477 Y-2.2763 Z.8219
N3550 X.4538 Y-2.2968 Z.8203
N3560 X.3591 Y-2.3135 Z.8186
N3570 X.2638 Y-2.3263 Z.817
N3580 X.1681 Y-2.3352 Z.8154
N3590 X.0721 Y-2.3401 Z.8137
N3600 X-.024 Y-2.3411 Z.8121
N3610 X-.1201 Y-2.3382 Z.8105
N3620 X-.216 Y-2.3313 Z.8088
N3630 X-.3116 Y-2.3204 Z.8072
N3640 X-.4066 Y-2.3057 Z.8056
N3650 X-.5009 Y-2.287 Z.8039
N3660 X-.5943 Y-2.2646 Z.8023
N3670 X-.6868 Y-2.2382 Z.8007
N3680 X-.7781 Y-2.2082 Z.799
N3690 X-.8681 Y-2.1744 Z.7974
N3700 X-.9567 Y-2.1369 Z.7958
N3710 X-1.0436 Y-2.0958 Z.7941
N3720 X-1.1287 Y-2.0512 Z.7925
N3730 X-1.212 Y-2.0031 Z.7908
N3740 X-1.2932 Y-1.9517 Z.7892
N3750 X-1.3723 Y-1.8969 Z.7876
N3760 X-1.449 Y-1.839 Z.7859
N3770 X-1.5233 Y-1.778 Z.7843
N3780 X-1.595 Y-1.7139 Z.7827
N3790 X-1.664 Y-1.647 Z.781
N3800 X-1.7302 Y-1.5773 Z.7794
N3810 X-1.7935 Y-1.5049 Z.7778
N3820 X-1.8538 Y-1.43 Z.7761
N3830 X-1.9109 Y-1.3527 Z.7745
N3840 X-1.9648 Y-1.2731 Z.7729
N3850 X-2.0155 Y-1.1914 Z.7712
N3860 X-2.0627 Y-1.1076 Z.7696
N3870 X-2.1064 Y-1.022 Z.768
N3880 X-2.1466 Y-.9347 Z.7663
N3890 X-2.1832 Y-.8458 Z.7647
N3900 X-2.216 Y-.7554 Z.7631
N3910 X-2.2452 Y-.6638 Z.7614
N3920 X-2.2705 Y-.5711 Z.7598
N3930 X-2.2921 Y-.4774 Z.7582
N3940 X-2.3097 Y-.3829 Z.7565
N3950 X-2.3235 Y-.2877 Z.7549
N3960 X-2.3334 Y-.1921 Z.7533
N3970 X-2.3393 Y-.0961 Z.7516
N3980 X-2.3413 Y0. Z.75
N3990 X-2.3393 Y.0961 Z.7484
N4000 X-2.3334 Y.1921 Z.7467
N4010 X-2.3235 Y.2877 Z.7451
N4020 X-2.3097 Y.3829 Z.7435
N4030 X-2.2921 Y.4774 Z.7418
N4040 X-2.2705 Y.5711 Z.7402
N4050 X-2.2452 Y.6638 Z.7386
N4060 X-2.216 Y.7554 Z.7369
N4070 X-2.1832 Y.8458 Z.7353
N4080 X-2.1466 Y.9347 Z.7337
N4090 X-2.1064 Y1.022 Z.732
N4100 X-2.0627 Y1.1076 Z.7304
N4110 X-2.0155 Y1.1914 Z.7288
N4120 X-1.9648 Y1.2731 Z.7271
N4130 X-1.9109 Y1.3527 Z.7255
N4140 X-1.8538 Y1.43 Z.7239
N4150 X-1.7935 Y1.5049 Z.7222
N4160 X-1.7302 Y1.5773 Z.7206
N4170 X-1.664 Y1.647 Z.719
N4180 X-1.595 Y1.7139 Z.7173
N4190 X-1.5233 Y1.778 Z.7157
N4200 X-1.449 Y1.839 Z.7141
N4210 X-1.3723 Y1.8969 Z.7124
N4220 X-1.2932 Y1.9517 Z.7108
N4230 X-1.212 Y2.0031 Z.7092
N4240 X-1.1287 Y2.0512 Z.7075
N4250 X-1.0436 Y2.0958 Z.7059
N4260 X-.9567 Y2.1369 Z.7042
N4270 X-.8681 Y2.1744 Z.7026
N4280 X-.7781 Y2.2082 Z.701
N4290 X-.6868 Y2.2382 Z.6993
N4300 X-.5943 Y2.2646 Z.6977
N4310 X-.5009 Y2.287 Z.6961
N4320 X-.4066 Y2.3057 Z.6944
N4330 X-.3116 Y2.3204 Z.6928
N4340 X-.216 Y2.3313 Z.6912
N4350 X-.1201 Y2.3382 Z.6895
N4360 X-.024 Y2.3411 Z.6879
N4370 X.0721 Y2.3401 Z.6863
N4380 X.1681 Y2.3352 Z.6846
N4390 X.2638 Y2.3263 Z.683
N4400 X.3591 Y2.3135 Z.6814
N4410 X.4538 Y2.2968 Z.6797
N4420 X.5477 Y2.2763 Z.6781
N4430 X.6407 Y2.2519 Z.6765
N4440 X.7326 Y2.2237 Z.6748
N4450 X.8233 Y2.1917 Z.6732
N4460 X.9126 Y2.1561 Z.6716
N4470 X1.0003 Y2.1168 Z.6699
N4480 X1.0864 Y2.0739 Z.6683
N4490 X1.1706 Y2.0276 Z.6667
N4500 X1.2529 Y1.9778 Z.665
N4510 X1.333 Y1.9247 Z.6634
N4520 X1.4109 Y1.8684 Z.6618
N4530 X1.4864 Y1.8089 Z.6601
N4540 X1.5594 Y1.7463 Z.6585
N4550 X1.6298 Y1.6808 Z.6569
N4560 X1.6975 Y1.6125 Z.6552
N4570 X1.7622 Y1.5414 Z.6536
N4580 X1.824 Y1.4678 Z.652
N4590 X1.8827 Y1.3917 Z.6503
N4600 X1.9383 Y1.3132 Z.6487
N4610 X1.9906 Y1.2325 Z.6471
N4620 X2.0395 Y1.1497 Z.6454
N4630 X2.085 Y1.065 Z.6438
N4640 X2.1269 Y.9785 Z.6422
N4650 X2.1653 Y.8904 Z.6405
N4660 X2.2001 Y.8008 Z.6389
N4670 X2.2311 Y.7098 Z.6373
N4680 X2.2583 Y.6176 Z.6356
