%
O0000(WAAM_CYLINDER_2875_OUT)
(DATE=DD-MM-YY - 10-04-25 TIME=HH:MM - 19:39)
(MCAM ;FILE - C:\USERS\CAILEAN S P15\DOCUMENTS\MASTERCAM\WAAM_CYLINDER.EMCAM)
(NC ;FILE - ;F:\WAAM_CYLINDER_2875_OUT.nc)
(MATERIAL - ALUMINUM INCH - 2024)
( T256 |  1/2 BALL ENDMILL | H256 )
N100 G20
N110 G0 G17 G40 G49 G80 G90
N120 T256 M6
N130 G0 G90 G54 X-2.3737 Y0. Z3.0 A0. S1069 M3
N140 G43 H256 Z1.825
N150 G1 Z1.625 F1.35
N160 X-2.3543 Y.3035 Z1.6173
N170 X-2.2961 Y.6021 Z1.6097
N180 X-2.2003 Y.8908 Z1.602
N190 X-2.0683 Y1.1648 Z1.5944
N200 X-1.9024 Y1.4198 Z1.5867
N210 X-1.7052 Y1.6514 Z1.5791
N220 X-1.48 Y1.8559 Z1.5714
N230 X-1.2305 Y2.0299 Z1.5638
N240 X-.9609 Y2.1706 Z1.5561
N250 X-.6754 Y2.2756 Z1.5485
N260 X-.3789 Y2.3433 Z1.5408
N270 X-.0761 Y2.3725 Z1.5332
N280 X.2279 Y2.3628 Z1.5255
N290 X.5282 Y2.3142 Z1.5179
N300 X.8198 Y2.2277 Z1.5102
N310 X1.098 Y2.1046 Z1.5026
N320 X1.3581 Y1.9469 Z1.4949
N330 X1.5959 Y1.7572 Z1.4872
N340 X1.8075 Y1.5387 Z1.4796
N350 X1.9894 Y1.295 Z1.4719
N360 X2.1387 Y1.0299 Z1.4643
N370 X2.2528 Y.748 Z1.4566
N380 X2.33 Y.4538 Z1.449
N390 X2.3689 Y.1521 Z1.4413
N400 Y-.1521 Z1.4337
N410 X2.33 Y-.4538 Z1.426
N420 X2.2528 Y-.748 Z1.4184
N430 X2.1387 Y-1.0299 Z1.4107
N440 X1.9894 Y-1.295 Z1.4031
N450 X1.8075 Y-1.5387 Z1.3954
N460 X1.5959 Y-1.7572 Z1.3878
N470 X1.3581 Y-1.9469 Z1.3801
N480 X1.098 Y-2.1046 Z1.3724
N490 X.8198 Y-2.2277 Z1.3648
N500 X.5282 Y-2.3142 Z1.3571
N510 X.2279 Y-2.3628 Z1.3495
N520 X-.0761 Y-2.3725 Z1.3418
N530 X-.3789 Y-2.3433 Z1.3342
N540 X-.6754 Y-2.2756 Z1.3265
N550 X-.9609 Y-2.1706 Z1.3189
N560 X-1.2305 Y-2.0299 Z1.3112
N570 X-1.48 Y-1.8559 Z1.3036
N580 X-1.7052 Y-1.6514 Z1.2959
N590 X-1.9024 Y-1.4198 Z1.2883
N600 X-2.0683 Y-1.1648 Z1.2806
N610 X-2.2003 Y-.8908 Z1.273
N620 X-2.2961 Y-.6021 Z1.2653
N630 X-2.3543 Y-.3035 Z1.2577
N640 X-2.3737 Y0. Z1.25
N650 X-2.3543 Y.3035 Z1.2423
N660 X-2.2961 Y.6021 Z1.2347
N670 X-2.2003 Y.8908 Z1.227
N680 X-2.0683 Y1.1648 Z1.2194
N690 X-1.9024 Y1.4198 Z1.2117
N700 X-1.7052 Y1.6514 Z1.2041
N710 X-1.48 Y1.8559 Z1.1964
N720 X-1.2305 Y2.0299 Z1.1888
N730 X-.9609 Y2.1706 Z1.1811
N740 X-.6754 Y2.2756 Z1.1735
N750 X-.3789 Y2.3433 Z1.1658
N760 X-.0761 Y2.3725 Z1.1582
N770 X.2279 Y2.3628 Z1.1505
N780 X.5282 Y2.3142 Z1.1429
N790 X.8198 Y2.2277 Z1.1352
N800 X1.098 Y2.1046 Z1.1276
N810 X1.3581 Y1.9469 Z1.1199
N820 X1.5959 Y1.7572 Z1.1122
N830 X1.8075 Y1.5387 Z1.1046
N840 X1.9894 Y1.295 Z1.0969
N850 X2.1387 Y1.0299 Z1.0893
N860 X2.2528 Y.748 Z1.0816
N870 X2.33 Y.4538 Z1.074
N880 X2.3689 Y.1521 Z1.0663
N890 Y-.1521 Z1.0587
N900 X2.33 Y-.4538 Z1.051
N910 X2.2528 Y-.748 Z1.0434
N920 X2.1387 Y-1.0299 Z1.0357
N930 X1.9894 Y-1.295 Z1.0281
N940 X1.8075 Y-1.5387 Z1.0204
N950 X1.5959 Y-1.7572 Z1.0128
N960 X1.3581 Y-1.9469 Z1.0051
N970 X1.098 Y-2.1046 Z.9974
N980 X.8198 Y-2.2277 Z.9898
N990 X.5282 Y-2.3142 Z.9821
N1000 X.2279 Y-2.3628 Z.9745
N1010 X-.0761 Y-2.3725 Z.9668
N1020 X-.3789 Y-2.3433 Z.9592
N1030 X-.6754 Y-2.2756 Z.9515
N1040 X-.9609 Y-2.1706 Z.9439
N1050 X-1.2305 Y-2.0299 Z.9362
N1060 X-1.48 Y-1.8559 Z.9286
N1070 X-1.7052 Y-1.6514 Z.9209
N1080 X-1.9024 Y-1.4198 Z.9133
N1090 X-2.0683 Y-1.1648 Z.9056
N1100 X-2.2003 Y-.8908 Z.898
N1110 X-2.2961 Y-.6021 Z.8903
N1120 X-2.3543 Y-.3035 Z.8827
N1130 X-2.3737 Y0. Z.875
N1140 X-2.3543 Y.3035 Z.8673
N1150 X-2.2961 Y.6021 Z.8597
N1160 X-2.2003 Y.8908 Z.852
N1170 X-2.0683 Y1.1648 Z.8444
N1180 X-1.9024 Y1.4198 Z.8367
N1190 X-1.7052 Y1.6514 Z.8291
N1200 X-1.48 Y1.8559 Z.8214
N1210 X-1.2305 Y2.0299 Z.8138
N1220 X-.9609 Y2.1706 Z.8061
N1230 X-.6754 Y2.2756 Z.7985
N1240 X-.3789 Y2.3433 Z.7908
N1250 X-.0761 Y2.3725 Z.7832
N1260 X.2279 Y2.3628 Z.7755
N1270 X.5282 Y2.3142 Z.7679
N1280 X.8198 Y2.2277 Z.7602
N1290 X1.098 Y2.1046 Z.7526
N1300 X1.3581 Y1.9469 Z.7449
N1310 X1.5959 Y1.7572 Z.7372
N1320 X1.8075 Y1.5387 Z.7296
N1330 X1.9894 Y1.295 Z.7219
N1340 X2.1387 Y1.0299 Z.7143
N1350 X2.2528 Y.748 Z.7066
N1360 X2.33 Y.4538 Z.699
N1370 X2.3689 Y.1521 Z.6913
N1380 Y-.1521 Z.6837
N1390 X2.33 Y-.4538 Z.676
N1400 X2.2528 Y-.748 Z.6684
N1410 X2.1387 Y-1.0299 Z.6607
N1420 X1.9894 Y-1.295 Z.6531
N1430 X1.8075 Y-1.5387 Z.6454
N1440 X1.5959 Y-1.7572 Z.6378
N1450 X1.3581 Y-1.9469 Z.6301
N1460 X1.098 Y-2.1046 Z.6224
N1470 X.8198 Y-2.2277 Z.6148
N1480 X.5282 Y-2.3142 Z.6071
N1490 X.2279 Y-2.3628 Z.5995
N1500 X-.0761 Y-2.3725 Z.5918
N1510 X-.3789 Y-2.3433 Z.5842
N1520 X-.6754 Y-2.2756 Z.5765
N1530 X-.9609 Y-2.1706 Z.5689
N1540 X-1.2305 Y-2.0299 Z.5612
N1550 X-1.48 Y-1.8559 Z.5536
N1560 X-1.7052 Y-1.6514 Z.5459
N1570 X-1.9024 Y-1.4198 Z.5383
N1580 X-2.0683 Y-1.1648 Z.5306
N1590 X-2.2003 Y-.8908 Z.523
N1600 X-2.2961 Y-.6021 Z.5153
N1610 X-2.3543 Y-.3035 Z.5077
N1620 X-2.3737 Y0. Z.5
N1630 X-2.3543 Y.3035 Z.4923
N1640 X-2.2961 Y.6021 Z.4847
N1650 X-2.2003 Y.8908 Z.477
N1660 X-2.0683 Y1.1648 Z.4694
N1670 X-1.9024 Y1.4198 Z.4617
N1680 X-1.7052 Y1.6514 Z.4541
N1690 X-1.48 Y1.8559 Z.4464
N1700 X-1.2305 Y2.0299 Z.4388
N1710 X-.9609 Y2.1706 Z.4311
N1720 X-.6754 Y2.2756 Z.4235
N1730 X-.3789 Y2.3433 Z.4158
N1740 X-.0761 Y2.3725 Z.4082
N1750 X.2279 Y2.3628 Z.4005
N1760 X.5282 Y2.3142 Z.3929
N1770 X.8198 Y2.2277 Z.3852
N1780 X1.098 Y2.1046 Z.3776
N1790 X1.3581 Y1.9469 Z.3699
N1800 X1.5959 Y1.7572 Z.3622
N1810 X1.8075 Y1.5387 Z.3546
N1820 X1.9894 Y1.295 Z.3469
N1830 X2.1387 Y1.0299 Z.3393
N1840 X2.2528 Y.748 Z.3316
N1850 X2.33 Y.4538 Z.324
N1860 X2.3689 Y.1521 Z.3163
N1870 Y-.1521 Z.3087
N1880 X2.33 Y-.4538 Z.301
N1890 X2.2528 Y-.748 Z.2934
N1900 X2.1387 Y-1.0299 Z.2857
N1910 X1.9894 Y-1.295 Z.2781
N1920 X1.8075 Y-1.5387 Z.2704
N1930 X1.5959 Y-1.7572 Z.2628
N1940 X1.3581 Y-1.9469 Z.2551
N1950 X1.098 Y-2.1046 Z.2474
N1960 X.8198 Y-2.2277 Z.2398
N1970 X.5282 Y-2.3142 Z.2321
N1980 X.2279 Y-2.3628 Z.2245
N1990 X-.0761 Y-2.3725 Z.2168
N2000 X-.3789 Y-2.3433 Z.2092
N2010 X-.6754 Y-2.2756 Z.2015
N2020 X-.9609 Y-2.1706 Z.1939
N2030 X-1.2305 Y-2.0299 Z.1862
N2040 X-1.48 Y-1.8559 Z.1786
N2050 X-1.7052 Y-1.6514 Z.1709
N2060 X-1.9024 Y-1.4198 Z.1633
N2070 X-2.0683 Y-1.1648 Z.1556
N2080 X-2.2003 Y-.8908 Z.148
N2090 X-2.2961 Y-.6021 Z.1403
N2100 X-2.3543 Y-.3035 Z.1327
N2110 X-2.3737 Y0. Z.125
N2120 X-2.3558 Y.2917 Z.1176
N2130 X-2.3021 Y.579 Z.1103
N2140 X-2.2135 Y.8575 Z.1029
N2150 X-2.0913 Y1.123 Z.0956
N2160 X-1.9374 Y1.3715 Z.0882
N2170 X-1.7542 Y1.5992 Z.0809
N2180 X-1.5444 Y1.8026 Z.0735
N2190 X-1.3112 Y1.9788 Z.0662
N2200 X-1.0581 Y2.1249 Z.0588
N2210 X-.7889 Y2.2388 Z.0515
N2220 X-.5078 Y2.3188 Z.0441
N2230 X-.219 Y2.3636 Z.0368
N2240 X.0731 Y2.3726 Z.0294
N2250 X.3641 Y2.3457 Z.0221
N2260 X.6496 Y2.2831 Z.0147
N2270 X.9253 Y2.186 Z.0074
N2280 X1.1869 Y2.0557 Z0.
;N2290 G2 X2.3737 Y0. I-1.1869 J-2.0557
;N2300 X0. Y-2.3737 I-2.3737 J0.
;N2310 X-2.3737 Y0. I0. J2.3737
;N2320 X0. Y2.3737 I2.3737 J0.
;N2330 X1.1869 Y2.0557 I0. J-2.3737
N2340 G1 X1.2739 Y2.2064
N2350 Z.2
N2360 G0 Z1.825
N2370 X-2.3687 Y0.
N2380 G1 Z1.625 ;F6.42
N2390 X-2.3493 Y.3029 Z1.6173
N2400 X-2.2913 Y.6008 Z1.6097
N2410 X-2.1956 Y.8889 Z1.602
N2420 X-2.0639 Y1.1624 Z1.5944
N2430 X-1.8983 Y1.4168 Z1.5867
N2440 X-1.7016 Y1.6479 Z1.5791
N2450 X-1.4769 Y1.852 Z1.5714
N2460 X-1.2279 Y2.0256 Z1.5638
N2470 X-.9588 Y2.166 Z1.5561
N2480 X-.674 Y2.2708 Z1.5485
N2490 X-.3781 Y2.3384 Z1.5408
N2500 X-.0759 Y2.3675 Z1.5332
N2510 X.2275 Y2.3578 Z1.5255
N2520 X.5271 Y2.3094 Z1.5179
N2530 X.8181 Y2.223 Z1.5102
N2540 X1.0956 Y2.1001 Z1.5026
N2550 X1.3552 Y1.9428 Z1.4949
N2560 X1.5925 Y1.7535 Z1.4872
N2570 X1.8037 Y1.5355 Z1.4796
N2580 X1.9852 Y1.2922 Z1.4719
N2590 X2.1342 Y1.0278 Z1.4643
N2600 X2.2481 Y.7464 Z1.4566
N2610 X2.3251 Y.4528 Z1.449
N2620 X2.3639 Y.1518 Z1.4413
N2630 Y-.1518 Z1.4337
N2640 X2.3251 Y-.4528 Z1.426
N2650 X2.2481 Y-.7464 Z1.4184
N2660 X2.1342 Y-1.0278 Z1.4107
N2670 X1.9852 Y-1.2922 Z1.4031
N2680 X1.8037 Y-1.5355 Z1.3954
N2690 X1.5925 Y-1.7535 Z1.3878
N2700 X1.3552 Y-1.9428 Z1.3801
N2710 X1.0956 Y-2.1001 Z1.3724
N2720 X.8181 Y-2.223 Z1.3648
N2730 X.5271 Y-2.3094 Z1.3571
N2740 X.2275 Y-2.3578 Z1.3495
N2750 X-.0759 Y-2.3675 Z1.3418
N2760 X-.3781 Y-2.3384 Z1.3342
N2770 X-.674 Y-2.2708 Z1.3265
N2780 X-.9588 Y-2.166 Z1.3189
N2790 X-1.2279 Y-2.0256 Z1.3112
N2800 X-1.4769 Y-1.852 Z1.3036
N2810 X-1.7016 Y-1.6479 Z1.2959
N2820 X-1.8983 Y-1.4168 Z1.2883
N2830 X-2.0639 Y-1.1624 Z1.2806
N2840 X-2.1956 Y-.8889 Z1.273
N2850 X-2.2913 Y-.6008 Z1.2653
N2860 X-2.3493 Y-.3029 Z1.2577
N2870 X-2.3687 Y0. Z1.25
N2880 X-2.3493 Y.3029 Z1.2423
N2890 X-2.2913 Y.6008 Z1.2347
N2900 X-2.1956 Y.8889 Z1.227
N2910 X-2.0639 Y1.1624 Z1.2194
N2920 X-1.8983 Y1.4168 Z1.2117
N2930 X-1.7016 Y1.6479 Z1.2041
N2940 X-1.4769 Y1.852 Z1.1964
N2950 X-1.2279 Y2.0256 Z1.1888
N2960 X-.9588 Y2.166 Z1.1811
N2970 X-.674 Y2.2708 Z1.1735
N2980 X-.3781 Y2.3384 Z1.1658
N2990 X-.0759 Y2.3675 Z1.1582
N3000 X.2275 Y2.3578 Z1.1505
N3010 X.5271 Y2.3094 Z1.1429
N3020 X.8181 Y2.223 Z1.1352
N3030 X1.0956 Y2.1001 Z1.1276
N3040 X1.3552 Y1.9428 Z1.1199
N3050 X1.5925 Y1.7535 Z1.1122
N3060 X1.8037 Y1.5355 Z1.1046
N3070 X1.9852 Y1.2922 Z1.0969
N3080 X2.1342 Y1.0278 Z1.0893
N3090 X2.2481 Y.7464 Z1.0816
N3100 X2.3251 Y.4528 Z1.074
N3110 X2.3639 Y.1518 Z1.0663
N3120 Y-.1518 Z1.0587
N3130 X2.3251 Y-.4528 Z1.051
N3140 X2.2481 Y-.7464 Z1.0434
N3150 X2.1342 Y-1.0278 Z1.0357
N3160 X1.9852 Y-1.2922 Z1.0281
N3170 X1.8037 Y-1.5355 Z1.0204
N3180 X1.5925 Y-1.7535 Z1.0128
N3190 X1.3552 Y-1.9428 Z1.0051
N3200 X1.0956 Y-2.1001 Z.9974
N3210 X.8181 Y-2.223 Z.9898
N3220 X.5271 Y-2.3094 Z.9821
N3230 X.2275 Y-2.3578 Z.9745
N3240 X-.0759 Y-2.3675 Z.9668
N3250 X-.3781 Y-2.3384 Z.9592
N3260 X-.674 Y-2.2708 Z.9515
N3270 X-.9588 Y-2.166 Z.9439
N3280 X-1.2279 Y-2.0256 Z.9362
N3290 X-1.4769 Y-1.852 Z.9286
N3300 X-1.7016 Y-1.6479 Z.9209
N3310 X-1.8983 Y-1.4168 Z.9133
N3320 X-2.0639 Y-1.1624 Z.9056
N3330 X-2.1956 Y-.8889 Z.898
N3340 X-2.2913 Y-.6008 Z.8903
N3350 X-2.3493 Y-.3029 Z.8827
N3360 X-2.3687 Y0. Z.875
N3370 X-2.3493 Y.3029 Z.8673
N3380 X-2.2913 Y.6008 Z.8597
N3390 X-2.1956 Y.8889 Z.852
N3400 X-2.0639 Y1.1624 Z.8444
N3410 X-1.8983 Y1.4168 Z.8367
N3420 X-1.7016 Y1.6479 Z.8291
N3430 X-1.4769 Y1.852 Z.8214
N3440 X-1.2279 Y2.0256 Z.8138
N3450 X-.9588 Y2.166 Z.8061
N3460 X-.674 Y2.2708 Z.7985
N3470 X-.3781 Y2.3384 Z.7908
N3480 X-.0759 Y2.3675 Z.7832
N3490 X.2275 Y2.3578 Z.7755
N3500 X.5271 Y2.3094 Z.7679
N3510 X.8181 Y2.223 Z.7602
N3520 X1.0956 Y2.1001 Z.7526
N3530 X1.3552 Y1.9428 Z.7449
N3540 X1.5925 Y1.7535 Z.7372
N3550 X1.8037 Y1.5355 Z.7296
N3560 X1.9852 Y1.2922 Z.7219
N3570 X2.1342 Y1.0278 Z.7143
N3580 X2.2481 Y.7464 Z.7066
N3590 X2.3251 Y.4528 Z.699
N3600 X2.3639 Y.1518 Z.6913
N3610 Y-.1518 Z.6837
N3620 X2.3251 Y-.4528 Z.676
N3630 X2.2481 Y-.7464 Z.6684
N3640 X2.1342 Y-1.0278 Z.6607
N3650 X1.9852 Y-1.2922 Z.6531
N3660 X1.8037 Y-1.5355 Z.6454
N3670 X1.5925 Y-1.7535 Z.6378
N3680 X1.3552 Y-1.9428 Z.6301
N3690 X1.0956 Y-2.1001 Z.6224
N3700 X.8181 Y-2.223 Z.6148
N3710 X.5271 Y-2.3094 Z.6071
N3720 X.2275 Y-2.3578 Z.5995
N3730 X-.0759 Y-2.3675 Z.5918
N3740 X-.3781 Y-2.3384 Z.5842
N3750 X-.674 Y-2.2708 Z.5765
N3760 X-.9588 Y-2.166 Z.5689
N3770 X-1.2279 Y-2.0256 Z.5612
N3780 X-1.4769 Y-1.852 Z.5536
N3790 X-1.7016 Y-1.6479 Z.5459
N3800 X-1.8983 Y-1.4168 Z.5383
N3810 X-2.0639 Y-1.1624 Z.5306
N3820 X-2.1956 Y-.8889 Z.523
N3830 X-2.2913 Y-.6008 Z.5153
N3840 X-2.3493 Y-.3029 Z.5077
N3850 X-2.3687 Y0. Z.5
N3860 X-2.3493 Y.3029 Z.4923
N3870 X-2.2913 Y.6008 Z.4847
N3880 X-2.1956 Y.8889 Z.477
N3890 X-2.0639 Y1.1624 Z.4694
N3900 X-1.8983 Y1.4168 Z.4617
N3910 X-1.7016 Y1.6479 Z.4541
N3920 X-1.4769 Y1.852 Z.4464
N3930 X-1.2279 Y2.0256 Z.4388
N3940 X-.9588 Y2.166 Z.4311
N3950 X-.674 Y2.2708 Z.4235
N3960 X-.3781 Y2.3384 Z.4158
N3970 X-.0759 Y2.3675 Z.4082
N3980 X.2275 Y2.3578 Z.4005
N3990 X.5271 Y2.3094 Z.3929
N4000 X.8181 Y2.223 Z.3852
N4010 X1.0956 Y2.1001 Z.3776
N4020 X1.3552 Y1.9428 Z.3699
N4030 X1.5925 Y1.7535 Z.3622
N4040 X1.8037 Y1.5355 Z.3546
N4050 X1.9852 Y1.2922 Z.3469
N4060 X2.1342 Y1.0278 Z.3393
N4070 X2.2481 Y.7464 Z.3316
N4080 X2.3251 Y.4528 Z.324
N4090 X2.3639 Y.1518 Z.3163
N4100 Y-.1518 Z.3087
N4110 X2.3251 Y-.4528 Z.301
N4120 X2.2481 Y-.7464 Z.2934
N4130 X2.1342 Y-1.0278 Z.2857
N4140 X1.9852 Y-1.2922 Z.2781
N4150 X1.8037 Y-1.5355 Z.2704
N4160 X1.5925 Y-1.7535 Z.2628
N4170 X1.3552 Y-1.9428 Z.2551
N4180 X1.0956 Y-2.1001 Z.2474
N4190 X.8181 Y-2.223 Z.2398
N4200 X.5271 Y-2.3094 Z.2321
N4210 X.2275 Y-2.3578 Z.2245
N4220 X-.0759 Y-2.3675 Z.2168
N4230 X-.3781 Y-2.3384 Z.2092
N4240 X-.674 Y-2.2708 Z.2015
N4250 X-.9588 Y-2.166 Z.1939
N4260 X-1.2279 Y-2.0256 Z.1862
N4270 X-1.4769 Y-1.852 Z.1786
N4280 X-1.7016 Y-1.6479 Z.1709
N4290 X-1.8983 Y-1.4168 Z.1633
N4300 X-2.0639 Y-1.1624 Z.1556
N4310 X-2.1956 Y-.8889 Z.148
N4320 X-2.2913 Y-.6008 Z.1403
N4330 X-2.3493 Y-.3029 Z.1327
N4340 X-2.3687 Y0. Z.125
N4350 X-2.3508 Y.2911 Z.1176
N4360 X-2.2972 Y.5778 Z.1103
N4370 X-2.2088 Y.8557 Z.1029
N4380 X-2.0869 Y1.1206 Z.0956
N4390 X-1.9334 Y1.3686 Z.0882
N4400 X-1.7505 Y1.5958 Z.0809
N4410 X-1.5412 Y1.7988 Z.0735
N4420 X-1.3084 Y1.9746 Z.0662
N4430 X-1.0558 Y2.1204 Z.0588
N4440 X-.7873 Y2.2341 Z.0515
N4450 X-.5068 Y2.3139 Z.0441
N4460 X-.2186 Y2.3586 Z.0368
N4470 X.0729 Y2.3676 Z.0294
N4480 X.3633 Y2.3407 Z.0221
N4490 X.6482 Y2.2783 Z.0147
N4500 X.9233 Y2.1814 Z.0074
N4510 X1.1844 Y2.0514 Z0.
;N4520 G2 X2.3688 Y0. I-1.1844 J-2.0514
;N4530 X0. Y-2.3688 I-2.3688 J0.
;N4540 X-2.3687 Y0. I0. J2.3688
;N4550 X0. Y2.3687 I2.3687 J0.
;N4560 X1.1844 Y2.0514 I0. J-2.3687
N4570 G1 X1.2714 Y2.2021
N4580 Z.2
N4590 G0 Z1.825
N4600 X-2.3638 Y0.
N4610 G1 Z1.625 ;F6.42
N4620 X-2.3443 Y.3023 Z1.6173
N4630 X-2.2864 Y.5996 Z1.6097
N4640 X-2.191 Y.887 Z1.602
N4650 X-2.0596 Y1.1599 Z1.5944
N4660 X-1.8943 Y1.4138 Z1.5867
N4670 X-1.698 Y1.6444 Z1.5791
N4680 X-1.4738 Y1.8481 Z1.5714
N4690 X-1.2254 Y2.0213 Z1.5638
N4700 X-.9568 Y2.1614 Z1.5561
N4710 X-.6726 Y2.2661 Z1.5485
N4720 X-.3773 Y2.3335 Z1.5408
N4730 X-.0758 Y2.3625 Z1.5332
N4740 X.227 Y2.3528 Z1.5255
N4750 X.526 Y2.3045 Z1.5179
N4760 X.8164 Y2.2183 Z1.5102
N4770 X1.0933 Y2.0957 Z1.5026
N4780 X1.3523 Y1.9387 Z1.4949
N4790 X1.5892 Y1.7498 Z1.4872
N4800 X1.7999 Y1.5322 Z1.4796
N4810 X1.981 Y1.2895 Z1.4719
N4820 X2.1297 Y1.0256 Z1.4643
N4830 X2.2433 Y.7448 Z1.4566
N4840 X2.3202 Y.4519 Z1.449
N4850 X2.3589 Y.1514 Z1.4413
N4860 Y-.1514 Z1.4337
N4870 X2.3202 Y-.4519 Z1.426
N4880 X2.2433 Y-.7448 Z1.4184
N4890 X2.1297 Y-1.0256 Z1.4107
N4900 X1.981 Y-1.2895 Z1.4031
N4910 X1.7999 Y-1.5322 Z1.3954
N4920 X1.5892 Y-1.7498 Z1.3878
N4930 X1.3523 Y-1.9387 Z1.3801
N4940 X1.0933 Y-2.0957 Z1.3724
N4950 X.8164 Y-2.2183 Z1.3648
N4960 X.526 Y-2.3045 Z1.3571
N4970 X.227 Y-2.3528 Z1.3495
N4980 X-.0758 Y-2.3625 Z1.3418
N4990 X-.3773 Y-2.3335 Z1.3342
N5000 X-.6726 Y-2.2661 Z1.3265
N5010 X-.9568 Y-2.1614 Z1.3189
N5020 X-1.2254 Y-2.0213 Z1.3112
N5030 X-1.4738 Y-1.8481 Z1.3036
N5040 X-1.698 Y-1.6444 Z1.2959
N5050 X-1.8943 Y-1.4138 Z1.2883
N5060 X-2.0596 Y-1.1599 Z1.2806
N5070 X-2.191 Y-.887 Z1.273
N5080 X-2.2864 Y-.5996 Z1.2653
N5090 X-2.3443 Y-.3023 Z1.2577
N5100 X-2.3638 Y0. Z1.25
N5110 X-2.3443 Y.3023 Z1.2423
N5120 X-2.2864 Y.5996 Z1.2347
N5130 X-2.191 Y.887 Z1.227
N5140 X-2.0596 Y1.1599 Z1.2194
N5150 X-1.8943 Y1.4138 Z1.2117
N5160 X-1.698 Y1.6444 Z1.2041
N5170 X-1.4738 Y1.8481 Z1.1964
N5180 X-1.2254 Y2.0213 Z1.1888
N5190 X-.9568 Y2.1614 Z1.1811
N5200 X-.6726 Y2.2661 Z1.1735
N5210 X-.3773 Y2.3335 Z1.1658
N5220 X-.0758 Y2.3625 Z1.1582
N5230 X.227 Y2.3528 Z1.1505
N5240 X.526 Y2.3045 Z1.1429
N5250 X.8164 Y2.2183 Z1.1352
N5260 X1.0933 Y2.0957 Z1.1276
N5270 X1.3523 Y1.9387 Z1.1199
N5280 X1.5892 Y1.7498 Z1.1122
N5290 X1.7999 Y1.5322 Z1.1046
N5300 X1.981 Y1.2895 Z1.0969
N5310 X2.1297 Y1.0256 Z1.0893
N5320 X2.2433 Y.7448 Z1.0816
N5330 X2.3202 Y.4519 Z1.074
N5340 X2.3589 Y.1514 Z1.0663
N5350 Y-.1514 Z1.0587
N5360 X2.3202 Y-.4519 Z1.051
N5370 X2.2433 Y-.7448 Z1.0434
N5380 X2.1297 Y-1.0256 Z1.0357
N5390 X1.981 Y-1.2895 Z1.0281
N5400 X1.7999 Y-1.5322 Z1.0204
N5410 X1.5892 Y-1.7498 Z1.0128
N5420 X1.3523 Y-1.9387 Z1.0051
N5430 X1.0933 Y-2.0957 Z.9974
N5440 X.8164 Y-2.2183 Z.9898
N5450 X.526 Y-2.3045 Z.9821
N5460 X.227 Y-2.3528 Z.9745
N5470 X-.0758 Y-2.3625 Z.9668
N5480 X-.3773 Y-2.3335 Z.9592
N5490 X-.6726 Y-2.2661 Z.9515
N5500 X-.9568 Y-2.1614 Z.9439
N5510 X-1.2254 Y-2.0213 Z.9362
N5520 X-1.4738 Y-1.8481 Z.9286
N5530 X-1.698 Y-1.6444 Z.9209
N5540 X-1.8943 Y-1.4138 Z.9133
N5550 X-2.0596 Y-1.1599 Z.9056
N5560 X-2.191 Y-.887 Z.898
N5570 X-2.2864 Y-.5996 Z.8903
N5580 X-2.3443 Y-.3023 Z.8827
N5590 X-2.3638 Y0. Z.875
N5600 X-2.3443 Y.3023 Z.8673
N5610 X-2.2864 Y.5996 Z.8597
N5620 X-2.191 Y.887 Z.852
N5630 X-2.0596 Y1.1599 Z.8444
N5640 X-1.8943 Y1.4138 Z.8367
N5650 X-1.698 Y1.6444 Z.8291
N5660 X-1.4738 Y1.8481 Z.8214
N5670 X-1.2254 Y2.0213 Z.8138
N5680 X-.9568 Y2.1614 Z.8061
N5690 X-.6726 Y2.2661 Z.7985
N5700 X-.3773 Y2.3335 Z.7908
N5710 X-.0758 Y2.3625 Z.7832
N5720 X.227 Y2.3528 Z.7755
N5730 X.526 Y2.3045 Z.7679
N5740 X.8164 Y2.2183 Z.7602
N5750 X1.0933 Y2.0957 Z.7526
N5760 X1.3523 Y1.9387 Z.7449
N5770 X1.5892 Y1.7498 Z.7372
N5780 X1.7999 Y1.5322 Z.7296
N5790 X1.981 Y1.2895 Z.7219
N5800 X2.1297 Y1.0256 Z.7143
N5810 X2.2433 Y.7448 Z.7066
N5820 X2.3202 Y.4519 Z.699
N5830 X2.3589 Y.1514 Z.6913
N5840 Y-.1514 Z.6837
N5850 X2.3202 Y-.4519 Z.676
N5860 X2.2433 Y-.7448 Z.6684
N5870 X2.1297 Y-1.0256 Z.6607
N5880 X1.981 Y-1.2895 Z.6531
N5890 X1.7999 Y-1.5322 Z.6454
N5900 X1.5892 Y-1.7498 Z.6378
N5910 X1.3523 Y-1.9387 Z.6301
N5920 X1.0933 Y-2.0957 Z.6224
N5930 X.8164 Y-2.2183 Z.6148
N5940 X.526 Y-2.3045 Z.6071
N5950 X.227 Y-2.3528 Z.5995
N5960 X-.0758 Y-2.3625 Z.5918
N5970 X-.3773 Y-2.3335 Z.5842
N5980 X-.6726 Y-2.2661 Z.5765
N5990 X-.9568 Y-2.1614 Z.5689
N6000 X-1.2254 Y-2.0213 Z.5612
N6010 X-1.4738 Y-1.8481 Z.5536
N6020 X-1.698 Y-1.6444 Z.5459
N6030 X-1.8943 Y-1.4138 Z.5383
N6040 X-2.0596 Y-1.1599 Z.5306
N6050 X-2.191 Y-.887 Z.523
N6060 X-2.2864 Y-.5996 Z.5153
N6070 X-2.3443 Y-.3023 Z.5077
N6080 X-2.3638 Y0. Z.5
N6090 X-2.3443 Y.3023 Z.4923
N6100 X-2.2864 Y.5996 Z.4847
N6110 X-2.191 Y.887 Z.477
N6120 X-2.0596 Y1.1599 Z.4694
N6130 X-1.8943 Y1.4138 Z.4617
N6140 X-1.698 Y1.6444 Z.4541
N6150 X-1.4738 Y1.8481 Z.4464
N6160 X-1.2254 Y2.0213 Z.4388
N6170 X-.9568 Y2.1614 Z.4311
N6180 X-.6726 Y2.2661 Z.4235
N6190 X-.3773 Y2.3335 Z.4158
N6200 X-.0758 Y2.3625 Z.4082
N6210 X.227 Y2.3528 Z.4005
N6220 X.526 Y2.3045 Z.3929
N6230 X.8164 Y2.2183 Z.3852
N6240 X1.0933 Y2.0957 Z.3776
N6250 X1.3523 Y1.9387 Z.3699
N6260 X1.5892 Y1.7498 Z.3622
N6270 X1.7999 Y1.5322 Z.3546
N6280 X1.981 Y1.2895 Z.3469
N6290 X2.1297 Y1.0256 Z.3393
N6300 X2.2433 Y.7448 Z.3316
N6310 X2.3202 Y.4519 Z.324
N6320 X2.3589 Y.1514 Z.3163
N6330 Y-.1514 Z.3087
N6340 X2.3202 Y-.4519 Z.301
N6350 X2.2433 Y-.7448 Z.2934
N6360 X2.1297 Y-1.0256 Z.2857
N6370 X1.981 Y-1.2895 Z.2781
N6380 X1.7999 Y-1.5322 Z.2704
N6390 X1.5892 Y-1.7498 Z.2628
N6400 X1.3523 Y-1.9387 Z.2551
N6410 X1.0933 Y-2.0957 Z.2474
N6420 X.8164 Y-2.2183 Z.2398
N6430 X.526 Y-2.3045 Z.2321
N6440 X.227 Y-2.3528 Z.2245
N6450 X-.0758 Y-2.3625 Z.2168
N6460 X-.3773 Y-2.3335 Z.2092
N6470 X-.6726 Y-2.2661 Z.2015
N6480 X-.9568 Y-2.1614 Z.1939
N6490 X-1.2254 Y-2.0213 Z.1862
N6500 X-1.4738 Y-1.8481 Z.1786
N6510 X-1.698 Y-1.6444 Z.1709
N6520 X-1.8943 Y-1.4138 Z.1633
N6530 X-2.0596 Y-1.1599 Z.1556
N6540 X-2.191 Y-.887 Z.148
N6550 X-2.2864 Y-.5996 Z.1403
N6560 X-2.3443 Y-.3023 Z.1327
N6570 X-2.3638 Y0. Z.125
N6580 X-2.3458 Y.2905 Z.1176
N6590 X-2.2924 Y.5766 Z.1103
N6600 X-2.2041 Y.8539 Z.1029
N6610 X-2.0825 Y1.1183 Z.0956
N6620 X-1.9293 Y1.3657 Z.0882
N6630 X-1.7468 Y1.5924 Z.0809
N6640 X-1.5379 Y1.795 Z.0735
N6650 X-1.3057 Y1.9704 Z.0662
N6660 X-1.0536 Y2.1159 Z.0588
N6670 X-.7856 Y2.2294 Z.0515
N6680 X-.5057 Y2.309 Z.0441
N6690 X-.2181 Y2.3537 Z.0368
N6700 X.0728 Y2.3626 Z.0294
N6710 X.3626 Y2.3358 Z.0221
N6720 X.6469 Y2.2735 Z.0147
N6730 X.9214 Y2.1768 Z.0074
N6740 X1.1819 Y2.0471 Z0.
;N6750 G2 X2.3638 Y0. I-1.1819 J-2.0471
;N6760 X0. Y-2.3638 I-2.3638 J0.
;N6770 X-2.3638 Y0. I0. J2.3638
;N6780 X0. Y2.3638 I2.3638 J0.
;N6790 X1.1819 Y2.0471 I0. J-2.3638
N6800 G1 X1.2689 Y2.1978
N6810 Z.2
N6820 G0 Z1.825
N6830 X-2.3588 Y0.
N6840 G1 Z1.625 ;F6.42
N6850 X-2.3394 Y.3016 Z1.6173
N6860 X-2.2816 Y.5983 Z1.6097
N6870 X-2.1864 Y.8852 Z1.602
N6880 X-2.0552 Y1.1575 Z1.5944
N6890 X-1.8903 Y1.4108 Z1.5867
N6900 X-1.6944 Y1.6409 Z1.5791
N6910 X-1.4707 Y1.8441 Z1.5714
N6920 X-1.2228 Y2.0171 Z1.5638
N6930 X-.9548 Y2.1569 Z1.5561
N6940 X-.6711 Y2.2613 Z1.5485
N6950 X-.3765 Y2.3285 Z1.5408
N6960 X-.0756 Y2.3575 Z1.5332
N6970 X.2265 Y2.3479 Z1.5255
N6980 X.5249 Y2.2996 Z1.5179
N6990 X.8146 Y2.2136 Z1.5102
N7000 X1.091 Y2.0913 Z1.5026
N7010 X1.3495 Y1.9346 Z1.4949
N7020 X1.5858 Y1.7461 Z1.4872
N7030 X1.7961 Y1.529 Z1.4796
N7040 X1.9768 Y1.2868 Z1.4719
N7050 X2.1252 Y1.0234 Z1.4643
N7060 X2.2386 Y.7433 Z1.4566
N7070 X2.3153 Y.4509 Z1.449
N7080 X2.3539 Y.1511 Z1.4413
N7090 Y-.1511 Z1.4337
N7100 X2.3153 Y-.4509 Z1.426
N7110 X2.2386 Y-.7433 Z1.4184
N7120 X2.1252 Y-1.0234 Z1.4107
N7130 X1.9768 Y-1.2868 Z1.4031
N7140 X1.7961 Y-1.529 Z1.3954
N7150 X1.5858 Y-1.7461 Z1.3878
N7160 X1.3495 Y-1.9346 Z1.3801
N7170 X1.091 Y-2.0913 Z1.3724
N7180 X.8146 Y-2.2136 Z1.3648
N7190 X.5249 Y-2.2996 Z1.3571
N7200 X.2265 Y-2.3479 Z1.3495
N7210 X-.0756 Y-2.3575 Z1.3418
N7220 X-.3765 Y-2.3285 Z1.3342
N7230 X-.6711 Y-2.2613 Z1.3265
N7240 X-.9548 Y-2.1569 Z1.3189
N7250 X-1.2228 Y-2.0171 Z1.3112
N7260 X-1.4707 Y-1.8441 Z1.3036
N7270 X-1.6944 Y-1.6409 Z1.2959
N7280 X-1.8903 Y-1.4108 Z1.2883
N7290 X-2.0552 Y-1.1575 Z1.2806
N7300 X-2.1864 Y-.8852 Z1.273
N7310 X-2.2816 Y-.5983 Z1.2653
N7320 X-2.3394 Y-.3016 Z1.2577
N7330 X-2.3588 Y0. Z1.25
N7340 X-2.3394 Y.3016 Z1.2423
N7350 X-2.2816 Y.5983 Z1.2347
N7360 X-2.1864 Y.8852 Z1.227
N7370 X-2.0552 Y1.1575 Z1.2194
N7380 X-1.8903 Y1.4108 Z1.2117
N7390 X-1.6944 Y1.6409 Z1.2041
N7400 X-1.4707 Y1.8441 Z1.1964
N7410 X-1.2228 Y2.0171 Z1.1888
N7420 X-.9548 Y2.1569 Z1.1811
N7430 X-.6711 Y2.2613 Z1.1735
N7440 X-.3765 Y2.3285 Z1.1658
N7450 X-.0756 Y2.3575 Z1.1582
N7460 X.2265 Y2.3479 Z1.1505
N7470 X.5249 Y2.2996 Z1.1429
N7480 X.8146 Y2.2136 Z1.1352
N7490 X1.091 Y2.0913 Z1.1276
N7500 X1.3495 Y1.9346 Z1.1199
N7510 X1.5858 Y1.7461 Z1.1122
N7520 X1.7961 Y1.529 Z1.1046
N7530 X1.9768 Y1.2868 Z1.0969
N7540 X2.1252 Y1.0234 Z1.0893
N7550 X2.2386 Y.7433 Z1.0816
N7560 X2.3153 Y.4509 Z1.074
N7570 X2.3539 Y.1511 Z1.0663
N7580 Y-.1511 Z1.0587
N7590 X2.3153 Y-.4509 Z1.051
N7600 X2.2386 Y-.7433 Z1.0434
N7610 X2.1252 Y-1.0234 Z1.0357
N7620 X1.9768 Y-1.2868 Z1.0281
N7630 X1.7961 Y-1.529 Z1.0204
N7640 X1.5858 Y-1.7461 Z1.0128
N7650 X1.3495 Y-1.9346 Z1.0051
N7660 X1.091 Y-2.0913 Z.9974
N7670 X.8146 Y-2.2136 Z.9898
N7680 X.5249 Y-2.2996 Z.9821
N7690 X.2265 Y-2.3479 Z.9745
N7700 X-.0756 Y-2.3575 Z.9668
N7710 X-.3765 Y-2.3285 Z.9592
N7720 X-.6711 Y-2.2613 Z.9515
N7730 X-.9548 Y-2.1569 Z.9439
N7740 X-1.2228 Y-2.0171 Z.9362
N7750 X-1.4707 Y-1.8441 Z.9286
N7760 X-1.6944 Y-1.6409 Z.9209
N7770 X-1.8903 Y-1.4108 Z.9133
N7780 X-2.0552 Y-1.1575 Z.9056
N7790 X-2.1864 Y-.8852 Z.898
N7800 X-2.2816 Y-.5983 Z.8903
N7810 X-2.3394 Y-.3016 Z.8827
N7820 X-2.3588 Y0. Z.875
N7830 X-2.3394 Y.3016 Z.8673
N7840 X-2.2816 Y.5983 Z.8597
N7850 X-2.1864 Y.8852 Z.852
N7860 X-2.0552 Y1.1575 Z.8444
N7870 X-1.8903 Y1.4108 Z.8367
N7880 X-1.6944 Y1.6409 Z.8291
N7890 X-1.4707 Y1.8441 Z.8214
N7900 X-1.2228 Y2.0171 Z.8138
N7910 X-.9548 Y2.1569 Z.8061
N7920 X-.6711 Y2.2613 Z.7985
N7930 X-.3765 Y2.3285 Z.7908
N7940 X-.0756 Y2.3575 Z.7832
N7950 X.2265 Y2.3479 Z.7755
N7960 X.5249 Y2.2996 Z.7679
N7970 X.8146 Y2.2136 Z.7602
N7980 X1.091 Y2.0913 Z.7526
N7990 X1.3495 Y1.9346 Z.7449
N8000 X1.5858 Y1.7461 Z.7372
N8010 X1.7961 Y1.529 Z.7296
N8020 X1.9768 Y1.2868 Z.7219
N8030 X2.1252 Y1.0234 Z.7143
N8040 X2.2386 Y.7433 Z.7066
N8050 X2.3153 Y.4509 Z.699
N8060 X2.3539 Y.1511 Z.6913
N8070 Y-.1511 Z.6837
N8080 X2.3153 Y-.4509 Z.676
N8090 X2.2386 Y-.7433 Z.6684
N8100 X2.1252 Y-1.0234 Z.6607
N8110 X1.9768 Y-1.2868 Z.6531
N8120 X1.7961 Y-1.529 Z.6454
N8130 X1.5858 Y-1.7461 Z.6378
N8140 X1.3495 Y-1.9346 Z.6301
N8150 X1.091 Y-2.0913 Z.6224
N8160 X.8146 Y-2.2136 Z.6148
N8170 X.5249 Y-2.2996 Z.6071
N8180 X.2265 Y-2.3479 Z.5995
N8190 X-.0756 Y-2.3575 Z.5918
N8200 X-.3765 Y-2.3285 Z.5842
N8210 X-.6711 Y-2.2613 Z.5765
N8220 X-.9548 Y-2.1569 Z.5689
N8230 X-1.2228 Y-2.0171 Z.5612
N8240 X-1.4707 Y-1.8441 Z.5536
N8250 X-1.6944 Y-1.6409 Z.5459
N8260 X-1.8903 Y-1.4108 Z.5383
N8270 X-2.0552 Y-1.1575 Z.5306
N8280 X-2.1864 Y-.8852 Z.523
N8290 X-2.2816 Y-.5983 Z.5153
N8300 X-2.3394 Y-.3016 Z.5077
N8310 X-2.3588 Y0. Z.5
N8320 X-2.3394 Y.3016 Z.4923
N8330 X-2.2816 Y.5983 Z.4847
N8340 X-2.1864 Y.8852 Z.477
N8350 X-2.0552 Y1.1575 Z.4694
N8360 X-1.8903 Y1.4108 Z.4617
N8370 X-1.6944 Y1.6409 Z.4541
N8380 X-1.4707 Y1.8441 Z.4464
N8390 X-1.2228 Y2.0171 Z.4388
N8400 X-.9548 Y2.1569 Z.4311
N8410 X-.6711 Y2.2613 Z.4235
N8420 X-.3765 Y2.3285 Z.4158
N8430 X-.0756 Y2.3575 Z.4082
N8440 X.2265 Y2.3479 Z.4005
N8450 X.5249 Y2.2996 Z.3929
N8460 X.8146 Y2.2136 Z.3852
N8470 X1.091 Y2.0913 Z.3776
N8480 X1.3495 Y1.9346 Z.3699
N8490 X1.5858 Y1.7461 Z.3622
N8500 X1.7961 Y1.529 Z.3546
N8510 X1.9768 Y1.2868 Z.3469
N8520 X2.1252 Y1.0234 Z.3393
N8530 X2.2386 Y.7433 Z.3316
N8540 X2.3153 Y.4509 Z.324
N8550 X2.3539 Y.1511 Z.3163
N8560 Y-.1511 Z.3087
N8570 X2.3153 Y-.4509 Z.301
N8580 X2.2386 Y-.7433 Z.2934
N8590 X2.1252 Y-1.0234 Z.2857
N8600 X1.9768 Y-1.2868 Z.2781
N8610 X1.7961 Y-1.529 Z.2704
N8620 X1.5858 Y-1.7461 Z.2628
N8630 X1.3495 Y-1.9346 Z.2551
N8640 X1.091 Y-2.0913 Z.2474
N8650 X.8146 Y-2.2136 Z.2398
N8660 X.5249 Y-2.2996 Z.2321
N8670 X.2265 Y-2.3479 Z.2245
N8680 X-.0756 Y-2.3575 Z.2168
N8690 X-.3765 Y-2.3285 Z.2092
N8700 X-.6711 Y-2.2613 Z.2015
N8710 X-.9548 Y-2.1569 Z.1939
N8720 X-1.2228 Y-2.0171 Z.1862
N8730 X-1.4707 Y-1.8441 Z.1786
N8740 X-1.6944 Y-1.6409 Z.1709
N8750 X-1.8903 Y-1.4108 Z.1633
N8760 X-2.0552 Y-1.1575 Z.1556
N8770 X-2.1864 Y-.8852 Z.148
N8780 X-2.2816 Y-.5983 Z.1403
N8790 X-2.3394 Y-.3016 Z.1327
N8800 X-2.3588 Y0. Z.125
N8810 X-2.3409 Y.2899 Z.1176
N8820 X-2.2875 Y.5753 Z.1103
N8830 X-2.1995 Y.8521 Z.1029
N8840 X-2.0781 Y1.1159 Z.0956
N8850 X-1.9252 Y1.3628 Z.0882
N8860 X-1.7431 Y1.5891 Z.0809
N8870 X-1.5346 Y1.7912 Z.0735
N8880 X-1.3029 Y1.9663 Z.0662
N8890 X-1.0514 Y2.1115 Z.0588
N8900 X-.7839 Y2.2247 Z.0515
N8910 X-.5046 Y2.3041 Z.0441
N8920 X-.2176 Y2.3487 Z.0368
N8930 X.0726 Y2.3576 Z.0294
N8940 X.3618 Y2.3308 Z.0221
N8950 X.6455 Y2.2687 Z.0147
N8960 X.9194 Y2.1722 Z.0074
N8970 X1.1794 Y2.0427 Z0.
;N8980 G2 X2.3587 Y0. I-1.1794 J-2.0427
;N8990 X0. Y-2.3587 I-2.3587 J0.
;N9000 X-2.3588 Y0. I0. J2.3587
;N9010 X0. Y2.3588 I2.3588 J0.
;N9020 X1.1794 Y2.0427 I0. J-2.3588
N9030 G1 X1.2664 Y2.1934
N9040 Z.2
N9050 G0 Z1.825
N9060 X-2.3537 Y0.
N9070 G1 Z1.625 ;F6.42
N9080 X-2.3344 Y.301 Z1.6173
N9090 X-2.2768 Y.597 Z1.6097
N9100 X-2.1817 Y.8833 Z1.602
N9110 X-2.0509 Y1.155 Z1.5944
N9120 X-1.8863 Y1.4078 Z1.5867
N9130 X-1.6908 Y1.6375 Z1.5791
N9140 X-1.4675 Y1.8402 Z1.5714
N9150 X-1.2202 Y2.0128 Z1.5638
N9160 X-.9528 Y2.1523 Z1.5561
N9170 X-.6697 Y2.2565 Z1.5485
N9180 X-.3757 Y2.3236 Z1.5408
N9190 X-.0754 Y2.3525 Z1.5332
N9200 X.226 Y2.3429 Z1.5255
N9210 X.5238 Y2.2947 Z1.5179
N9220 X.8129 Y2.2089 Z1.5102
N9230 X1.0887 Y2.0868 Z1.5026
N9240 X1.3466 Y1.9305 Z1.4949
N9250 X1.5824 Y1.7424 Z1.4872
N9260 X1.7923 Y1.5258 Z1.4796
N9270 X1.9726 Y1.2841 Z1.4719
N9280 X2.1207 Y1.0213 Z1.4643
N9290 X2.2338 Y.7417 Z1.4566
N9300 X2.3103 Y.4499 Z1.449
N9310 X2.3489 Y.1508 Z1.4413
N9320 Y-.1508 Z1.4337
N9330 X2.3103 Y-.4499 Z1.426
N9340 X2.2338 Y-.7417 Z1.4184
N9350 X2.1207 Y-1.0213 Z1.4107
N9360 X1.9726 Y-1.2841 Z1.4031
N9370 X1.7923 Y-1.5258 Z1.3954
N9380 X1.5824 Y-1.7424 Z1.3878
N9390 X1.3466 Y-1.9305 Z1.3801
N9400 X1.0887 Y-2.0868 Z1.3724
N9410 X.8129 Y-2.2089 Z1.3648
N9420 X.5238 Y-2.2947 Z1.3571
N9430 X.226 Y-2.3429 Z1.3495
N9440 X-.0754 Y-2.3525 Z1.3418
N9450 X-.3757 Y-2.3236 Z1.3342
N9460 X-.6697 Y-2.2565 Z1.3265
N9470 X-.9528 Y-2.1523 Z1.3189
N9480 X-1.2202 Y-2.0128 Z1.3112
N9490 X-1.4675 Y-1.8402 Z1.3036
N9500 X-1.6908 Y-1.6375 Z1.2959
N9510 X-1.8863 Y-1.4078 Z1.2883
N9520 X-2.0509 Y-1.155 Z1.2806
N9530 X-2.1817 Y-.8833 Z1.273
N9540 X-2.2768 Y-.597 Z1.2653
N9550 X-2.3344 Y-.301 Z1.2577
N9560 X-2.3537 Y0. Z1.25
N9570 X-2.3344 Y.301 Z1.2423
N9580 X-2.2768 Y.597 Z1.2347
N9590 X-2.1817 Y.8833 Z1.227
N9600 X-2.0509 Y1.155 Z1.2194
N9610 X-1.8863 Y1.4078 Z1.2117
N9620 X-1.6908 Y1.6375 Z1.2041
N9630 X-1.4675 Y1.8402 Z1.1964
N9640 X-1.2202 Y2.0128 Z1.1888
N9650 X-.9528 Y2.1523 Z1.1811
N9660 X-.6697 Y2.2565 Z1.1735
N9670 X-.3757 Y2.3236 Z1.1658
N9680 X-.0754 Y2.3525 Z1.1582
N9690 X.226 Y2.3429 Z1.1505
N9700 X.5238 Y2.2947 Z1.1429
N9710 X.8129 Y2.2089 Z1.1352
N9720 X1.0887 Y2.0868 Z1.1276
N9730 X1.3466 Y1.9305 Z1.1199
N9740 X1.5824 Y1.7424 Z1.1122
N9750 X1.7923 Y1.5258 Z1.1046
N9760 X1.9726 Y1.2841 Z1.0969
N9770 X2.1207 Y1.0213 Z1.0893
N9780 X2.2338 Y.7417 Z1.0816
N9790 X2.3103 Y.4499 Z1.074
N9800 X2.3489 Y.1508 Z1.0663
N9810 Y-.1508 Z1.0587
N9820 X2.3103 Y-.4499 Z1.051
N9830 X2.2338 Y-.7417 Z1.0434
N9840 X2.1207 Y-1.0213 Z1.0357
N9850 X1.9726 Y-1.2841 Z1.0281
N9860 X1.7923 Y-1.5258 Z1.0204
N9870 X1.5824 Y-1.7424 Z1.0128
N9880 X1.3466 Y-1.9305 Z1.0051
N9890 X1.0887 Y-2.0868 Z.9974
N9900 X.8129 Y-2.2089 Z.9898
N9910 X.5238 Y-2.2947 Z.9821
N9920 X.226 Y-2.3429 Z.9745
N9930 X-.0754 Y-2.3525 Z.9668
N9940 X-.3757 Y-2.3236 Z.9592
N9950 X-.6697 Y-2.2565 Z.9515
N9960 X-.9528 Y-2.1523 Z.9439
N9970 X-1.2202 Y-2.0128 Z.9362
N9980 X-1.4675 Y-1.8402 Z.9286
N9990 X-1.6908 Y-1.6375 Z.9209
N100 X-1.8863 Y-1.4078 Z.9133
N110 X-2.0509 Y-1.155 Z.9056
N120 X-2.1817 Y-.8833 Z.898
N130 X-2.2768 Y-.597 Z.8903
N140 X-2.3344 Y-.301 Z.8827
N150 X-2.3537 Y0. Z.875
N160 X-2.3344 Y.301 Z.8673
N170 X-2.2768 Y.597 Z.8597
N180 X-2.1817 Y.8833 Z.852
N190 X-2.0509 Y1.155 Z.8444
N200 X-1.8863 Y1.4078 Z.8367
N210 X-1.6908 Y1.6375 Z.8291
N220 X-1.4675 Y1.8402 Z.8214
N230 X-1.2202 Y2.0128 Z.8138
N240 X-.9528 Y2.1523 Z.8061
N250 X-.6697 Y2.2565 Z.7985
N260 X-.3757 Y2.3236 Z.7908
N270 X-.0754 Y2.3525 Z.7832
N280 X.226 Y2.3429 Z.7755
N290 X.5238 Y2.2947 Z.7679
N300 X.8129 Y2.2089 Z.7602
N310 X1.0887 Y2.0868 Z.7526
N320 X1.3466 Y1.9305 Z.7449
N330 X1.5824 Y1.7424 Z.7372
N340 X1.7923 Y1.5258 Z.7296
N350 X1.9726 Y1.2841 Z.7219
N360 X2.1207 Y1.0213 Z.7143
N370 X2.2338 Y.7417 Z.7066
N380 X2.3103 Y.4499 Z.699
N390 X2.3489 Y.1508 Z.6913
N400 Y-.1508 Z.6837
N410 X2.3103 Y-.4499 Z.676
N420 X2.2338 Y-.7417 Z.6684
N430 X2.1207 Y-1.0213 Z.6607
N440 X1.9726 Y-1.2841 Z.6531
N450 X1.7923 Y-1.5258 Z.6454
N460 X1.5824 Y-1.7424 Z.6378
N470 X1.3466 Y-1.9305 Z.6301
N480 X1.0887 Y-2.0868 Z.6224
N490 X.8129 Y-2.2089 Z.6148
N500 X.5238 Y-2.2947 Z.6071
N510 X.226 Y-2.3429 Z.5995
N520 X-.0754 Y-2.3525 Z.5918
N530 X-.3757 Y-2.3236 Z.5842
N540 X-.6697 Y-2.2565 Z.5765
N550 X-.9528 Y-2.1523 Z.5689
N560 X-1.2202 Y-2.0128 Z.5612
N570 X-1.4675 Y-1.8402 Z.5536
N580 X-1.6908 Y-1.6375 Z.5459
N590 X-1.8863 Y-1.4078 Z.5383
N600 X-2.0509 Y-1.155 Z.5306
N610 X-2.1817 Y-.8833 Z.523
N620 X-2.2768 Y-.597 Z.5153
N630 X-2.3344 Y-.301 Z.5077
N640 X-2.3537 Y0. Z.5
N650 X-2.3344 Y.301 Z.4923
N660 X-2.2768 Y.597 Z.4847
N670 X-2.1817 Y.8833 Z.477
N680 X-2.0509 Y1.155 Z.4694
N690 X-1.8863 Y1.4078 Z.4617
N700 X-1.6908 Y1.6375 Z.4541
N710 X-1.4675 Y1.8402 Z.4464
N720 X-1.2202 Y2.0128 Z.4388
N730 X-.9528 Y2.1523 Z.4311
N740 X-.6697 Y2.2565 Z.4235
N750 X-.3757 Y2.3236 Z.4158
N760 X-.0754 Y2.3525 Z.4082
N770 X.226 Y2.3429 Z.4005
N780 X.5238 Y2.2947 Z.3929
N790 X.8129 Y2.2089 Z.3852
N800 X1.0887 Y2.0868 Z.3776
N810 X1.3466 Y1.9305 Z.3699
N820 X1.5824 Y1.7424 Z.3622
N830 X1.7923 Y1.5258 Z.3546
N840 X1.9726 Y1.2841 Z.3469
N850 X2.1207 Y1.0213 Z.3393
N860 X2.2338 Y.7417 Z.3316
N870 X2.3103 Y.4499 Z.324
N880 X2.3489 Y.1508 Z.3163
N890 Y-.1508 Z.3087
N900 X2.3103 Y-.4499 Z.301
N910 X2.2338 Y-.7417 Z.2934
N920 X2.1207 Y-1.0213 Z.2857
N930 X1.9726 Y-1.2841 Z.2781
N940 X1.7923 Y-1.5258 Z.2704
N950 X1.5824 Y-1.7424 Z.2628
N960 X1.3466 Y-1.9305 Z.2551
N970 X1.0887 Y-2.0868 Z.2474
N980 X.8129 Y-2.2089 Z.2398
N990 X.5238 Y-2.2947 Z.2321
N1000 X.226 Y-2.3429 Z.2245
N1010 X-.0754 Y-2.3525 Z.2168
N1020 X-.3757 Y-2.3236 Z.2092
N1030 X-.6697 Y-2.2565 Z.2015
N1040 X-.9528 Y-2.1523 Z.1939
N1050 X-1.2202 Y-2.0128 Z.1862
N1060 X-1.4675 Y-1.8402 Z.1786
N1070 X-1.6908 Y-1.6375 Z.1709
N1080 X-1.8863 Y-1.4078 Z.1633
N1090 X-2.0509 Y-1.155 Z.1556
N1100 X-2.1817 Y-.8833 Z.148
N1110 X-2.2768 Y-.597 Z.1403
N1120 X-2.3344 Y-.301 Z.1327
N1130 X-2.3537 Y0. Z.125
N1140 X-2.3359 Y.2892 Z.1176
N1150 X-2.2827 Y.5741 Z.1103
N1160 X-2.1948 Y.8503 Z.1029
N1170 X-2.0737 Y1.1135 Z.0956
N1180 X-1.9211 Y1.3599 Z.0882
N1190 X-1.7394 Y1.5857 Z.0809
N1200 X-1.5314 Y1.7874 Z.0735
N1210 X-1.3001 Y1.9621 Z.0662
N1220 X-1.0492 Y2.107 Z.0588
N1230 X-.7823 Y2.2199 Z.0515
N1240 X-.5035 Y2.2993 Z.0441
N1250 X-.2172 Y2.3437 Z.0368
N1260 X.0725 Y2.3526 Z.0294
N1270 X.361 Y2.3259 Z.0221
N1280 X.6441 Y2.2639 Z.0147
N1290 X.9175 Y2.1676 Z.0074
N1300 X1.1769 Y2.0384 Z0.
;N1310 G2 X2.3538 Y0. I-1.1769 J-2.0384
;N1320 X0. Y-2.3538 I-2.3538 J0.
;N1330 X-2.3537 Y0. I0. J2.3538
;N1340 X0. Y2.3537 I2.3537 J0.
;N1350 X1.1769 Y2.0384 I0. J-2.3537
N1360 G1 X1.2639 Y2.1891
N1370 Z.2
N1380 G0 Z1.825
N1390 X-2.3487 Y0.
N1400 G1 Z1.625 ;F6.42
N1410 X-2.3295 Y.3004 Z1.6173
N1420 X-2.2719 Y.5958 Z1.6097
N1430 X-2.1771 Y.8814 Z1.602
N1440 X-2.0465 Y1.1526 Z1.5944
N1450 X-1.8823 Y1.4048 Z1.5867
N1460 X-1.6872 Y1.634 Z1.5791
N1470 X-1.4644 Y1.8363 Z1.5714
N1480 X-1.2176 Y2.0085 Z1.5638
N1490 X-.9507 Y2.1477 Z1.5561
N1500 X-.6683 Y2.2517 Z1.5485
N1510 X-.3749 Y2.3186 Z1.5408
N1520 X-.0753 Y2.3475 Z1.5332
N1530 X.2255 Y2.3379 Z1.5255
N1540 X.5226 Y2.2899 Z1.5179
N1550 X.8112 Y2.2042 Z1.5102
N1560 X1.0864 Y2.0824 Z1.5026
N1570 X1.3438 Y1.9264 Z1.4949
N1580 X1.5791 Y1.7387 Z1.4872
N1590 X1.7884 Y1.5225 Z1.4796
N1600 X1.9685 Y1.2813 Z1.4719
N1610 X2.1162 Y1.0191 Z1.4643
N1620 X2.2291 Y.7401 Z1.4566
N1630 X2.3054 Y.449 Z1.449
N1640 X2.3439 Y.1505 Z1.4413
N1650 Y-.1505 Z1.4337
N1660 X2.3054 Y-.449 Z1.426
N1670 X2.2291 Y-.7401 Z1.4184
N1680 X2.1162 Y-1.0191 Z1.4107
N1690 X1.9685 Y-1.2813 Z1.4031
N1700 X1.7884 Y-1.5225 Z1.3954
N1710 X1.5791 Y-1.7387 Z1.3878
N1720 X1.3438 Y-1.9264 Z1.3801
N1730 X1.0864 Y-2.0824 Z1.3724
N1740 X.8112 Y-2.2042 Z1.3648
N1750 X.5226 Y-2.2899 Z1.3571
N1760 X.2255 Y-2.3379 Z1.3495
N1770 X-.0753 Y-2.3475 Z1.3418
N1780 X-.3749 Y-2.3186 Z1.3342
N1790 X-.6683 Y-2.2517 Z1.3265
N1800 X-.9507 Y-2.1477 Z1.3189
N1810 X-1.2176 Y-2.0085 Z1.3112
N1820 X-1.4644 Y-1.8363 Z1.3036
N1830 X-1.6872 Y-1.634 Z1.2959
N1840 X-1.8823 Y-1.4048 Z1.2883
N1850 X-2.0465 Y-1.1526 Z1.2806
N1860 X-2.1771 Y-.8814 Z1.273
N1870 X-2.2719 Y-.5958 Z1.2653
N1880 X-2.3295 Y-.3004 Z1.2577
N1890 X-2.3487 Y0. Z1.25
N1900 X-2.3295 Y.3004 Z1.2423
N1910 X-2.2719 Y.5958 Z1.2347
N1920 X-2.1771 Y.8814 Z1.227
N1930 X-2.0465 Y1.1526 Z1.2194
N1940 X-1.8823 Y1.4048 Z1.2117
N1950 X-1.6872 Y1.634 Z1.2041
N1960 X-1.4644 Y1.8363 Z1.1964
N1970 X-1.2176 Y2.0085 Z1.1888
N1980 X-.9507 Y2.1477 Z1.1811
N1990 X-.6683 Y2.2517 Z1.1735
N2000 X-.3749 Y2.3186 Z1.1658
N2010 X-.0753 Y2.3475 Z1.1582
N2020 X.2255 Y2.3379 Z1.1505
N2030 X.5226 Y2.2899 Z1.1429
N2040 X.8112 Y2.2042 Z1.1352
N2050 X1.0864 Y2.0824 Z1.1276
N2060 X1.3438 Y1.9264 Z1.1199
N2070 X1.5791 Y1.7387 Z1.1122
N2080 X1.7884 Y1.5225 Z1.1046
N2090 X1.9685 Y1.2813 Z1.0969
N2100 X2.1162 Y1.0191 Z1.0893
N2110 X2.2291 Y.7401 Z1.0816
N2120 X2.3054 Y.449 Z1.074
N2130 X2.3439 Y.1505 Z1.0663
N2140 Y-.1505 Z1.0587
N2150 X2.3054 Y-.449 Z1.051
N2160 X2.2291 Y-.7401 Z1.0434
N2170 X2.1162 Y-1.0191 Z1.0357
N2180 X1.9685 Y-1.2813 Z1.0281
N2190 X1.7884 Y-1.5225 Z1.0204
N2200 X1.5791 Y-1.7387 Z1.0128
N2210 X1.3438 Y-1.9264 Z1.0051
N2220 X1.0864 Y-2.0824 Z.9974
N2230 X.8112 Y-2.2042 Z.9898
N2240 X.5226 Y-2.2899 Z.9821
N2250 X.2255 Y-2.3379 Z.9745
N2260 X-.0753 Y-2.3475 Z.9668
N2270 X-.3749 Y-2.3186 Z.9592
N2280 X-.6683 Y-2.2517 Z.9515
N2290 X-.9507 Y-2.1477 Z.9439
N2300 X-1.2176 Y-2.0085 Z.9362
N2310 X-1.4644 Y-1.8363 Z.9286
N2320 X-1.6872 Y-1.634 Z.9209
N2330 X-1.8823 Y-1.4048 Z.9133
N2340 X-2.0465 Y-1.1526 Z.9056
N2350 X-2.1771 Y-.8814 Z.898
N2360 X-2.2719 Y-.5958 Z.8903
N2370 X-2.3295 Y-.3004 Z.8827
N2380 X-2.3487 Y0. Z.875
N2390 X-2.3295 Y.3004 Z.8673
N2400 X-2.2719 Y.5958 Z.8597
N2410 X-2.1771 Y.8814 Z.852
N2420 X-2.0465 Y1.1526 Z.8444
N2430 X-1.8823 Y1.4048 Z.8367
N2440 X-1.6872 Y1.634 Z.8291
N2450 X-1.4644 Y1.8363 Z.8214
N2460 X-1.2176 Y2.0085 Z.8138
N2470 X-.9507 Y2.1477 Z.8061
N2480 X-.6683 Y2.2517 Z.7985
N2490 X-.3749 Y2.3186 Z.7908
N2500 X-.0753 Y2.3475 Z.7832
N2510 X.2255 Y2.3379 Z.7755
N2520 X.5226 Y2.2899 Z.7679
N2530 X.8112 Y2.2042 Z.7602
N2540 X1.0864 Y2.0824 Z.7526
N2550 X1.3438 Y1.9264 Z.7449
N2560 X1.5791 Y1.7387 Z.7372
N2570 X1.7884 Y1.5225 Z.7296
N2580 X1.9685 Y1.2813 Z.7219
N2590 X2.1162 Y1.0191 Z.7143
N2600 X2.2291 Y.7401 Z.7066
N2610 X2.3054 Y.449 Z.699
N2620 X2.3439 Y.1505 Z.6913
N2630 Y-.1505 Z.6837
N2640 X2.3054 Y-.449 Z.676
N2650 X2.2291 Y-.7401 Z.6684
N2660 X2.1162 Y-1.0191 Z.6607
N2670 X1.9685 Y-1.2813 Z.6531
N2680 X1.7884 Y-1.5225 Z.6454
N2690 X1.5791 Y-1.7387 Z.6378
N2700 X1.3438 Y-1.9264 Z.6301
N2710 X1.0864 Y-2.0824 Z.6224
N2720 X.8112 Y-2.2042 Z.6148
N2730 X.5226 Y-2.2899 Z.6071
N2740 X.2255 Y-2.3379 Z.5995
N2750 X-.0753 Y-2.3475 Z.5918
N2760 X-.3749 Y-2.3186 Z.5842
N2770 X-.6683 Y-2.2517 Z.5765
N2780 X-.9507 Y-2.1477 Z.5689
N2790 X-1.2176 Y-2.0085 Z.5612
N2800 X-1.4644 Y-1.8363 Z.5536
N2810 X-1.6872 Y-1.634 Z.5459
N2820 X-1.8823 Y-1.4048 Z.5383
N2830 X-2.0465 Y-1.1526 Z.5306
N2840 X-2.1771 Y-.8814 Z.523
N2850 X-2.2719 Y-.5958 Z.5153
N2860 X-2.3295 Y-.3004 Z.5077
N2870 X-2.3487 Y0. Z.5
N2880 X-2.3295 Y.3004 Z.4923
N2890 X-2.2719 Y.5958 Z.4847
N2900 X-2.1771 Y.8814 Z.477
N2910 X-2.0465 Y1.1526 Z.4694
N2920 X-1.8823 Y1.4048 Z.4617
N2930 X-1.6872 Y1.634 Z.4541
N2940 X-1.4644 Y1.8363 Z.4464
N2950 X-1.2176 Y2.0085 Z.4388
N2960 X-.9507 Y2.1477 Z.4311
N2970 X-.6683 Y2.2517 Z.4235
N2980 X-.3749 Y2.3186 Z.4158
N2990 X-.0753 Y2.3475 Z.4082
N3000 X.2255 Y2.3379 Z.4005
N3010 X.5226 Y2.2899 Z.3929
N3020 X.8112 Y2.2042 Z.3852
N3030 X1.0864 Y2.0824 Z.3776
N3040 X1.3438 Y1.9264 Z.3699
N3050 X1.5791 Y1.7387 Z.3622
N3060 X1.7884 Y1.5225 Z.3546
N3070 X1.9685 Y1.2813 Z.3469
N3080 X2.1162 Y1.0191 Z.3393
N3090 X2.2291 Y.7401 Z.3316
N3100 X2.3054 Y.449 Z.324
N3110 X2.3439 Y.1505 Z.3163
N3120 Y-.1505 Z.3087
N3130 X2.3054 Y-.449 Z.301
N3140 X2.2291 Y-.7401 Z.2934
N3150 X2.1162 Y-1.0191 Z.2857
N3160 X1.9685 Y-1.2813 Z.2781
N3170 X1.7884 Y-1.5225 Z.2704
N3180 X1.5791 Y-1.7387 Z.2628
N3190 X1.3438 Y-1.9264 Z.2551
N3200 X1.0864 Y-2.0824 Z.2474
N3210 X.8112 Y-2.2042 Z.2398
N3220 X.5226 Y-2.2899 Z.2321
N3230 X.2255 Y-2.3379 Z.2245
N3240 X-.0753 Y-2.3475 Z.2168
N3250 X-.3749 Y-2.3186 Z.2092
N3260 X-.6683 Y-2.2517 Z.2015
N3270 X-.9507 Y-2.1477 Z.1939
N3280 X-1.2176 Y-2.0085 Z.1862
N3290 X-1.4644 Y-1.8363 Z.1786
N3300 X-1.6872 Y-1.634 Z.1709
N3310 X-1.8823 Y-1.4048 Z.1633
N3320 X-2.0465 Y-1.1526 Z.1556
N3330 X-2.1771 Y-.8814 Z.148
N3340 X-2.2719 Y-.5958 Z.1403
N3350 X-2.3295 Y-.3004 Z.1327
N3360 X-2.3487 Y0. Z.125
N3370 X-2.3309 Y.2886 Z.1176
N3380 X-2.2778 Y.5729 Z.1103
N3390 X-2.1901 Y.8485 Z.1029
N3400 X-2.0693 Y1.1112 Z.0956
N3410 X-1.917 Y1.357 Z.0882
N3420 X-1.7357 Y1.5823 Z.0809
N3430 X-1.5281 Y1.7837 Z.0735
N3440 X-1.2974 Y1.9579 Z.0662
N3450 X-1.0469 Y2.1025 Z.0588
N3460 X-.7806 Y2.2152 Z.0515
N3470 X-.5025 Y2.2944 Z.0441
N3480 X-.2167 Y2.3387 Z.0368
N3490 X.0723 Y2.3476 Z.0294
N3500 X.3603 Y2.321 Z.0221
N3510 X.6428 Y2.2591 Z.0147
N3520 X.9155 Y2.163 Z.0074
N3530 X1.1744 Y2.0341 Z0.
;N3540 G2 X2.3488 Y0. I-1.1744 J-2.0341
;N3550 X0. Y-2.3488 I-2.3488 J0.
;N3560 X-2.3487 Y0. I0. J2.3488
;N3570 X0. Y2.3487 I2.3487 J0.
;N3580 X1.1744 Y2.0341 I0. J-2.3487
N3590 G1 X1.2614 Y2.1848
N3600 Z.2
N3610 G0 Z1.825
N3620 X-2.3438 Y0.
N3630 G1 Z1.625 ;F6.42
N3640 X-2.3245 Y.2997 Z1.6173
N3650 X-2.2671 Y.5945 Z1.6097
N3660 X-2.1725 Y.8795 Z1.602
N3670 X-2.0422 Y1.1501 Z1.5944
N3680 X-1.8783 Y1.4018 Z1.5867
N3690 X-1.6836 Y1.6305 Z1.5791
N3700 X-1.4613 Y1.8324 Z1.5714
N3710 X-1.215 Y2.0042 Z1.5638
N3720 X-.9487 Y2.1432 Z1.5561
N3730 X-.6669 Y2.2469 Z1.5485
N3740 X-.3741 Y2.3137 Z1.5408
N3750 X-.0751 Y2.3425 Z1.5332
N3760 X.2251 Y2.3329 Z1.5255
N3770 X.5215 Y2.285 Z1.5179
N3780 X.8094 Y2.1995 Z1.5102
N3790 X1.0841 Y2.078 Z1.5026
N3800 X1.3409 Y1.9223 Z1.4949
N3810 X1.5757 Y1.735 Z1.4872
N3820 X1.7846 Y1.5193 Z1.4796
N3830 X1.9643 Y1.2786 Z1.4719
N3840 X2.1116 Y1.0169 Z1.4643
N3850 X2.2243 Y.7385 Z1.4566
N3860 X2.3005 Y.448 Z1.449
N3870 X2.3389 Y.1502 Z1.4413
N3880 Y-.1502 Z1.4337
N3890 X2.3005 Y-.448 Z1.426
N3900 X2.2243 Y-.7385 Z1.4184
N3910 X2.1116 Y-1.0169 Z1.4107
N3920 X1.9643 Y-1.2786 Z1.4031
N3930 X1.7846 Y-1.5193 Z1.3954
N3940 X1.5757 Y-1.735 Z1.3878
N3950 X1.3409 Y-1.9223 Z1.3801
N3960 X1.0841 Y-2.078 Z1.3724
N3970 X.8094 Y-2.1995 Z1.3648
N3980 X.5215 Y-2.285 Z1.3571
N3990 X.2251 Y-2.3329 Z1.3495
N4000 X-.0751 Y-2.3425 Z1.3418
N4010 X-.3741 Y-2.3137 Z1.3342
N4020 X-.6669 Y-2.2469 Z1.3265
N4030 X-.9487 Y-2.1432 Z1.3189
N4040 X-1.215 Y-2.0042 Z1.3112
N4050 X-1.4613 Y-1.8324 Z1.3036
N4060 X-1.6836 Y-1.6305 Z1.2959
N4070 X-1.8783 Y-1.4018 Z1.2883
N4080 X-2.0422 Y-1.1501 Z1.2806
N4090 X-2.1725 Y-.8795 Z1.273
N4100 X-2.2671 Y-.5945 Z1.2653
N4110 X-2.3245 Y-.2997 Z1.2577
N4120 X-2.3438 Y0. Z1.25
N4130 X-2.3245 Y.2997 Z1.2423
N4140 X-2.2671 Y.5945 Z1.2347
N4150 X-2.1725 Y.8795 Z1.227
N4160 X-2.0422 Y1.1501 Z1.2194
N4170 X-1.8783 Y1.4018 Z1.2117
N4180 X-1.6836 Y1.6305 Z1.2041
N4190 X-1.4613 Y1.8324 Z1.1964
N4200 X-1.215 Y2.0042 Z1.1888
N4210 X-.9487 Y2.1432 Z1.1811
N4220 X-.6669 Y2.2469 Z1.1735
N4230 X-.3741 Y2.3137 Z1.1658
N4240 X-.0751 Y2.3425 Z1.1582
N4250 X.2251 Y2.3329 Z1.1505
N4260 X.5215 Y2.285 Z1.1429
N4270 X.8094 Y2.1995 Z1.1352
N4280 X1.0841 Y2.078 Z1.1276
N4290 X1.3409 Y1.9223 Z1.1199
N4300 X1.5757 Y1.735 Z1.1122
N4310 X1.7846 Y1.5193 Z1.1046
N4320 X1.9643 Y1.2786 Z1.0969
N4330 X2.1116 Y1.0169 Z1.0893
N4340 X2.2243 Y.7385 Z1.0816
N4350 X2.3005 Y.448 Z1.074
N4360 X2.3389 Y.1502 Z1.0663
N4370 Y-.1502 Z1.0587
N4380 X2.3005 Y-.448 Z1.051
N4390 X2.2243 Y-.7385 Z1.0434
N4400 X2.1116 Y-1.0169 Z1.0357
N4410 X1.9643 Y-1.2786 Z1.0281
N4420 X1.7846 Y-1.5193 Z1.0204
N4430 X1.5757 Y-1.735 Z1.0128
N4440 X1.3409 Y-1.9223 Z1.0051
N4450 X1.0841 Y-2.078 Z.9974
N4460 X.8094 Y-2.1995 Z.9898
N4470 X.5215 Y-2.285 Z.9821
N4480 X.2251 Y-2.3329 Z.9745
N4490 X-.0751 Y-2.3425 Z.9668
N4500 X-.3741 Y-2.3137 Z.9592
N4510 X-.6669 Y-2.2469 Z.9515
N4520 X-.9487 Y-2.1432 Z.9439
N4530 X-1.215 Y-2.0042 Z.9362
N4540 X-1.4613 Y-1.8324 Z.9286
N4550 X-1.6836 Y-1.6305 Z.9209
N4560 X-1.8783 Y-1.4018 Z.9133
N4570 X-2.0422 Y-1.1501 Z.9056
N4580 X-2.1725 Y-.8795 Z.898
N4590 X-2.2671 Y-.5945 Z.8903
N4600 X-2.3245 Y-.2997 Z.8827
N4610 X-2.3438 Y0. Z.875
N4620 X-2.3245 Y.2997 Z.8673
N4630 X-2.2671 Y.5945 Z.8597
N4640 X-2.1725 Y.8795 Z.852
N4650 X-2.0422 Y1.1501 Z.8444
N4660 X-1.8783 Y1.4018 Z.8367
N4670 X-1.6836 Y1.6305 Z.8291
N4680 X-1.4613 Y1.8324 Z.8214
N4690 X-1.215 Y2.0042 Z.8138
N4700 X-.9487 Y2.1432 Z.8061
N4710 X-.6669 Y2.2469 Z.7985
N4720 X-.3741 Y2.3137 Z.7908
N4730 X-.0751 Y2.3425 Z.7832
N4740 X.2251 Y2.3329 Z.7755
N4750 X.5215 Y2.285 Z.7679
N4760 X.8094 Y2.1995 Z.7602
N4770 X1.0841 Y2.078 Z.7526
N4780 X1.3409 Y1.9223 Z.7449
N4790 X1.5757 Y1.735 Z.7372
N4800 X1.7846 Y1.5193 Z.7296
N4810 X1.9643 Y1.2786 Z.7219
N4820 X2.1116 Y1.0169 Z.7143
N4830 X2.2243 Y.7385 Z.7066
N4840 X2.3005 Y.448 Z.699
N4850 X2.3389 Y.1502 Z.6913
N4860 Y-.1502 Z.6837
N4870 X2.3005 Y-.448 Z.676
N4880 X2.2243 Y-.7385 Z.6684
N4890 X2.1116 Y-1.0169 Z.6607
N4900 X1.9643 Y-1.2786 Z.6531
N4910 X1.7846 Y-1.5193 Z.6454
N4920 X1.5757 Y-1.735 Z.6378
N4930 X1.3409 Y-1.9223 Z.6301
N4940 X1.0841 Y-2.078 Z.6224
N4950 X.8094 Y-2.1995 Z.6148
N4960 X.5215 Y-2.285 Z.6071
N4970 X.2251 Y-2.3329 Z.5995
N4980 X-.0751 Y-2.3425 Z.5918
N4990 X-.3741 Y-2.3137 Z.5842
N5000 X-.6669 Y-2.2469 Z.5765
N5010 X-.9487 Y-2.1432 Z.5689
N5020 X-1.215 Y-2.0042 Z.5612
N5030 X-1.4613 Y-1.8324 Z.5536
N5040 X-1.6836 Y-1.6305 Z.5459
N5050 X-1.8783 Y-1.4018 Z.5383
N5060 X-2.0422 Y-1.1501 Z.5306
N5070 X-2.1725 Y-.8795 Z.523
N5080 X-2.2671 Y-.5945 Z.5153
N5090 X-2.3245 Y-.2997 Z.5077
N5100 X-2.3438 Y0. Z.5
N5110 X-2.3245 Y.2997 Z.4923
N5120 X-2.2671 Y.5945 Z.4847
N5130 X-2.1725 Y.8795 Z.477
N5140 X-2.0422 Y1.1501 Z.4694
N5150 X-1.8783 Y1.4018 Z.4617
N5160 X-1.6836 Y1.6305 Z.4541
N5170 X-1.4613 Y1.8324 Z.4464
N5180 X-1.215 Y2.0042 Z.4388
N5190 X-.9487 Y2.1432 Z.4311
N5200 X-.6669 Y2.2469 Z.4235
N5210 X-.3741 Y2.3137 Z.4158
N5220 X-.0751 Y2.3425 Z.4082
N5230 X.2251 Y2.3329 Z.4005
N5240 X.5215 Y2.285 Z.3929
N5250 X.8094 Y2.1995 Z.3852
N5260 X1.0841 Y2.078 Z.3776
N5270 X1.3409 Y1.9223 Z.3699
N5280 X1.5757 Y1.735 Z.3622
N5290 X1.7846 Y1.5193 Z.3546
N5300 X1.9643 Y1.2786 Z.3469
N5310 X2.1116 Y1.0169 Z.3393
N5320 X2.2243 Y.7385 Z.3316
N5330 X2.3005 Y.448 Z.324
N5340 X2.3389 Y.1502 Z.3163
N5350 Y-.1502 Z.3087
N5360 X2.3005 Y-.448 Z.301
N5370 X2.2243 Y-.7385 Z.2934
N5380 X2.1116 Y-1.0169 Z.2857
N5390 X1.9643 Y-1.2786 Z.2781
N5400 X1.7846 Y-1.5193 Z.2704
N5410 X1.5757 Y-1.735 Z.2628
N5420 X1.3409 Y-1.9223 Z.2551
N5430 X1.0841 Y-2.078 Z.2474
N5440 X.8094 Y-2.1995 Z.2398
N5450 X.5215 Y-2.285 Z.2321
N5460 X.2251 Y-2.3329 Z.2245
N5470 X-.0751 Y-2.3425 Z.2168
N5480 X-.3741 Y-2.3137 Z.2092
N5490 X-.6669 Y-2.2469 Z.2015
N5500 X-.9487 Y-2.1432 Z.1939
N5510 X-1.215 Y-2.0042 Z.1862
N5520 X-1.4613 Y-1.8324 Z.1786
N5530 X-1.6836 Y-1.6305 Z.1709
N5540 X-1.8783 Y-1.4018 Z.1633
N5550 X-2.0422 Y-1.1501 Z.1556
N5560 X-2.1725 Y-.8795 Z.148
N5570 X-2.2671 Y-.5945 Z.1403
N5580 X-2.3245 Y-.2997 Z.1327
N5590 X-2.3438 Y0. Z.125
N5600 X-2.326 Y.288 Z.1176
N5610 X-2.273 Y.5717 Z.1103
N5620 X-2.1855 Y.8467 Z.1029
N5630 X-2.0649 Y1.1088 Z.0956
N5640 X-1.913 Y1.3542 Z.0882
N5650 X-1.7321 Y1.579 Z.0809
N5660 X-1.5249 Y1.7799 Z.0735
N5670 X-1.2946 Y1.9538 Z.0662
N5680 X-1.0447 Y2.098 Z.0588
N5690 X-.779 Y2.2105 Z.0515
N5700 X-.5014 Y2.2895 Z.0441
N5710 X-.2163 Y2.3338 Z.0368
N5720 X.0722 Y2.3426 Z.0294
N5730 X.3595 Y2.316 Z.0221
N5740 X.6414 Y2.2543 Z.0147
N5750 X.9136 Y2.1584 Z.0074
N5760 X1.1719 Y2.0297 Z0.
;N5770 G2 X2.3437 Y0. I-1.1719 J-2.0297
;N5780 X0. Y-2.3437 I-2.3437 J0.
;N5790 X-2.3438 Y0. I0. J2.3437
;N5800 X0. Y2.3438 I2.3438 J0.
;N5810 X1.1719 Y2.0297 I0. J-2.3438
N5820 G1 X1.2589 Y2.1804
N5830 Z.2
N5840 G0 Z1.825
N5850 X-2.3388 Y0.
N5860 G1 Z1.625 ;F6.42
N5870 X-2.3195 Y.2991 Z1.6173
N5880 X-2.2623 Y.5932 Z1.6097
N5890 X-2.1678 Y.8777 Z1.602
N5900 X-2.0378 Y1.1477 Z1.5944
N5910 X-1.8743 Y1.3988 Z1.5867
N5920 X-1.68 Y1.627 Z1.5791
N5930 X-1.4582 Y1.8285 Z1.5714
N5940 X-1.2124 Y2. Z1.5638
N5950 X-.9467 Y2.1386 Z1.5561
N5960 X-.6654 Y2.2421 Z1.5485
N5970 X-.3733 Y2.3088 Z1.5408
N5980 X-.075 Y2.3375 Z1.5332
N5990 X.2246 Y2.3279 Z1.5255
N6000 X.5204 Y2.2801 Z1.5179
N6010 X.8077 Y2.1948 Z1.5102
N6020 X1.0818 Y2.0735 Z1.5026
N6030 X1.338 Y1.9182 Z1.4949
N6040 X1.5723 Y1.7313 Z1.4872
N6050 X1.7808 Y1.516 Z1.4796
N6060 X1.9601 Y1.2759 Z1.4719
N6070 X2.1071 Y1.0147 Z1.4643
N6080 X2.2196 Y.737 Z1.4566
N6090 X2.2956 Y.4471 Z1.449
N6100 X2.3339 Y.1498 Z1.4413
N6110 Y-.1498 Z1.4337
N6120 X2.2956 Y-.4471 Z1.426
N6130 X2.2196 Y-.737 Z1.4184
N6140 X2.1071 Y-1.0147 Z1.4107
N6150 X1.9601 Y-1.2759 Z1.4031
N6160 X1.7808 Y-1.516 Z1.3954
N6170 X1.5723 Y-1.7313 Z1.3878
N6180 X1.338 Y-1.9182 Z1.3801
N6190 X1.0818 Y-2.0735 Z1.3724
N6200 X.8077 Y-2.1948 Z1.3648
N6210 X.5204 Y-2.2801 Z1.3571
N6220 X.2246 Y-2.3279 Z1.3495
N6230 X-.075 Y-2.3375 Z1.3418
N6240 X-.3733 Y-2.3088 Z1.3342
N6250 X-.6654 Y-2.2421 Z1.3265
N6260 X-.9467 Y-2.1386 Z1.3189
N6270 X-1.2124 Y-2. Z1.3112
N6280 X-1.4582 Y-1.8285 Z1.3036
N6290 X-1.68 Y-1.627 Z1.2959
N6300 X-1.8743 Y-1.3988 Z1.2883
N6310 X-2.0378 Y-1.1477 Z1.2806
N6320 X-2.1678 Y-.8777 Z1.273
N6330 X-2.2623 Y-.5932 Z1.2653
N6340 X-2.3195 Y-.2991 Z1.2577
N6350 X-2.3388 Y0. Z1.25
N6360 X-2.3195 Y.2991 Z1.2423
N6370 X-2.2623 Y.5932 Z1.2347
N6380 X-2.1678 Y.8777 Z1.227
N6390 X-2.0378 Y1.1477 Z1.2194
N6400 X-1.8743 Y1.3988 Z1.2117
N6410 X-1.68 Y1.627 Z1.2041
N6420 X-1.4582 Y1.8285 Z1.1964
N6430 X-1.2124 Y2. Z1.1888
N6440 X-.9467 Y2.1386 Z1.1811
N6450 X-.6654 Y2.2421 Z1.1735
N6460 X-.3733 Y2.3088 Z1.1658
N6470 X-.075 Y2.3375 Z1.1582
N6480 X.2246 Y2.3279 Z1.1505
N6490 X.5204 Y2.2801 Z1.1429
N6500 X.8077 Y2.1948 Z1.1352
N6510 X1.0818 Y2.0735 Z1.1276
N6520 X1.338 Y1.9182 Z1.1199
N6530 X1.5723 Y1.7313 Z1.1122
N6540 X1.7808 Y1.516 Z1.1046
N6550 X1.9601 Y1.2759 Z1.0969
N6560 X2.1071 Y1.0147 Z1.0893
N6570 X2.2196 Y.737 Z1.0816
N6580 X2.2956 Y.4471 Z1.074
N6590 X2.3339 Y.1498 Z1.0663
N6600 Y-.1498 Z1.0587
N6610 X2.2956 Y-.4471 Z1.051
N6620 X2.2196 Y-.737 Z1.0434
N6630 X2.1071 Y-1.0147 Z1.0357
N6640 X1.9601 Y-1.2759 Z1.0281
N6650 X1.7808 Y-1.516 Z1.0204
N6660 X1.5723 Y-1.7313 Z1.0128
N6670 X1.338 Y-1.9182 Z1.0051
N6680 X1.0818 Y-2.0735 Z.9974
N6690 X.8077 Y-2.1948 Z.9898
N6700 X.5204 Y-2.2801 Z.9821
N6710 X.2246 Y-2.3279 Z.9745
N6720 X-.075 Y-2.3375 Z.9668
N6730 X-.3733 Y-2.3088 Z.9592
N6740 X-.6654 Y-2.2421 Z.9515
N6750 X-.9467 Y-2.1386 Z.9439
N6760 X-1.2124 Y-2. Z.9362
N6770 X-1.4582 Y-1.8285 Z.9286
N6780 X-1.68 Y-1.627 Z.9209
N6790 X-1.8743 Y-1.3988 Z.9133
N6800 X-2.0378 Y-1.1477 Z.9056
N6810 X-2.1678 Y-.8777 Z.898
N6820 X-2.2623 Y-.5932 Z.8903
N6830 X-2.3195 Y-.2991 Z.8827
N6840 X-2.3388 Y0. Z.875
N6850 X-2.3195 Y.2991 Z.8673
N6860 X-2.2623 Y.5932 Z.8597
N6870 X-2.1678 Y.8777 Z.852
N6880 X-2.0378 Y1.1477 Z.8444
N6890 X-1.8743 Y1.3988 Z.8367
N6900 X-1.68 Y1.627 Z.8291
N6910 X-1.4582 Y1.8285 Z.8214
N6920 X-1.2124 Y2. Z.8138
N6930 X-.9467 Y2.1386 Z.8061
N6940 X-.6654 Y2.2421 Z.7985
N6950 X-.3733 Y2.3088 Z.7908
N6960 X-.075 Y2.3375 Z.7832
N6970 X.2246 Y2.3279 Z.7755
N6980 X.5204 Y2.2801 Z.7679
N6990 X.8077 Y2.1948 Z.7602
N7000 X1.0818 Y2.0735 Z.7526
N7010 X1.338 Y1.9182 Z.7449
N7020 X1.5723 Y1.7313 Z.7372
N7030 X1.7808 Y1.516 Z.7296
N7040 X1.9601 Y1.2759 Z.7219
N7050 X2.1071 Y1.0147 Z.7143
N7060 X2.2196 Y.737 Z.7066
N7070 X2.2956 Y.4471 Z.699
N7080 X2.3339 Y.1498 Z.6913
N7090 Y-.1498 Z.6837
N7100 X2.2956 Y-.4471 Z.676
N7110 X2.2196 Y-.737 Z.6684
N7120 X2.1071 Y-1.0147 Z.6607
N7130 X1.9601 Y-1.2759 Z.6531
N7140 X1.7808 Y-1.516 Z.6454
N7150 X1.5723 Y-1.7313 Z.6378
N7160 X1.338 Y-1.9182 Z.6301
N7170 X1.0818 Y-2.0735 Z.6224
N7180 X.8077 Y-2.1948 Z.6148
N7190 X.5204 Y-2.2801 Z.6071
N7200 X.2246 Y-2.3279 Z.5995
N7210 X-.075 Y-2.3375 Z.5918
N7220 X-.3733 Y-2.3088 Z.5842
N7230 X-.6654 Y-2.2421 Z.5765
N7240 X-.9467 Y-2.1386 Z.5689
N7250 X-1.2124 Y-2. Z.5612
N7260 X-1.4582 Y-1.8285 Z.5536
N7270 X-1.68 Y-1.627 Z.5459
N7280 X-1.8743 Y-1.3988 Z.5383
N7290 X-2.0378 Y-1.1477 Z.5306
N7300 X-2.1678 Y-.8777 Z.523
N7310 X-2.2623 Y-.5932 Z.5153
N7320 X-2.3195 Y-.2991 Z.5077
N7330 X-2.3388 Y0. Z.5
N7340 X-2.3195 Y.2991 Z.4923
N7350 X-2.2623 Y.5932 Z.4847
N7360 X-2.1678 Y.8777 Z.477
N7370 X-2.0378 Y1.1477 Z.4694
N7380 X-1.8743 Y1.3988 Z.4617
N7390 X-1.68 Y1.627 Z.4541
N7400 X-1.4582 Y1.8285 Z.4464
N7410 X-1.2124 Y2. Z.4388
N7420 X-.9467 Y2.1386 Z.4311
N7430 X-.6654 Y2.2421 Z.4235
N7440 X-.3733 Y2.3088 Z.4158
N7450 X-.075 Y2.3375 Z.4082
N7460 X.2246 Y2.3279 Z.4005
N7470 X.5204 Y2.2801 Z.3929
N7480 X.8077 Y2.1948 Z.3852
N7490 X1.0818 Y2.0735 Z.3776
N7500 X1.338 Y1.9182 Z.3699
N7510 X1.5723 Y1.7313 Z.3622
N7520 X1.7808 Y1.516 Z.3546
N7530 X1.9601 Y1.2759 Z.3469
N7540 X2.1071 Y1.0147 Z.3393
N7550 X2.2196 Y.737 Z.3316
N7560 X2.2956 Y.4471 Z.324
N7570 X2.3339 Y.1498 Z.3163
N7580 Y-.1498 Z.3087
N7590 X2.2956 Y-.4471 Z.301
N7600 X2.2196 Y-.737 Z.2934
N7610 X2.1071 Y-1.0147 Z.2857
N7620 X1.9601 Y-1.2759 Z.2781
N7630 X1.7808 Y-1.516 Z.2704
N7640 X1.5723 Y-1.7313 Z.2628
N7650 X1.338 Y-1.9182 Z.2551
N7660 X1.0818 Y-2.0735 Z.2474
N7670 X.8077 Y-2.1948 Z.2398
N7680 X.5204 Y-2.2801 Z.2321
N7690 X.2246 Y-2.3279 Z.2245
N7700 X-.075 Y-2.3375 Z.2168
N7710 X-.3733 Y-2.3088 Z.2092
N7720 X-.6654 Y-2.2421 Z.2015
N7730 X-.9467 Y-2.1386 Z.1939
N7740 X-1.2124 Y-2. Z.1862
N7750 X-1.4582 Y-1.8285 Z.1786
N7760 X-1.68 Y-1.627 Z.1709
N7770 X-1.8743 Y-1.3988 Z.1633
N7780 X-2.0378 Y-1.1477 Z.1556
N7790 X-2.1678 Y-.8777 Z.148
N7800 X-2.2623 Y-.5932 Z.1403
N7810 X-2.3195 Y-.2991 Z.1327
N7820 X-2.3388 Y0. Z.125
N7830 X-2.321 Y.2874 Z.1176
N7840 X-2.2681 Y.5705 Z.1103
N7850 X-2.1808 Y.8449 Z.1029
N7860 X-2.0605 Y1.1064 Z.0956
N7870 X-1.9089 Y1.3513 Z.0882
N7880 X-1.7284 Y1.5756 Z.0809
N7890 X-1.5216 Y1.7761 Z.0735
N7900 X-1.2918 Y1.9496 Z.0662
N7910 X-1.0425 Y2.0936 Z.0588
N7920 X-.7773 Y2.2058 Z.0515
N7930 X-.5003 Y2.2846 Z.0441
N7940 X-.2158 Y2.3288 Z.0368
N7950 X.072 Y2.3376 Z.0294
N7960 X.3587 Y2.3111 Z.0221
N7970 X.64 Y2.2495 Z.0147
N7980 X.9116 Y2.1538 Z.0074
N7990 X1.1694 Y2.0254 Z0.
;N8000 G2 X2.3387 Y0. I-1.1694 J-2.0254
;N8010 X0. Y-2.3387 I-2.3387 J0.
;N8020 X-2.3388 Y0. I0. J2.3387
;N8030 X0. Y2.3388 I2.3388 J0.
;N8040 X1.1694 Y2.0254 I0. J-2.3388
N8050 G1 X1.2564 Y2.1761
N8060 Z1.825
;N8070 M5
;N8080 G91 G0 G28 Z0.
;N8090 G28 X0. Y0. A0.
;N8100 M30
%
