%
O0000(WAAM_CYLINDER_2875_2)
(DATE=DD-MM-YY - 10-04-25 TIME=HH:MM - 18:57)
(MCAM ;FILE - C:\USERS\CAILEAN S P15\DOCUMENTS\MASTERCAM\WAAM_CYLINDER.EMCAM)
(NC ;FILE - ;F:\WAAM_CYLINDER_2875_2.nc)
(MATERIAL - ALUMINUM INCH - 2024)
( T256 |  1/2 BALL ENDMILL | H256 )
N100 G20
N110 G0 G17 G40 G49 G80 G90
N120 T256 M6
N130 G0 G90 G54 X-.4363 Y0. A0. S1069 M3
N140 G43 H256 Z1.825
N150 G1 Z1.625 F.244
N160 X-.4169 Y-.1286 Z1.6131
N170 X-.3604 Y-.2457 Z1.6012
N180 X-.272 Y-.3411 Z1.5893
N190 X-.1594 Y-.4061 Z1.5774
N200 X-.0326 Y-.435 Z1.5655
N210 X.0971 Y-.4253 Z1.5536
N220 X.2181 Y-.3778 Z1.5417
N230 X.3198 Y-.2967 Z1.5298
N240 X.393 Y-.1893 Z1.5179
N250 X.4314 Y-.065 Z1.506
N260 Y.065 Z1.494
N270 X.393 Y.1893 Z1.4821
N280 X.3198 Y.2967 Z1.4702
N290 X.2181 Y.3778 Z1.4583
N300 X.0971 Y.4253 Z1.4464
N310 X-.0326 Y.435 Z1.4345
N320 X-.1594 Y.4061 Z1.4226
N330 X-.272 Y.3411 Z1.4107
N340 X-.3604 Y.2457 Z1.3988
N350 X-.4169 Y.1286 Z1.3869
N360 X-.4363 Y0. Z1.375
N370 X-.4169 Y-.1286 Z1.3631
N380 X-.3604 Y-.2457 Z1.3512
N390 X-.272 Y-.3411 Z1.3393
N400 X-.1594 Y-.4061 Z1.3274
N410 X-.0326 Y-.435 Z1.3155
N420 X.0971 Y-.4253 Z1.3036
N430 X.2181 Y-.3778 Z1.2917
N440 X.3198 Y-.2967 Z1.2798
N450 X.393 Y-.1893 Z1.2679
N460 X.4314 Y-.065 Z1.256
N470 Y.065 Z1.244
N480 X.393 Y.1893 Z1.2321
N490 X.3198 Y.2967 Z1.2202
N500 X.2181 Y.3778 Z1.2083
N510 X.0971 Y.4253 Z1.1964
N520 X-.0326 Y.435 Z1.1845
N530 X-.1594 Y.4061 Z1.1726
N540 X-.272 Y.3411 Z1.1607
N550 X-.3604 Y.2457 Z1.1488
N560 X-.4169 Y.1286 Z1.1369
N570 X-.4363 Y0. Z1.125
N580 X-.4169 Y-.1286 Z1.1131
N590 X-.3604 Y-.2457 Z1.1012
N600 X-.272 Y-.3411 Z1.0893
N610 X-.1594 Y-.4061 Z1.0774
N620 X-.0326 Y-.435 Z1.0655
N630 X.0971 Y-.4253 Z1.0536
N640 X.2181 Y-.3778 Z1.0417
N650 X.3198 Y-.2967 Z1.0298
N660 X.393 Y-.1893 Z1.0179
N670 X.4314 Y-.065 Z1.006
N680 Y.065 Z.994
N690 X.393 Y.1893 Z.9821
N700 X.3198 Y.2967 Z.9702
N710 X.2181 Y.3778 Z.9583
N720 X.0971 Y.4253 Z.9464
N730 X-.0326 Y.435 Z.9345
N740 X-.1594 Y.4061 Z.9226
N750 X-.272 Y.3411 Z.9107
N760 X-.3604 Y.2457 Z.8988
N770 X-.4169 Y.1286 Z.8869
N780 X-.4363 Y0. Z.875
N790 X-.4169 Y-.1286 Z.8631
N800 X-.3604 Y-.2457 Z.8512
N810 X-.272 Y-.3411 Z.8393
N820 X-.1594 Y-.4061 Z.8274
N830 X-.0326 Y-.435 Z.8155
N840 X.0971 Y-.4253 Z.8036
N850 X.2181 Y-.3778 Z.7917
N860 X.3198 Y-.2967 Z.7798
N870 X.393 Y-.1893 Z.7679
N880 X.4314 Y-.065 Z.756
N890 Y.065 Z.744
N900 X.393 Y.1893 Z.7321
N910 X.3198 Y.2967 Z.7202
N920 X.2181 Y.3778 Z.7083
N930 X.0971 Y.4253 Z.6964
N940 X-.0326 Y.435 Z.6845
N950 X-.1594 Y.4061 Z.6726
N960 X-.272 Y.3411 Z.6607
N970 X-.3604 Y.2457 Z.6488
N980 X-.4169 Y.1286 Z.6369
N990 X-.4363 Y0. Z.625
N1000 X-.4169 Y-.1286 Z.6131
N1010 X-.3604 Y-.2457 Z.6012
N1020 X-.272 Y-.3411 Z.5893
N1030 X-.1594 Y-.4061 Z.5774
N1040 X-.0326 Y-.435 Z.5655
N1050 X.0971 Y-.4253 Z.5536
N1060 X.2181 Y-.3778 Z.5417
N1070 X.3198 Y-.2967 Z.5298
N1080 X.393 Y-.1893 Z.5179
N1090 X.4314 Y-.065 Z.506
N1100 Y.065 Z.494
N1110 X.393 Y.1893 Z.4821
N1120 X.3198 Y.2967 Z.4702
N1130 X.2181 Y.3778 Z.4583
N1140 X.0971 Y.4253 Z.4464
N1150 X-.0326 Y.435 Z.4345
N1160 X-.1594 Y.4061 Z.4226
N1170 X-.272 Y.3411 Z.4107
N1180 X-.3604 Y.2457 Z.3988
N1190 X-.4169 Y.1286 Z.3869
N1200 X-.4363 Y0. Z.375
N1210 X-.4169 Y-.1286 Z.3631
N1220 X-.3604 Y-.2457 Z.3512
N1230 X-.272 Y-.3411 Z.3393
N1240 X-.1594 Y-.4061 Z.3274
N1250 X-.0326 Y-.435 Z.3155
N1260 X.0971 Y-.4253 Z.3036
N1270 X.2181 Y-.3778 Z.2917
N1280 X.3198 Y-.2967 Z.2798
N1290 X.393 Y-.1893 Z.2679
N1300 X.4314 Y-.065 Z.256
N1310 Y.065 Z.244
N1320 X.393 Y.1893 Z.2321
N1330 X.3198 Y.2967 Z.2202
N1340 X.2181 Y.3778 Z.2083
N1350 X.0971 Y.4253 Z.1964
N1360 X-.0326 Y.435 Z.1845
N1370 X-.1594 Y.4061 Z.1726
N1380 X-.272 Y.3411 Z.1607
N1390 X-.3604 Y.2457 Z.1488
N1400 X-.4169 Y.1286 Z.1369
N1410 X-.4363 Y0. Z.125
N1420 X-.4186 Y-.1229 Z.1136
N1430 X-.367 Y-.2359 Z.1023
N1440 X-.2857 Y-.3297 Z.0909
N1450 X-.1812 Y-.3968 Z.0795
N1460 X-.0621 Y-.4318 Z.0682
N1470 X.0621 Z.0568
N1480 X.1812 Y-.3968 Z.0455
N1490 X.2857 Y-.3297 Z.0341
N1500 X.367 Y-.2359 Z.0227
N1510 X.4186 Y-.1229 Z.0114
N1520 X.4363 Y0. Z0.
;N1530 G3 X0. Y.4363 I-.4363 J0.
;N1540 X-.4363 Y0. I0. J-.4363
;N1550 X0. Y-.4363 I.4363 J0.
;N1560 X.4363 Y0. I0. J.4363
N1570 G1 X.2492
N1580 Z.2
N1590 G0 Z1.825
N1600 X-.4412
N1610 G1 Z1.625 ;F6.42
N1620 X-.4216 Y-.1301 Z1.6131
N1630 X-.3646 Y-.2486 Z1.6012
N1640 X-.2751 Y-.345 Z1.5893
N1650 X-.1612 Y-.4107 Z1.5774
N1660 X-.033 Y-.44 Z1.5655
N1670 X.0982 Y-.4302 Z1.5536
N1680 X.2206 Y-.3821 Z1.5417
N1690 X.3235 Y-.3001 Z1.5298
N1700 X.3976 Y-.1915 Z1.5179
N1710 X.4363 Y-.0658 Z1.506
N1720 Y.0658 Z1.494
N1730 X.3976 Y.1915 Z1.4821
N1740 X.3235 Y.3001 Z1.4702
N1750 X.2206 Y.3821 Z1.4583
N1760 X.0982 Y.4302 Z1.4464
N1770 X-.033 Y.44 Z1.4345
N1780 X-.1612 Y.4107 Z1.4226
N1790 X-.2751 Y.345 Z1.4107
N1800 X-.3646 Y.2486 Z1.3988
N1810 X-.4216 Y.1301 Z1.3869
N1820 X-.4412 Y0. Z1.375
N1830 X-.4216 Y-.1301 Z1.3631
N1840 X-.3646 Y-.2486 Z1.3512
N1850 X-.2751 Y-.345 Z1.3393
N1860 X-.1612 Y-.4107 Z1.3274
N1870 X-.033 Y-.44 Z1.3155
N1880 X.0982 Y-.4302 Z1.3036
N1890 X.2206 Y-.3821 Z1.2917
N1900 X.3235 Y-.3001 Z1.2798
N1910 X.3976 Y-.1915 Z1.2679
N1920 X.4363 Y-.0658 Z1.256
N1930 Y.0658 Z1.244
N1940 X.3976 Y.1915 Z1.2321
N1950 X.3235 Y.3001 Z1.2202
N1960 X.2206 Y.3821 Z1.2083
N1970 X.0982 Y.4302 Z1.1964
N1980 X-.033 Y.44 Z1.1845
N1990 X-.1612 Y.4107 Z1.1726
N2000 X-.2751 Y.345 Z1.1607
N2010 X-.3646 Y.2486 Z1.1488
N2020 X-.4216 Y.1301 Z1.1369
N2030 X-.4412 Y0. Z1.125
N2040 X-.4216 Y-.1301 Z1.1131
N2050 X-.3646 Y-.2486 Z1.1012
N2060 X-.2751 Y-.345 Z1.0893
N2070 X-.1612 Y-.4107 Z1.0774
N2080 X-.033 Y-.44 Z1.0655
N2090 X.0982 Y-.4302 Z1.0536
N2100 X.2206 Y-.3821 Z1.0417
N2110 X.3235 Y-.3001 Z1.0298
N2120 X.3976 Y-.1915 Z1.0179
N2130 X.4363 Y-.0658 Z1.006
N2140 Y.0658 Z.994
N2150 X.3976 Y.1915 Z.9821
N2160 X.3235 Y.3001 Z.9702
N2170 X.2206 Y.3821 Z.9583
N2180 X.0982 Y.4302 Z.9464
N2190 X-.033 Y.44 Z.9345
N2200 X-.1612 Y.4107 Z.9226
N2210 X-.2751 Y.345 Z.9107
N2220 X-.3646 Y.2486 Z.8988
N2230 X-.4216 Y.1301 Z.8869
N2240 X-.4412 Y0. Z.875
N2250 X-.4216 Y-.1301 Z.8631
N2260 X-.3646 Y-.2486 Z.8512
N2270 X-.2751 Y-.345 Z.8393
N2280 X-.1612 Y-.4107 Z.8274
N2290 X-.033 Y-.44 Z.8155
N2300 X.0982 Y-.4302 Z.8036
N2310 X.2206 Y-.3821 Z.7917
N2320 X.3235 Y-.3001 Z.7798
N2330 X.3976 Y-.1915 Z.7679
N2340 X.4363 Y-.0658 Z.756
N2350 Y.0658 Z.744
N2360 X.3976 Y.1915 Z.7321
N2370 X.3235 Y.3001 Z.7202
N2380 X.2206 Y.3821 Z.7083
N2390 X.0982 Y.4302 Z.6964
N2400 X-.033 Y.44 Z.6845
N2410 X-.1612 Y.4107 Z.6726
N2420 X-.2751 Y.345 Z.6607
N2430 X-.3646 Y.2486 Z.6488
N2440 X-.4216 Y.1301 Z.6369
N2450 X-.4412 Y0. Z.625
N2460 X-.4216 Y-.1301 Z.6131
N2470 X-.3646 Y-.2486 Z.6012
N2480 X-.2751 Y-.345 Z.5893
N2490 X-.1612 Y-.4107 Z.5774
N2500 X-.033 Y-.44 Z.5655
N2510 X.0982 Y-.4302 Z.5536
N2520 X.2206 Y-.3821 Z.5417
N2530 X.3235 Y-.3001 Z.5298
N2540 X.3976 Y-.1915 Z.5179
N2550 X.4363 Y-.0658 Z.506
N2560 Y.0658 Z.494
N2570 X.3976 Y.1915 Z.4821
N2580 X.3235 Y.3001 Z.4702
N2590 X.2206 Y.3821 Z.4583
N2600 X.0982 Y.4302 Z.4464
N2610 X-.033 Y.44 Z.4345
N2620 X-.1612 Y.4107 Z.4226
N2630 X-.2751 Y.345 Z.4107
N2640 X-.3646 Y.2486 Z.3988
N2650 X-.4216 Y.1301 Z.3869
N2660 X-.4412 Y0. Z.375
N2670 X-.4216 Y-.1301 Z.3631
N2680 X-.3646 Y-.2486 Z.3512
N2690 X-.2751 Y-.345 Z.3393
N2700 X-.1612 Y-.4107 Z.3274
N2710 X-.033 Y-.44 Z.3155
N2720 X.0982 Y-.4302 Z.3036
N2730 X.2206 Y-.3821 Z.2917
N2740 X.3235 Y-.3001 Z.2798
N2750 X.3976 Y-.1915 Z.2679
N2760 X.4363 Y-.0658 Z.256
N2770 Y.0658 Z.244
N2780 X.3976 Y.1915 Z.2321
N2790 X.3235 Y.3001 Z.2202
N2800 X.2206 Y.3821 Z.2083
N2810 X.0982 Y.4302 Z.1964
N2820 X-.033 Y.44 Z.1845
N2830 X-.1612 Y.4107 Z.1726
N2840 X-.2751 Y.345 Z.1607
N2850 X-.3646 Y.2486 Z.1488
N2860 X-.4216 Y.1301 Z.1369
N2870 X-.4412 Y0. Z.125
N2880 X-.4234 Y-.1243 Z.1136
N2890 X-.3712 Y-.2386 Z.1023
N2900 X-.289 Y-.3335 Z.0909
N2910 X-.1833 Y-.4014 Z.0795
N2920 X-.0628 Y-.4368 Z.0682
N2930 X.0628 Z.0568
N2940 X.1833 Y-.4014 Z.0455
N2950 X.289 Y-.3335 Z.0341
N2960 X.3712 Y-.2386 Z.0227
N2970 X.4234 Y-.1243 Z.0114
N2980 X.4412 Y0. Z0.
;N2990 G3 X0. Y.4412 I-.4412 J0.
;N3000 X-.4412 Y0. I0. J-.4412
;N3010 X0. Y-.4412 I.4412 J0.
;N3020 X.4412 Y0. I0. J.4412
N3030 G1 X.2542
N3040 Z.2
N3050 G0 Z1.825
N3060 X-.4462
N3070 G1 Z1.625 ;F6.42
N3080 X-.4264 Y-.1315 Z1.6131
N3090 X-.3687 Y-.2514 Z1.6012
N3100 X-.2782 Y-.3489 Z1.5893
N3110 X-.163 Y-.4154 Z1.5774
N3120 X-.0333 Y-.445 Z1.5655
N3130 X.0993 Y-.4351 Z1.5536
N3140 X.2231 Y-.3865 Z1.5417
N3150 X.3271 Y-.3035 Z1.5298
N3160 X.4021 Y-.1936 Z1.5179
N3170 X.4413 Y-.0665 Z1.506
N3180 Y.0665 Z1.494
N3190 X.4021 Y.1936 Z1.4821
N3200 X.3271 Y.3035 Z1.4702
N3210 X.2231 Y.3865 Z1.4583
N3220 X.0993 Y.4351 Z1.4464
N3230 X-.0333 Y.445 Z1.4345
N3240 X-.163 Y.4154 Z1.4226
N3250 X-.2782 Y.3489 Z1.4107
N3260 X-.3687 Y.2514 Z1.3988
N3270 X-.4264 Y.1315 Z1.3869
N3280 X-.4462 Y0. Z1.375
N3290 X-.4264 Y-.1315 Z1.3631
N3300 X-.3687 Y-.2514 Z1.3512
N3310 X-.2782 Y-.3489 Z1.3393
N3320 X-.163 Y-.4154 Z1.3274
N3330 X-.0333 Y-.445 Z1.3155
N3340 X.0993 Y-.4351 Z1.3036
N3350 X.2231 Y-.3865 Z1.2917
N3360 X.3271 Y-.3035 Z1.2798
N3370 X.4021 Y-.1936 Z1.2679
N3380 X.4413 Y-.0665 Z1.256
N3390 Y.0665 Z1.244
N3400 X.4021 Y.1936 Z1.2321
N3410 X.3271 Y.3035 Z1.2202
N3420 X.2231 Y.3865 Z1.2083
N3430 X.0993 Y.4351 Z1.1964
N3440 X-.0333 Y.445 Z1.1845
N3450 X-.163 Y.4154 Z1.1726
N3460 X-.2782 Y.3489 Z1.1607
N3470 X-.3687 Y.2514 Z1.1488
N3480 X-.4264 Y.1315 Z1.1369
N3490 X-.4462 Y0. Z1.125
N3500 X-.4264 Y-.1315 Z1.1131
N3510 X-.3687 Y-.2514 Z1.1012
N3520 X-.2782 Y-.3489 Z1.0893
N3530 X-.163 Y-.4154 Z1.0774
N3540 X-.0333 Y-.445 Z1.0655
N3550 X.0993 Y-.4351 Z1.0536
N3560 X.2231 Y-.3865 Z1.0417
N3570 X.3271 Y-.3035 Z1.0298
N3580 X.4021 Y-.1936 Z1.0179
N3590 X.4413 Y-.0665 Z1.006
N3600 Y.0665 Z.994
N3610 X.4021 Y.1936 Z.9821
N3620 X.3271 Y.3035 Z.9702
N3630 X.2231 Y.3865 Z.9583
N3640 X.0993 Y.4351 Z.9464
N3650 X-.0333 Y.445 Z.9345
N3660 X-.163 Y.4154 Z.9226
N3670 X-.2782 Y.3489 Z.9107
N3680 X-.3687 Y.2514 Z.8988
N3690 X-.4264 Y.1315 Z.8869
N3700 X-.4462 Y0. Z.875
N3710 X-.4264 Y-.1315 Z.8631
N3720 X-.3687 Y-.2514 Z.8512
N3730 X-.2782 Y-.3489 Z.8393
N3740 X-.163 Y-.4154 Z.8274
N3750 X-.0333 Y-.445 Z.8155
N3760 X.0993 Y-.4351 Z.8036
N3770 X.2231 Y-.3865 Z.7917
N3780 X.3271 Y-.3035 Z.7798
N3790 X.4021 Y-.1936 Z.7679
N3800 X.4413 Y-.0665 Z.756
N3810 Y.0665 Z.744
N3820 X.4021 Y.1936 Z.7321
N3830 X.3271 Y.3035 Z.7202
N3840 X.2231 Y.3865 Z.7083
N3850 X.0993 Y.4351 Z.6964
N3860 X-.0333 Y.445 Z.6845
N3870 X-.163 Y.4154 Z.6726
N3880 X-.2782 Y.3489 Z.6607
N3890 X-.3687 Y.2514 Z.6488
N3900 X-.4264 Y.1315 Z.6369
N3910 X-.4462 Y0. Z.625
N3920 X-.4264 Y-.1315 Z.6131
N3930 X-.3687 Y-.2514 Z.6012
N3940 X-.2782 Y-.3489 Z.5893
N3950 X-.163 Y-.4154 Z.5774
N3960 X-.0333 Y-.445 Z.5655
N3970 X.0993 Y-.4351 Z.5536
N3980 X.2231 Y-.3865 Z.5417
N3990 X.3271 Y-.3035 Z.5298
N4000 X.4021 Y-.1936 Z.5179
N4010 X.4413 Y-.0665 Z.506
N4020 Y.0665 Z.494
N4030 X.4021 Y.1936 Z.4821
N4040 X.3271 Y.3035 Z.4702
N4050 X.2231 Y.3865 Z.4583
N4060 X.0993 Y.4351 Z.4464
N4070 X-.0333 Y.445 Z.4345
N4080 X-.163 Y.4154 Z.4226
N4090 X-.2782 Y.3489 Z.4107
N4100 X-.3687 Y.2514 Z.3988
N4110 X-.4264 Y.1315 Z.3869
N4120 X-.4462 Y0. Z.375
N4130 X-.4264 Y-.1315 Z.3631
N4140 X-.3687 Y-.2514 Z.3512
N4150 X-.2782 Y-.3489 Z.3393
N4160 X-.163 Y-.4154 Z.3274
N4170 X-.0333 Y-.445 Z.3155
N4180 X.0993 Y-.4351 Z.3036
N4190 X.2231 Y-.3865 Z.2917
N4200 X.3271 Y-.3035 Z.2798
N4210 X.4021 Y-.1936 Z.2679
N4220 X.4413 Y-.0665 Z.256
N4230 Y.0665 Z.244
N4240 X.4021 Y.1936 Z.2321
N4250 X.3271 Y.3035 Z.2202
N4260 X.2231 Y.3865 Z.2083
N4270 X.0993 Y.4351 Z.1964
N4280 X-.0333 Y.445 Z.1845
N4290 X-.163 Y.4154 Z.1726
N4300 X-.2782 Y.3489 Z.1607
N4310 X-.3687 Y.2514 Z.1488
N4320 X-.4264 Y.1315 Z.1369
N4330 X-.4462 Y0. Z.125
N4340 X-.4282 Y-.1257 Z.1136
N4350 X-.3754 Y-.2413 Z.1023
N4360 X-.2922 Y-.3373 Z.0909
N4370 X-.1854 Y-.4059 Z.0795
N4380 X-.0635 Y-.4417 Z.0682
N4390 X.0635 Z.0568
N4400 X.1854 Y-.4059 Z.0455
N4410 X.2922 Y-.3373 Z.0341
N4420 X.3754 Y-.2413 Z.0227
N4430 X.4282 Y-.1257 Z.0114
N4440 X.4462 Y0. Z0.
;N4450 G3 X0. Y.4462 I-.4462 J0.
;N4460 X-.4462 Y0. I0. J-.4462
;N4470 X0. Y-.4462 I.4462 J0.
;N4480 X.4462 Y0. I0. J.4462
N4490 G1 X.2592
N4500 Z.2
N4510 G0 Z1.825
N4520 X-.4512
N4530 G1 Z1.625 ;F6.42
N4540 X-.433 Y-.1271 Z1.6136
N4550 X-.3796 Y-.244 Z1.6023
N4560 X-.2955 Y-.341 Z1.5909
N4570 X-.1875 Y-.4105 Z1.5795
N4580 X-.0642 Y-.4467 Z1.5682
N4590 X.0642 Z1.5568
N4600 X.1875 Y-.4105 Z1.5455
N4610 X.2955 Y-.341 Z1.5341
N4620 X.3796 Y-.244 Z1.5227
N4630 X.433 Y-.1271 Z1.5114
N4640 X.4512 Y0. Z1.5
N4650 X.433 Y.1271 Z1.4886
N4660 X.3796 Y.244 Z1.4773
N4670 X.2955 Y.341 Z1.4659
N4680 X.1875 Y.4105 Z1.4545
N4690 X.0642 Y.4467 Z1.4432
N4700 X-.0642 Z1.4318
N4710 X-.1875 Y.4105 Z1.4205
N4720 X-.2955 Y.341 Z1.4091
N4730 X-.3796 Y.244 Z1.3977
N4740 X-.433 Y.1271 Z1.3864
N4750 X-.4512 Y0. Z1.375
N4760 X-.433 Y-.1271 Z1.3636
N4770 X-.3796 Y-.244 Z1.3523
N4780 X-.2955 Y-.341 Z1.3409
N4790 X-.1875 Y-.4105 Z1.3295
N4800 X-.0642 Y-.4467 Z1.3182
N4810 X.0642 Z1.3068
N4820 X.1875 Y-.4105 Z1.2955
N4830 X.2955 Y-.341 Z1.2841
N4840 X.3796 Y-.244 Z1.2727
N4850 X.433 Y-.1271 Z1.2614
N4860 X.4512 Y0. Z1.25
N4870 X.433 Y.1271 Z1.2386
N4880 X.3796 Y.244 Z1.2273
N4890 X.2955 Y.341 Z1.2159
N4900 X.1875 Y.4105 Z1.2045
N4910 X.0642 Y.4467 Z1.1932
N4920 X-.0642 Z1.1818
N4930 X-.1875 Y.4105 Z1.1705
N4940 X-.2955 Y.341 Z1.1591
N4950 X-.3796 Y.244 Z1.1477
N4960 X-.433 Y.1271 Z1.1364
N4970 X-.4512 Y0. Z1.125
N4980 X-.433 Y-.1271 Z1.1136
N4990 X-.3796 Y-.244 Z1.1023
N5000 X-.2955 Y-.341 Z1.0909
N5010 X-.1875 Y-.4105 Z1.0795
N5020 X-.0642 Y-.4467 Z1.0682
N5030 X.0642 Z1.0568
N5040 X.1875 Y-.4105 Z1.0455
N5050 X.2955 Y-.341 Z1.0341
N5060 X.3796 Y-.244 Z1.0227
N5070 X.433 Y-.1271 Z1.0114
N5080 X.4512 Y0. Z1.
N5090 X.433 Y.1271 Z.9886
N5100 X.3796 Y.244 Z.9773
N5110 X.2955 Y.341 Z.9659
N5120 X.1875 Y.4105 Z.9545
N5130 X.0642 Y.4467 Z.9432
N5140 X-.0642 Z.9318
N5150 X-.1875 Y.4105 Z.9205
N5160 X-.2955 Y.341 Z.9091
N5170 X-.3796 Y.244 Z.8977
N5180 X-.433 Y.1271 Z.8864
N5190 X-.4512 Y0. Z.875
N5200 X-.433 Y-.1271 Z.8636
N5210 X-.3796 Y-.244 Z.8523
N5220 X-.2955 Y-.341 Z.8409
N5230 X-.1875 Y-.4105 Z.8295
N5240 X-.0642 Y-.4467 Z.8182
N5250 X.0642 Z.8068
N5260 X.1875 Y-.4105 Z.7955
N5270 X.2955 Y-.341 Z.7841
N5280 X.3796 Y-.244 Z.7727
N5290 X.433 Y-.1271 Z.7614
N5300 X.4512 Y0. Z.75
N5310 X.433 Y.1271 Z.7386
N5320 X.3796 Y.244 Z.7273
N5330 X.2955 Y.341 Z.7159
N5340 X.1875 Y.4105 Z.7045
N5350 X.0642 Y.4467 Z.6932
N5360 X-.0642 Z.6818
N5370 X-.1875 Y.4105 Z.6705
N5380 X-.2955 Y.341 Z.6591
N5390 X-.3796 Y.244 Z.6477
N5400 X-.433 Y.1271 Z.6364
N5410 X-.4512 Y0. Z.625
N5420 X-.433 Y-.1271 Z.6136
N5430 X-.3796 Y-.244 Z.6023
N5440 X-.2955 Y-.341 Z.5909
N5450 X-.1875 Y-.4105 Z.5795
N5460 X-.0642 Y-.4467 Z.5682
N5470 X.0642 Z.5568
N5480 X.1875 Y-.4105 Z.5455
N5490 X.2955 Y-.341 Z.5341
N5500 X.3796 Y-.244 Z.5227
N5510 X.433 Y-.1271 Z.5114
N5520 X.4512 Y0. Z.5
N5530 X.433 Y.1271 Z.4886
N5540 X.3796 Y.244 Z.4773
N5550 X.2955 Y.341 Z.4659
N5560 X.1875 Y.4105 Z.4545
N5570 X.0642 Y.4467 Z.4432
N5580 X-.0642 Z.4318
N5590 X-.1875 Y.4105 Z.4205
N5600 X-.2955 Y.341 Z.4091
N5610 X-.3796 Y.244 Z.3977
N5620 X-.433 Y.1271 Z.3864
N5630 X-.4512 Y0. Z.375
N5640 X-.433 Y-.1271 Z.3636
N5650 X-.3796 Y-.244 Z.3523
N5660 X-.2955 Y-.341 Z.3409
N5670 X-.1875 Y-.4105 Z.3295
N5680 X-.0642 Y-.4467 Z.3182
N5690 X.0642 Z.3068
N5700 X.1875 Y-.4105 Z.2955
N5710 X.2955 Y-.341 Z.2841
N5720 X.3796 Y-.244 Z.2727
N5730 X.433 Y-.1271 Z.2614
N5740 X.4512 Y0. Z.25
N5750 X.433 Y.1271 Z.2386
N5760 X.3796 Y.244 Z.2273
N5770 X.2955 Y.341 Z.2159
N5780 X.1875 Y.4105 Z.2045
N5790 X.0642 Y.4467 Z.1932
N5800 X-.0642 Z.1818
N5810 X-.1875 Y.4105 Z.1705
N5820 X-.2955 Y.341 Z.1591
N5830 X-.3796 Y.244 Z.1477
N5840 X-.433 Y.1271 Z.1364
N5850 X-.4512 Y0. Z.125
N5860 X-.433 Y-.1271 Z.1136
N5870 X-.3796 Y-.244 Z.1023
N5880 X-.2955 Y-.341 Z.0909
N5890 X-.1875 Y-.4105 Z.0795
N5900 X-.0642 Y-.4467 Z.0682
N5910 X.0642 Z.0568
N5920 X.1875 Y-.4105 Z.0455
N5930 X.2955 Y-.341 Z.0341
N5940 X.3796 Y-.244 Z.0227
N5950 X.433 Y-.1271 Z.0114
N5960 X.4512 Y0. Z0.
;N5970 G3 X0. Y.4512 I-.4512 J0.
;N5980 X-.4512 Y0. I0. J-.4512
;N5990 X0. Y-.4512 I.4512 J0.
;N6000 X.4512 Y0. I0. J.4512
N6010 G1 X.2642
N6020 Z.2
N6030 G0 Z1.825
N6040 X-.4562
N6050 G1 Z1.625 ;F6.42
N6060 X-.4378 Y-.1285 Z1.6136
N6070 X-.3838 Y-.2467 Z1.6023
N6080 X-.2988 Y-.3448 Z1.5909
N6090 X-.1895 Y-.415 Z1.5795
N6100 X-.0649 Y-.4516 Z1.5682
N6110 X.0649 Z1.5568
N6120 X.1895 Y-.415 Z1.5455
N6130 X.2988 Y-.3448 Z1.5341
N6140 X.3838 Y-.2467 Z1.5227
N6150 X.4378 Y-.1285 Z1.5114
N6160 X.4562 Y0. Z1.5
N6170 X.4378 Y.1285 Z1.4886
N6180 X.3838 Y.2467 Z1.4773
N6190 X.2988 Y.3448 Z1.4659
N6200 X.1895 Y.415 Z1.4545
N6210 X.0649 Y.4516 Z1.4432
N6220 X-.0649 Z1.4318
N6230 X-.1895 Y.415 Z1.4205
N6240 X-.2988 Y.3448 Z1.4091
N6250 X-.3838 Y.2467 Z1.3977
N6260 X-.4378 Y.1285 Z1.3864
N6270 X-.4562 Y0. Z1.375
N6280 X-.4378 Y-.1285 Z1.3636
N6290 X-.3838 Y-.2467 Z1.3523
N6300 X-.2988 Y-.3448 Z1.3409
N6310 X-.1895 Y-.415 Z1.3295
N6320 X-.0649 Y-.4516 Z1.3182
N6330 X.0649 Z1.3068
N6340 X.1895 Y-.415 Z1.2955
N6350 X.2988 Y-.3448 Z1.2841
N6360 X.3838 Y-.2467 Z1.2727
N6370 X.4378 Y-.1285 Z1.2614
N6380 X.4562 Y0. Z1.25
N6390 X.4378 Y.1285 Z1.2386
N6400 X.3838 Y.2467 Z1.2273
N6410 X.2988 Y.3448 Z1.2159
N6420 X.1895 Y.415 Z1.2045
N6430 X.0649 Y.4516 Z1.1932
N6440 X-.0649 Z1.1818
N6450 X-.1895 Y.415 Z1.1705
N6460 X-.2988 Y.3448 Z1.1591
N6470 X-.3838 Y.2467 Z1.1477
N6480 X-.4378 Y.1285 Z1.1364
N6490 X-.4562 Y0. Z1.125
N6500 X-.4378 Y-.1285 Z1.1136
N6510 X-.3838 Y-.2467 Z1.1023
N6520 X-.2988 Y-.3448 Z1.0909
N6530 X-.1895 Y-.415 Z1.0795
N6540 X-.0649 Y-.4516 Z1.0682
N6550 X.0649 Z1.0568
N6560 X.1895 Y-.415 Z1.0455
N6570 X.2988 Y-.3448 Z1.0341
N6580 X.3838 Y-.2467 Z1.0227
N6590 X.4378 Y-.1285 Z1.0114
N6600 X.4562 Y0. Z1.
N6610 X.4378 Y.1285 Z.9886
N6620 X.3838 Y.2467 Z.9773
N6630 X.2988 Y.3448 Z.9659
N6640 X.1895 Y.415 Z.9545
N6650 X.0649 Y.4516 Z.9432
N6660 X-.0649 Z.9318
N6670 X-.1895 Y.415 Z.9205
N6680 X-.2988 Y.3448 Z.9091
N6690 X-.3838 Y.2467 Z.8977
N6700 X-.4378 Y.1285 Z.8864
N6710 X-.4562 Y0. Z.875
N6720 X-.4378 Y-.1285 Z.8636
N6730 X-.3838 Y-.2467 Z.8523
N6740 X-.2988 Y-.3448 Z.8409
N6750 X-.1895 Y-.415 Z.8295
N6760 X-.0649 Y-.4516 Z.8182
N6770 X.0649 Z.8068
N6780 X.1895 Y-.415 Z.7955
N6790 X.2988 Y-.3448 Z.7841
N6800 X.3838 Y-.2467 Z.7727
N6810 X.4378 Y-.1285 Z.7614
N6820 X.4562 Y0. Z.75
N6830 X.4378 Y.1285 Z.7386
N6840 X.3838 Y.2467 Z.7273
N6850 X.2988 Y.3448 Z.7159
N6860 X.1895 Y.415 Z.7045
N6870 X.0649 Y.4516 Z.6932
N6880 X-.0649 Z.6818
N6890 X-.1895 Y.415 Z.6705
N6900 X-.2988 Y.3448 Z.6591
N6910 X-.3838 Y.2467 Z.6477
N6920 X-.4378 Y.1285 Z.6364
N6930 X-.4562 Y0. Z.625
N6940 X-.4378 Y-.1285 Z.6136
N6950 X-.3838 Y-.2467 Z.6023
N6960 X-.2988 Y-.3448 Z.5909
N6970 X-.1895 Y-.415 Z.5795
N6980 X-.0649 Y-.4516 Z.5682
N6990 X.0649 Z.5568
N7000 X.1895 Y-.415 Z.5455
N7010 X.2988 Y-.3448 Z.5341
N7020 X.3838 Y-.2467 Z.5227
N7030 X.4378 Y-.1285 Z.5114
N7040 X.4562 Y0. Z.5
N7050 X.4378 Y.1285 Z.4886
N7060 X.3838 Y.2467 Z.4773
N7070 X.2988 Y.3448 Z.4659
N7080 X.1895 Y.415 Z.4545
N7090 X.0649 Y.4516 Z.4432
N7100 X-.0649 Z.4318
N7110 X-.1895 Y.415 Z.4205
N7120 X-.2988 Y.3448 Z.4091
N7130 X-.3838 Y.2467 Z.3977
N7140 X-.4378 Y.1285 Z.3864
N7150 X-.4562 Y0. Z.375
N7160 X-.4378 Y-.1285 Z.3636
N7170 X-.3838 Y-.2467 Z.3523
N7180 X-.2988 Y-.3448 Z.3409
N7190 X-.1895 Y-.415 Z.3295
N7200 X-.0649 Y-.4516 Z.3182
N7210 X.0649 Z.3068
N7220 X.1895 Y-.415 Z.2955
N7230 X.2988 Y-.3448 Z.2841
N7240 X.3838 Y-.2467 Z.2727
N7250 X.4378 Y-.1285 Z.2614
N7260 X.4562 Y0. Z.25
N7270 X.4378 Y.1285 Z.2386
N7280 X.3838 Y.2467 Z.2273
N7290 X.2988 Y.3448 Z.2159
N7300 X.1895 Y.415 Z.2045
N7310 X.0649 Y.4516 Z.1932
N7320 X-.0649 Z.1818
N7330 X-.1895 Y.415 Z.1705
N7340 X-.2988 Y.3448 Z.1591
N7350 X-.3838 Y.2467 Z.1477
N7360 X-.4378 Y.1285 Z.1364
N7370 X-.4562 Y0. Z.125
N7380 X-.4378 Y-.1285 Z.1136
N7390 X-.3838 Y-.2467 Z.1023
N7400 X-.2988 Y-.3448 Z.0909
N7410 X-.1895 Y-.415 Z.0795
N7420 X-.0649 Y-.4516 Z.0682
N7430 X.0649 Z.0568
N7440 X.1895 Y-.415 Z.0455
N7450 X.2988 Y-.3448 Z.0341
N7460 X.3838 Y-.2467 Z.0227
N7470 X.4378 Y-.1285 Z.0114
N7480 X.4562 Y0. Z0.
;N7490 G3 X0. Y.4562 I-.4562 J0.
;N7500 X-.4562 Y0. I0. J-.4562
;N7510 X0. Y-.4562 I.4562 J0.
;N7520 X.4562 Y0. I0. J.4562
N7530 G1 X.2692
N7540 Z.2
N7550 G0 Z1.825
N7560 X-.4612
N7570 G1 Z1.625 ;F6.42
N7580 X-.4426 Y-.1299 Z1.6136
N7590 X-.388 Y-.2494 Z1.6023
N7600 X-.3021 Y-.3486 Z1.5909
N7610 X-.1916 Y-.4196 Z1.5795
N7620 X-.0656 Y-.4566 Z1.5682
N7630 X.0656 Z1.5568
N7640 X.1916 Y-.4196 Z1.5455
N7650 X.3021 Y-.3486 Z1.5341
N7660 X.388 Y-.2494 Z1.5227
N7670 X.4426 Y-.1299 Z1.5114
N7680 X.4612 Y0. Z1.5
N7690 X.4426 Y.1299 Z1.4886
N7700 X.388 Y.2494 Z1.4773
N7710 X.3021 Y.3486 Z1.4659
N7720 X.1916 Y.4196 Z1.4545
N7730 X.0656 Y.4566 Z1.4432
N7740 X-.0656 Z1.4318
N7750 X-.1916 Y.4196 Z1.4205
N7760 X-.3021 Y.3486 Z1.4091
N7770 X-.388 Y.2494 Z1.3977
N7780 X-.4426 Y.1299 Z1.3864
N7790 X-.4612 Y0. Z1.375
N7800 X-.4426 Y-.1299 Z1.3636
N7810 X-.388 Y-.2494 Z1.3523
N7820 X-.3021 Y-.3486 Z1.3409
N7830 X-.1916 Y-.4196 Z1.3295
N7840 X-.0656 Y-.4566 Z1.3182
N7850 X.0656 Z1.3068
N7860 X.1916 Y-.4196 Z1.2955
N7870 X.3021 Y-.3486 Z1.2841
N7880 X.388 Y-.2494 Z1.2727
N7890 X.4426 Y-.1299 Z1.2614
N7900 X.4612 Y0. Z1.25
N7910 X.4426 Y.1299 Z1.2386
N7920 X.388 Y.2494 Z1.2273
N7930 X.3021 Y.3486 Z1.2159
N7940 X.1916 Y.4196 Z1.2045
N7950 X.0656 Y.4566 Z1.1932
N7960 X-.0656 Z1.1818
N7970 X-.1916 Y.4196 Z1.1705
N7980 X-.3021 Y.3486 Z1.1591
N7990 X-.388 Y.2494 Z1.1477
N8000 X-.4426 Y.1299 Z1.1364
N8010 X-.4612 Y0. Z1.125
N8020 X-.4426 Y-.1299 Z1.1136
N8030 X-.388 Y-.2494 Z1.1023
N8040 X-.3021 Y-.3486 Z1.0909
N8050 X-.1916 Y-.4196 Z1.0795
N8060 X-.0656 Y-.4566 Z1.0682
N8070 X.0656 Z1.0568
N8080 X.1916 Y-.4196 Z1.0455
N8090 X.3021 Y-.3486 Z1.0341
N8100 X.388 Y-.2494 Z1.0227
N8110 X.4426 Y-.1299 Z1.0114
N8120 X.4612 Y0. Z1.
N8130 X.4426 Y.1299 Z.9886
N8140 X.388 Y.2494 Z.9773
N8150 X.3021 Y.3486 Z.9659
N8160 X.1916 Y.4196 Z.9545
N8170 X.0656 Y.4566 Z.9432
N8180 X-.0656 Z.9318
N8190 X-.1916 Y.4196 Z.9205
N8200 X-.3021 Y.3486 Z.9091
N8210 X-.388 Y.2494 Z.8977
N8220 X-.4426 Y.1299 Z.8864
N8230 X-.4612 Y0. Z.875
N8240 X-.4426 Y-.1299 Z.8636
N8250 X-.388 Y-.2494 Z.8523
N8260 X-.3021 Y-.3486 Z.8409
N8270 X-.1916 Y-.4196 Z.8295
N8280 X-.0656 Y-.4566 Z.8182
N8290 X.0656 Z.8068
N8300 X.1916 Y-.4196 Z.7955
N8310 X.3021 Y-.3486 Z.7841
N8320 X.388 Y-.2494 Z.7727
N8330 X.4426 Y-.1299 Z.7614
N8340 X.4612 Y0. Z.75
N8350 X.4426 Y.1299 Z.7386
N8360 X.388 Y.2494 Z.7273
N8370 X.3021 Y.3486 Z.7159
N8380 X.1916 Y.4196 Z.7045
N8390 X.0656 Y.4566 Z.6932
N8400 X-.0656 Z.6818
N8410 X-.1916 Y.4196 Z.6705
N8420 X-.3021 Y.3486 Z.6591
N8430 X-.388 Y.2494 Z.6477
N8440 X-.4426 Y.1299 Z.6364
N8450 X-.4612 Y0. Z.625
N8460 X-.4426 Y-.1299 Z.6136
N8470 X-.388 Y-.2494 Z.6023
N8480 X-.3021 Y-.3486 Z.5909
N8490 X-.1916 Y-.4196 Z.5795
N8500 X-.0656 Y-.4566 Z.5682
N8510 X.0656 Z.5568
N8520 X.1916 Y-.4196 Z.5455
N8530 X.3021 Y-.3486 Z.5341
N8540 X.388 Y-.2494 Z.5227
N8550 X.4426 Y-.1299 Z.5114
N8560 X.4612 Y0. Z.5
N8570 X.4426 Y.1299 Z.4886
N8580 X.388 Y.2494 Z.4773
N8590 X.3021 Y.3486 Z.4659
N8600 X.1916 Y.4196 Z.4545
N8610 X.0656 Y.4566 Z.4432
N8620 X-.0656 Z.4318
N8630 X-.1916 Y.4196 Z.4205
N8640 X-.3021 Y.3486 Z.4091
N8650 X-.388 Y.2494 Z.3977
N8660 X-.4426 Y.1299 Z.3864
N8670 X-.4612 Y0. Z.375
N8680 X-.4426 Y-.1299 Z.3636
N8690 X-.388 Y-.2494 Z.3523
N8700 X-.3021 Y-.3486 Z.3409
N8710 X-.1916 Y-.4196 Z.3295
N8720 X-.0656 Y-.4566 Z.3182
N8730 X.0656 Z.3068
N8740 X.1916 Y-.4196 Z.2955
N8750 X.3021 Y-.3486 Z.2841
N8760 X.388 Y-.2494 Z.2727
N8770 X.4426 Y-.1299 Z.2614
N8780 X.4612 Y0. Z.25
N8790 X.4426 Y.1299 Z.2386
N8800 X.388 Y.2494 Z.2273
N8810 X.3021 Y.3486 Z.2159
N8820 X.1916 Y.4196 Z.2045
N8830 X.0656 Y.4566 Z.1932
N8840 X-.0656 Z.1818
N8850 X-.1916 Y.4196 Z.1705
N8860 X-.3021 Y.3486 Z.1591
N8870 X-.388 Y.2494 Z.1477
N8880 X-.4426 Y.1299 Z.1364
N8890 X-.4612 Y0. Z.125
N8900 X-.4426 Y-.1299 Z.1136
N8910 X-.388 Y-.2494 Z.1023
N8920 X-.3021 Y-.3486 Z.0909
N8930 X-.1916 Y-.4196 Z.0795
N8940 X-.0656 Y-.4566 Z.0682
N8950 X.0656 Z.0568
N8960 X.1916 Y-.4196 Z.0455
N8970 X.3021 Y-.3486 Z.0341
N8980 X.388 Y-.2494 Z.0227
N8990 X.4426 Y-.1299 Z.0114
N9000 X.4612 Y0. Z0.
;N9010 G3 X0. Y.4612 I-.4612 J0.
;N9020 X-.4612 Y0. I0. J-.4612
;N9030 X0. Y-.4612 I.4612 J0.
;N9040 X.4612 Y0. I0. J.4612
N9050 G1 X.2742
N9060 Z.2
N9070 G0 Z1.825
N9080 X-.4662
N9090 G1 Z1.625 ;F6.42
N9100 X-.4474 Y-.1314 Z1.6136
N9110 X-.3922 Y-.2521 Z1.6023
N9120 X-.3053 Y-.3524 Z1.5909
N9130 X-.1937 Y-.4241 Z1.5795
N9140 X-.0664 Y-.4615 Z1.5682
N9150 X.0664 Z1.5568
N9160 X.1937 Y-.4241 Z1.5455
N9170 X.3053 Y-.3524 Z1.5341
N9180 X.3922 Y-.2521 Z1.5227
N9190 X.4474 Y-.1314 Z1.5114
N9200 X.4662 Y0. Z1.5
N9210 X.4474 Y.1314 Z1.4886
N9220 X.3922 Y.2521 Z1.4773
N9230 X.3053 Y.3524 Z1.4659
N9240 X.1937 Y.4241 Z1.4545
N9250 X.0664 Y.4615 Z1.4432
N9260 X-.0664 Z1.4318
N9270 X-.1937 Y.4241 Z1.4205
N9280 X-.3053 Y.3524 Z1.4091
N9290 X-.3922 Y.2521 Z1.3977
N9300 X-.4474 Y.1314 Z1.3864
N9310 X-.4662 Y0. Z1.375
N9320 X-.4474 Y-.1314 Z1.3636
N9330 X-.3922 Y-.2521 Z1.3523
N9340 X-.3053 Y-.3524 Z1.3409
N9350 X-.1937 Y-.4241 Z1.3295
N9360 X-.0664 Y-.4615 Z1.3182
N9370 X.0664 Z1.3068
N9380 X.1937 Y-.4241 Z1.2955
N9390 X.3053 Y-.3524 Z1.2841
N9400 X.3922 Y-.2521 Z1.2727
N9410 X.4474 Y-.1314 Z1.2614
N9420 X.4662 Y0. Z1.25
N9430 X.4474 Y.1314 Z1.2386
N9440 X.3922 Y.2521 Z1.2273
N9450 X.3053 Y.3524 Z1.2159
N9460 X.1937 Y.4241 Z1.2045
N9470 X.0664 Y.4615 Z1.1932
N9480 X-.0664 Z1.1818
N9490 X-.1937 Y.4241 Z1.1705
N9500 X-.3053 Y.3524 Z1.1591
N9510 X-.3922 Y.2521 Z1.1477
N9520 X-.4474 Y.1314 Z1.1364
N9530 X-.4662 Y0. Z1.125
N9540 X-.4474 Y-.1314 Z1.1136
N9550 X-.3922 Y-.2521 Z1.1023
N9560 X-.3053 Y-.3524 Z1.0909
N9570 X-.1937 Y-.4241 Z1.0795
N9580 X-.0664 Y-.4615 Z1.0682
N9590 X.0664 Z1.0568
N9600 X.1937 Y-.4241 Z1.0455
N9610 X.3053 Y-.3524 Z1.0341
N9620 X.3922 Y-.2521 Z1.0227
N9630 X.4474 Y-.1314 Z1.0114
N9640 X.4662 Y0. Z1.
N9650 X.4474 Y.1314 Z.9886
N9660 X.3922 Y.2521 Z.9773
N9670 X.3053 Y.3524 Z.9659
N9680 X.1937 Y.4241 Z.9545
N9690 X.0664 Y.4615 Z.9432
N9700 X-.0664 Z.9318
N9710 X-.1937 Y.4241 Z.9205
N9720 X-.3053 Y.3524 Z.9091
N9730 X-.3922 Y.2521 Z.8977
N9740 X-.4474 Y.1314 Z.8864
N9750 X-.4662 Y0. Z.875
N9760 X-.4474 Y-.1314 Z.8636
N9770 X-.3922 Y-.2521 Z.8523
N9780 X-.3053 Y-.3524 Z.8409
N9790 X-.1937 Y-.4241 Z.8295
N9800 X-.0664 Y-.4615 Z.8182
N9810 X.0664 Z.8068
N9820 X.1937 Y-.4241 Z.7955
N9830 X.3053 Y-.3524 Z.7841
N9840 X.3922 Y-.2521 Z.7727
N9850 X.4474 Y-.1314 Z.7614
N9860 X.4662 Y0. Z.75
N9870 X.4474 Y.1314 Z.7386
N9880 X.3922 Y.2521 Z.7273
N9890 X.3053 Y.3524 Z.7159
N9900 X.1937 Y.4241 Z.7045
N9910 X.0664 Y.4615 Z.6932
N9920 X-.0664 Z.6818
N9930 X-.1937 Y.4241 Z.6705
N9940 X-.3053 Y.3524 Z.6591
N9950 X-.3922 Y.2521 Z.6477
N9960 X-.4474 Y.1314 Z.6364
N9970 X-.4662 Y0. Z.625
N9980 X-.4474 Y-.1314 Z.6136
N9990 X-.3922 Y-.2521 Z.6023
N100 X-.3053 Y-.3524 Z.5909
N110 X-.1937 Y-.4241 Z.5795
N120 X-.0664 Y-.4615 Z.5682
N130 X.0664 Z.5568
N140 X.1937 Y-.4241 Z.5455
N150 X.3053 Y-.3524 Z.5341
N160 X.3922 Y-.2521 Z.5227
N170 X.4474 Y-.1314 Z.5114
N180 X.4662 Y0. Z.5
N190 X.4474 Y.1314 Z.4886
N200 X.3922 Y.2521 Z.4773
N210 X.3053 Y.3524 Z.4659
N220 X.1937 Y.4241 Z.4545
N230 X.0664 Y.4615 Z.4432
N240 X-.0664 Z.4318
N250 X-.1937 Y.4241 Z.4205
N260 X-.3053 Y.3524 Z.4091
N270 X-.3922 Y.2521 Z.3977
N280 X-.4474 Y.1314 Z.3864
N290 X-.4662 Y0. Z.375
N300 X-.4474 Y-.1314 Z.3636
N310 X-.3922 Y-.2521 Z.3523
N320 X-.3053 Y-.3524 Z.3409
N330 X-.1937 Y-.4241 Z.3295
N340 X-.0664 Y-.4615 Z.3182
N350 X.0664 Z.3068
N360 X.1937 Y-.4241 Z.2955
N370 X.3053 Y-.3524 Z.2841
N380 X.3922 Y-.2521 Z.2727
N390 X.4474 Y-.1314 Z.2614
N400 X.4662 Y0. Z.25
N410 X.4474 Y.1314 Z.2386
N420 X.3922 Y.2521 Z.2273
N430 X.3053 Y.3524 Z.2159
N440 X.1937 Y.4241 Z.2045
N450 X.0664 Y.4615 Z.1932
N460 X-.0664 Z.1818
N470 X-.1937 Y.4241 Z.1705
N480 X-.3053 Y.3524 Z.1591
N490 X-.3922 Y.2521 Z.1477
N500 X-.4474 Y.1314 Z.1364
N510 X-.4662 Y0. Z.125
N520 X-.4474 Y-.1314 Z.1136
N530 X-.3922 Y-.2521 Z.1023
N540 X-.3053 Y-.3524 Z.0909
N550 X-.1937 Y-.4241 Z.0795
N560 X-.0664 Y-.4615 Z.0682
N570 X.0664 Z.0568
N580 X.1937 Y-.4241 Z.0455
N590 X.3053 Y-.3524 Z.0341
N600 X.3922 Y-.2521 Z.0227
N610 X.4474 Y-.1314 Z.0114
N620 X.4662 Y0. Z0.
;N630 G3 X0. Y.4662 I-.4662 J0.
;N640 X-.4662 Y0. I0. J-.4662
;N650 X0. Y-.4662 I.4662 J0.
;N660 X.4662 Y0. I0. J.4662
N670 G1 X.2792
N680 Z.2
N690 G0 Z1.825
N700 X-.4713
N710 G1 Z1.625 ;F6.42
N720 X-.4522 Y-.1328 Z1.6136
N730 X-.3964 Y-.2548 Z1.6023
N740 X-.3086 Y-.3561 Z1.5909
N750 X-.1958 Y-.4287 Z1.5795
N760 X-.0671 Y-.4665 Z1.5682
N770 X.0671 Z1.5568
N780 X.1958 Y-.4287 Z1.5455
N790 X.3086 Y-.3561 Z1.5341
N800 X.3964 Y-.2548 Z1.5227
N810 X.4522 Y-.1328 Z1.5114
N820 X.4713 Y0. Z1.5
N830 X.4522 Y.1328 Z1.4886
N840 X.3964 Y.2548 Z1.4773
N850 X.3086 Y.3561 Z1.4659
N860 X.1958 Y.4287 Z1.4545
N870 X.0671 Y.4665 Z1.4432
N880 X-.0671 Z1.4318
N890 X-.1958 Y.4287 Z1.4205
N900 X-.3086 Y.3561 Z1.4091
N910 X-.3964 Y.2548 Z1.3977
N920 X-.4522 Y.1328 Z1.3864
N930 X-.4713 Y0. Z1.375
N940 X-.4522 Y-.1328 Z1.3636
N950 X-.3964 Y-.2548 Z1.3523
N960 X-.3086 Y-.3561 Z1.3409
N970 X-.1958 Y-.4287 Z1.3295
N980 X-.0671 Y-.4665 Z1.3182
N990 X.0671 Z1.3068
N1000 X.1958 Y-.4287 Z1.2955
N1010 X.3086 Y-.3561 Z1.2841
N1020 X.3964 Y-.2548 Z1.2727
N1030 X.4522 Y-.1328 Z1.2614
N1040 X.4713 Y0. Z1.25
N1050 X.4522 Y.1328 Z1.2386
N1060 X.3964 Y.2548 Z1.2273
N1070 X.3086 Y.3561 Z1.2159
N1080 X.1958 Y.4287 Z1.2045
N1090 X.0671 Y.4665 Z1.1932
N1100 X-.0671 Z1.1818
N1110 X-.1958 Y.4287 Z1.1705
N1120 X-.3086 Y.3561 Z1.1591
N1130 X-.3964 Y.2548 Z1.1477
N1140 X-.4522 Y.1328 Z1.1364
N1150 X-.4713 Y0. Z1.125
N1160 X-.4522 Y-.1328 Z1.1136
N1170 X-.3964 Y-.2548 Z1.1023
N1180 X-.3086 Y-.3561 Z1.0909
N1190 X-.1958 Y-.4287 Z1.0795
N1200 X-.0671 Y-.4665 Z1.0682
N1210 X.0671 Z1.0568
N1220 X.1958 Y-.4287 Z1.0455
N1230 X.3086 Y-.3561 Z1.0341
N1240 X.3964 Y-.2548 Z1.0227
N1250 X.4522 Y-.1328 Z1.0114
N1260 X.4713 Y0. Z1.
N1270 X.4522 Y.1328 Z.9886
N1280 X.3964 Y.2548 Z.9773
N1290 X.3086 Y.3561 Z.9659
N1300 X.1958 Y.4287 Z.9545
N1310 X.0671 Y.4665 Z.9432
N1320 X-.0671 Z.9318
N1330 X-.1958 Y.4287 Z.9205
N1340 X-.3086 Y.3561 Z.9091
N1350 X-.3964 Y.2548 Z.8977
N1360 X-.4522 Y.1328 Z.8864
N1370 X-.4713 Y0. Z.875
N1380 X-.4522 Y-.1328 Z.8636
N1390 X-.3964 Y-.2548 Z.8523
N1400 X-.3086 Y-.3561 Z.8409
N1410 X-.1958 Y-.4287 Z.8295
N1420 X-.0671 Y-.4665 Z.8182
N1430 X.0671 Z.8068
N1440 X.1958 Y-.4287 Z.7955
N1450 X.3086 Y-.3561 Z.7841
N1460 X.3964 Y-.2548 Z.7727
N1470 X.4522 Y-.1328 Z.7614
N1480 X.4713 Y0. Z.75
N1490 X.4522 Y.1328 Z.7386
N1500 X.3964 Y.2548 Z.7273
N1510 X.3086 Y.3561 Z.7159
N1520 X.1958 Y.4287 Z.7045
N1530 X.0671 Y.4665 Z.6932
N1540 X-.0671 Z.6818
N1550 X-.1958 Y.4287 Z.6705
N1560 X-.3086 Y.3561 Z.6591
N1570 X-.3964 Y.2548 Z.6477
N1580 X-.4522 Y.1328 Z.6364
N1590 X-.4713 Y0. Z.625
N1600 X-.4522 Y-.1328 Z.6136
N1610 X-.3964 Y-.2548 Z.6023
N1620 X-.3086 Y-.3561 Z.5909
N1630 X-.1958 Y-.4287 Z.5795
N1640 X-.0671 Y-.4665 Z.5682
N1650 X.0671 Z.5568
N1660 X.1958 Y-.4287 Z.5455
N1670 X.3086 Y-.3561 Z.5341
N1680 X.3964 Y-.2548 Z.5227
N1690 X.4522 Y-.1328 Z.5114
N1700 X.4713 Y0. Z.5
N1710 X.4522 Y.1328 Z.4886
N1720 X.3964 Y.2548 Z.4773
N1730 X.3086 Y.3561 Z.4659
N1740 X.1958 Y.4287 Z.4545
N1750 X.0671 Y.4665 Z.4432
N1760 X-.0671 Z.4318
N1770 X-.1958 Y.4287 Z.4205
N1780 X-.3086 Y.3561 Z.4091
N1790 X-.3964 Y.2548 Z.3977
N1800 X-.4522 Y.1328 Z.3864
N1810 X-.4713 Y0. Z.375
N1820 X-.4522 Y-.1328 Z.3636
N1830 X-.3964 Y-.2548 Z.3523
N1840 X-.3086 Y-.3561 Z.3409
N1850 X-.1958 Y-.4287 Z.3295
N1860 X-.0671 Y-.4665 Z.3182
N1870 X.0671 Z.3068
N1880 X.1958 Y-.4287 Z.2955
N1890 X.3086 Y-.3561 Z.2841
N1900 X.3964 Y-.2548 Z.2727
N1910 X.4522 Y-.1328 Z.2614
N1920 X.4713 Y0. Z.25
N1930 X.4522 Y.1328 Z.2386
N1940 X.3964 Y.2548 Z.2273
N1950 X.3086 Y.3561 Z.2159
N1960 X.1958 Y.4287 Z.2045
N1970 X.0671 Y.4665 Z.1932
N1980 X-.0671 Z.1818
N1990 X-.1958 Y.4287 Z.1705
N2000 X-.3086 Y.3561 Z.1591
N2010 X-.3964 Y.2548 Z.1477
N2020 X-.4522 Y.1328 Z.1364
N2030 X-.4713 Y0. Z.125
N2040 X-.4522 Y-.1328 Z.1136
N2050 X-.3964 Y-.2548 Z.1023
N2060 X-.3086 Y-.3561 Z.0909
N2070 X-.1958 Y-.4287 Z.0795
N2080 X-.0671 Y-.4665 Z.0682
N2090 X.0671 Z.0568
N2100 X.1958 Y-.4287 Z.0455
N2110 X.3086 Y-.3561 Z.0341
N2120 X.3964 Y-.2548 Z.0227
N2130 X.4522 Y-.1328 Z.0114
N2140 X.4713 Y0. Z0.
;N2150 G3 X0. Y.4713 I-.4713 J0.
;N2160 X-.4713 Y0. I0. J-.4713
;N2170 X0. Y-.4713 I.4713 J0.
;N2180 X.4713 Y0. I0. J.4713
N2190 G1 X.2843
N2200 Z1.725
N2210 G0 Z1.825
N2220 X-2.4388
N2230 G1 Z1.625 F1.356
N2240 X-2.4195 Y.3057 Z1.62
N2250 X-2.3621 Y.6065 Z1.615
N2260 X-2.2675 Y.8978 Z1.61
N2270 X-2.1371 Y1.1749 Z1.605
N2280 X-1.973 Y1.4335 Z1.6
N2290 X-1.7778 Y1.6694 Z1.595
N2300 X-1.5545 Y1.8791 Z1.59
N2310 X-1.3067 Y2.0591 Z1.585
N2320 X-1.0384 Y2.2066 Z1.58
N2330 X-.7536 Y2.3194 Z1.575
N2340 X-.457 Y2.3956 Z1.57
N2350 X-.1531 Y2.4339 Z1.565
N2360 X.1531 Z1.56
N2370 X.457 Y2.3956 Z1.555
N2380 X.7536 Y2.3194 Z1.55
N2390 X1.0384 Y2.2066 Z1.545
N2400 X1.3067 Y2.0591 Z1.54
N2410 X1.5545 Y1.8791 Z1.535
N2420 X1.7778 Y1.6694 Z1.53
N2430 X1.973 Y1.4335 Z1.525
N2440 X2.1371 Y1.1749 Z1.52
N2450 X2.2675 Y.8978 Z1.515
N2460 X2.3621 Y.6065 Z1.51
N2470 X2.4195 Y.3057 Z1.505
N2480 X2.4388 Y0. Z1.5
N2490 X2.4195 Y-.3057 Z1.495
N2500 X2.3621 Y-.6065 Z1.49
N2510 X2.2675 Y-.8978 Z1.485
N2520 X2.1371 Y-1.1749 Z1.48
N2530 X1.973 Y-1.4335 Z1.475
N2540 X1.7778 Y-1.6694 Z1.47
N2550 X1.5545 Y-1.8791 Z1.465
N2560 X1.3067 Y-2.0591 Z1.46
N2570 X1.0384 Y-2.2066 Z1.455
N2580 X.7536 Y-2.3194 Z1.45
N2590 X.457 Y-2.3956 Z1.445
N2600 X.1531 Y-2.4339 Z1.44
N2610 X-.1531 Z1.435
N2620 X-.457 Y-2.3956 Z1.43
N2630 X-.7536 Y-2.3194 Z1.425
N2640 X-1.0384 Y-2.2066 Z1.42
N2650 X-1.3067 Y-2.0591 Z1.415
N2660 X-1.5545 Y-1.8791 Z1.41
N2670 X-1.7778 Y-1.6694 Z1.405
N2680 X-1.973 Y-1.4335 Z1.4
N2690 X-2.1371 Y-1.1749 Z1.395
N2700 X-2.2675 Y-.8978 Z1.39
N2710 X-2.3621 Y-.6065 Z1.385
N2720 X-2.4195 Y-.3057 Z1.38
N2730 X-2.4388 Y0. Z1.375
N2740 X-2.4195 Y.3057 Z1.37
N2750 X-2.3621 Y.6065 Z1.365
N2760 X-2.2675 Y.8978 Z1.36
N2770 X-2.1371 Y1.1749 Z1.355
N2780 X-1.973 Y1.4335 Z1.35
N2790 X-1.7778 Y1.6694 Z1.345
N2800 X-1.5545 Y1.8791 Z1.34
N2810 X-1.3067 Y2.0591 Z1.335
N2820 X-1.0384 Y2.2066 Z1.33
N2830 X-.7536 Y2.3194 Z1.325
N2840 X-.457 Y2.3956 Z1.32
N2850 X-.1531 Y2.4339 Z1.315
N2860 X.1531 Z1.31
N2870 X.457 Y2.3956 Z1.305
N2880 X.7536 Y2.3194 Z1.3
N2890 X1.0384 Y2.2066 Z1.295
N2900 X1.3067 Y2.0591 Z1.29
N2910 X1.5545 Y1.8791 Z1.285
N2920 X1.7778 Y1.6694 Z1.28
N2930 X1.973 Y1.4335 Z1.275
N2940 X2.1371 Y1.1749 Z1.27
N2950 X2.2675 Y.8978 Z1.265
N2960 X2.3621 Y.6065 Z1.26
N2970 X2.4195 Y.3057 Z1.255
N2980 X2.4388 Y0. Z1.25
N2990 X2.4195 Y-.3057 Z1.245
N3000 X2.3621 Y-.6065 Z1.24
N3010 X2.2675 Y-.8978 Z1.235
N3020 X2.1371 Y-1.1749 Z1.23
N3030 X1.973 Y-1.4335 Z1.225
N3040 X1.7778 Y-1.6694 Z1.22
N3050 X1.5545 Y-1.8791 Z1.215
N3060 X1.3067 Y-2.0591 Z1.21
N3070 X1.0384 Y-2.2066 Z1.205
N3080 X.7536 Y-2.3194 Z1.2
N3090 X.457 Y-2.3956 Z1.195
N3100 X.1531 Y-2.4339 Z1.19
N3110 X-.1531 Z1.185
N3120 X-.457 Y-2.3956 Z1.18
N3130 X-.7536 Y-2.3194 Z1.175
N3140 X-1.0384 Y-2.2066 Z1.17
N3150 X-1.3067 Y-2.0591 Z1.165
N3160 X-1.5545 Y-1.8791 Z1.16
N3170 X-1.7778 Y-1.6694 Z1.155
N3180 X-1.973 Y-1.4335 Z1.15
N3190 X-2.1371 Y-1.1749 Z1.145
N3200 X-2.2675 Y-.8978 Z1.14
N3210 X-2.3621 Y-.6065 Z1.135
N3220 X-2.4195 Y-.3057 Z1.13
N3230 X-2.4388 Y0. Z1.125
N3240 X-2.4195 Y.3057 Z1.12
N3250 X-2.3621 Y.6065 Z1.115
N3260 X-2.2675 Y.8978 Z1.11
N3270 X-2.1371 Y1.1749 Z1.105
N3280 X-1.973 Y1.4335 Z1.1
N3290 X-1.7778 Y1.6694 Z1.095
N3300 X-1.5545 Y1.8791 Z1.09
N3310 X-1.3067 Y2.0591 Z1.085
N3320 X-1.0384 Y2.2066 Z1.08
N3330 X-.7536 Y2.3194 Z1.075
N3340 X-.457 Y2.3956 Z1.07
N3350 X-.1531 Y2.4339 Z1.065
N3360 X.1531 Z1.06
N3370 X.457 Y2.3956 Z1.055
N3380 X.7536 Y2.3194 Z1.05
N3390 X1.0384 Y2.2066 Z1.045
N3400 X1.3067 Y2.0591 Z1.04
N3410 X1.5545 Y1.8791 Z1.035
N3420 X1.7778 Y1.6694 Z1.03
N3430 X1.973 Y1.4335 Z1.025
N3440 X2.1371 Y1.1749 Z1.02
N3450 X2.2675 Y.8978 Z1.015
N3460 X2.3621 Y.6065 Z1.01
N3470 X2.4195 Y.3057 Z1.005
N3480 X2.4388 Y0. Z1.
N3490 X2.4195 Y-.3057 Z.995
N3500 X2.3621 Y-.6065 Z.99
N3510 X2.2675 Y-.8978 Z.985
N3520 X2.1371 Y-1.1749 Z.98
N3530 X1.973 Y-1.4335 Z.975
N3540 X1.7778 Y-1.6694 Z.97
N3550 X1.5545 Y-1.8791 Z.965
N3560 X1.3067 Y-2.0591 Z.96
N3570 X1.0384 Y-2.2066 Z.955
N3580 X.7536 Y-2.3194 Z.95
N3590 X.457 Y-2.3956 Z.945
N3600 X.1531 Y-2.4339 Z.94
N3610 X-.1531 Z.935
N3620 X-.457 Y-2.3956 Z.93
N3630 X-.7536 Y-2.3194 Z.925
N3640 X-1.0384 Y-2.2066 Z.92
N3650 X-1.3067 Y-2.0591 Z.915
N3660 X-1.5545 Y-1.8791 Z.91
N3670 X-1.7778 Y-1.6694 Z.905
N3680 X-1.973 Y-1.4335 Z.9
N3690 X-2.1371 Y-1.1749 Z.895
N3700 X-2.2675 Y-.8978 Z.89
N3710 X-2.3621 Y-.6065 Z.885
N3720 X-2.4195 Y-.3057 Z.88
N3730 X-2.4388 Y0. Z.875
N3740 X-2.4195 Y.3057 Z.87
N3750 X-2.3621 Y.6065 Z.865
N3760 X-2.2675 Y.8978 Z.86
N3770 X-2.1371 Y1.1749 Z.855
N3780 X-1.973 Y1.4335 Z.85
N3790 X-1.7778 Y1.6694 Z.845
N3800 X-1.5545 Y1.8791 Z.84
N3810 X-1.3067 Y2.0591 Z.835
N3820 X-1.0384 Y2.2066 Z.83
N3830 X-.7536 Y2.3194 Z.825
N3840 X-.457 Y2.3956 Z.82
N3850 X-.1531 Y2.4339 Z.815
N3860 X.1531 Z.81
N3870 X.457 Y2.3956 Z.805
N3880 X.7536 Y2.3194 Z.8
N3890 X1.0384 Y2.2066 Z.795
N3900 X1.3067 Y2.0591 Z.79
N3910 X1.5545 Y1.8791 Z.785
N3920 X1.7778 Y1.6694 Z.78
N3930 X1.973 Y1.4335 Z.775
N3940 X2.1371 Y1.1749 Z.77
N3950 X2.2675 Y.8978 Z.765
N3960 X2.3621 Y.6065 Z.76
N3970 X2.4195 Y.3057 Z.755
N3980 X2.4388 Y0. Z.75
N3990 X2.4195 Y-.3057 Z.745
N4000 X2.3621 Y-.6065 Z.74
N4010 X2.2675 Y-.8978 Z.735
N4020 X2.1371 Y-1.1749 Z.73
N4030 X1.973 Y-1.4335 Z.725
N4040 X1.7778 Y-1.6694 Z.72
N4050 X1.5545 Y-1.8791 Z.715
N4060 X1.3067 Y-2.0591 Z.71
N4070 X1.0384 Y-2.2066 Z.705
N4080 X.7536 Y-2.3194 Z.7
N4090 X.457 Y-2.3956 Z.695
N4100 X.1531 Y-2.4339 Z.69
N4110 X-.1531 Z.685
N4120 X-.457 Y-2.3956 Z.68
N4130 X-.7536 Y-2.3194 Z.675
N4140 X-1.0384 Y-2.2066 Z.67
N4150 X-1.3067 Y-2.0591 Z.665
N4160 X-1.5545 Y-1.8791 Z.66
N4170 X-1.7778 Y-1.6694 Z.655
N4180 X-1.973 Y-1.4335 Z.65
N4190 X-2.1371 Y-1.1749 Z.645
N4200 X-2.2675 Y-.8978 Z.64
N4210 X-2.3621 Y-.6065 Z.635
N4220 X-2.4195 Y-.3057 Z.63
N4230 X-2.4388 Y0. Z.625
N4240 X-2.4195 Y.3057 Z.62
N4250 X-2.3621 Y.6065 Z.615
N4260 X-2.2675 Y.8978 Z.61
N4270 X-2.1371 Y1.1749 Z.605
N4280 X-1.973 Y1.4335 Z.6
N4290 X-1.7778 Y1.6694 Z.595
N4300 X-1.5545 Y1.8791 Z.59
N4310 X-1.3067 Y2.0591 Z.585
N4320 X-1.0384 Y2.2066 Z.58
N4330 X-.7536 Y2.3194 Z.575
N4340 X-.457 Y2.3956 Z.57
N4350 X-.1531 Y2.4339 Z.565
N4360 X.1531 Z.56
N4370 X.457 Y2.3956 Z.555
N4380 X.7536 Y2.3194 Z.55
N4390 X1.0384 Y2.2066 Z.545
N4400 X1.3067 Y2.0591 Z.54
N4410 X1.5545 Y1.8791 Z.535
N4420 X1.7778 Y1.6694 Z.53
N4430 X1.973 Y1.4335 Z.525
N4440 X2.1371 Y1.1749 Z.52
N4450 X2.2675 Y.8978 Z.515
N4460 X2.3621 Y.6065 Z.51
N4470 X2.4195 Y.3057 Z.505
N4480 X2.4388 Y0. Z.5
N4490 X2.4195 Y-.3057 Z.495
N4500 X2.3621 Y-.6065 Z.49
N4510 X2.2675 Y-.8978 Z.485
N4520 X2.1371 Y-1.1749 Z.48
N4530 X1.973 Y-1.4335 Z.475
N4540 X1.7778 Y-1.6694 Z.47
N4550 X1.5545 Y-1.8791 Z.465
N4560 X1.3067 Y-2.0591 Z.46
N4570 X1.0384 Y-2.2066 Z.455
N4580 X.7536 Y-2.3194 Z.45
N4590 X.457 Y-2.3956 Z.445
N4600 X.1531 Y-2.4339 Z.44
N4610 X-.1531 Z.435
N4620 X-.457 Y-2.3956 Z.43
N4630 X-.7536 Y-2.3194 Z.425
N4640 X-1.0384 Y-2.2066 Z.42
N4650 X-1.3067 Y-2.0591 Z.415
N4660 X-1.5545 Y-1.8791 Z.41
N4670 X-1.7778 Y-1.6694 Z.405
N4680 X-1.973 Y-1.4335 Z.4
N4690 X-2.1371 Y-1.1749 Z.395
N4700 X-2.2675 Y-.8978 Z.39
N4710 X-2.3621 Y-.6065 Z.385
N4720 X-2.4195 Y-.3057 Z.38
N4730 X-2.4388 Y0. Z.375
N4740 X-2.4195 Y.3057 Z.37
N4750 X-2.3621 Y.6065 Z.365
N4760 X-2.2675 Y.8978 Z.36
N4770 X-2.1371 Y1.1749 Z.355
N4780 X-1.973 Y1.4335 Z.35
N4790 X-1.7778 Y1.6694 Z.345
N4800 X-1.5545 Y1.8791 Z.34
N4810 X-1.3067 Y2.0591 Z.335
N4820 X-1.0384 Y2.2066 Z.33
N4830 X-.7536 Y2.3194 Z.325
N4840 X-.457 Y2.3956 Z.32
N4850 X-.1531 Y2.4339 Z.315
N4860 X.1531 Z.31
N4870 X.457 Y2.3956 Z.305
N4880 X.7536 Y2.3194 Z.3
N4890 X1.0384 Y2.2066 Z.295
N4900 X1.3067 Y2.0591 Z.29
N4910 X1.5545 Y1.8791 Z.285
N4920 X1.7778 Y1.6694 Z.28
N4930 X1.973 Y1.4335 Z.275
N4940 X2.1371 Y1.1749 Z.27
N4950 X2.2675 Y.8978 Z.265
N4960 X2.3621 Y.6065 Z.26
N4970 X2.4195 Y.3057 Z.255
N4980 X2.4388 Y0. Z.25
N4990 X2.4195 Y-.3057 Z.245
N5000 X2.3621 Y-.6065 Z.24
N5010 X2.2675 Y-.8978 Z.235
N5020 X2.1371 Y-1.1749 Z.23
N5030 X1.973 Y-1.4335 Z.225
N5040 X1.7778 Y-1.6694 Z.22
N5050 X1.5545 Y-1.8791 Z.215
N5060 X1.3067 Y-2.0591 Z.21
N5070 X1.0384 Y-2.2066 Z.205
N5080 X.7536 Y-2.3194 Z.2
N5090 X.457 Y-2.3956 Z.195
N5100 X.1531 Y-2.4339 Z.19
N5110 X-.1531 Z.185
N5120 X-.457 Y-2.3956 Z.18
N5130 X-.7536 Y-2.3194 Z.175
N5140 X-1.0384 Y-2.2066 Z.17
N5150 X-1.3067 Y-2.0591 Z.165
N5160 X-1.5545 Y-1.8791 Z.16
N5170 X-1.7778 Y-1.6694 Z.155
N5180 X-1.973 Y-1.4335 Z.15
N5190 X-2.1371 Y-1.1749 Z.145
N5200 X-2.2675 Y-.8978 Z.14
N5210 X-2.3621 Y-.6065 Z.135
N5220 X-2.4195 Y-.3057 Z.13
N5230 X-2.4388 Y0. Z.125
N5240 X-2.4195 Y.3057 Z.12
N5250 X-2.3621 Y.6065 Z.115
N5260 X-2.2675 Y.8978 Z.11
N5270 X-2.1371 Y1.1749 Z.105
N5280 X-1.973 Y1.4335 Z.1
N5290 X-1.7778 Y1.6694 Z.095
N5300 X-1.5545 Y1.8791 Z.09
N5310 X-1.3067 Y2.0591 Z.085
N5320 X-1.0384 Y2.2066 Z.08
N5330 X-.7536 Y2.3194 Z.075
N5340 X-.457 Y2.3956 Z.07
N5350 X-.1531 Y2.4339 Z.065
N5360 X.1531 Z.06
N5370 X.457 Y2.3956 Z.055
N5380 X.7536 Y2.3194 Z.05
N5390 X1.0384 Y2.2066 Z.045
N5400 X1.3067 Y2.0591 Z.04
N5410 X1.5545 Y1.8791 Z.035
N5420 X1.7778 Y1.6694 Z.03
N5430 X1.973 Y1.4335 Z.025
N5440 X2.1371 Y1.1749 Z.02
N5450 X2.2675 Y.8978 Z.015
N5460 X2.3621 Y.6065 Z.01
N5470 X2.4195 Y.3057 Z.005
N5480 X2.4388 Y0. Z0.
;N5490 G2 X0. Y-2.4388 I-2.4388 J0.
;N5500 X-2.4388 Y0. I0. J2.4388
;N5510 X0. Y2.4388 I2.4388 J0.
;N5520 X2.4388 Y0. I0. J-2.4388
N5530 G1 X2.6258
N5540 Z.2
N5550 G0 Z1.825
N5560 X-2.4337
N5570 G1 Z1.625 ;F6.42
N5580 X-2.4146 Y.305 Z1.62
N5590 X-2.3573 Y.6052 Z1.615
N5600 X-2.2628 Y.8959 Z1.61
N5610 X-2.1327 Y1.1725 Z1.605
N5620 X-1.9689 Y1.4305 Z1.6
N5630 X-1.7741 Y1.666 Z1.595
N5640 X-1.5513 Y1.8752 Z1.59
N5650 X-1.3041 Y2.0549 Z1.585
N5660 X-1.0362 Y2.2021 Z1.58
N5670 X-.7521 Y2.3146 Z1.575
N5680 X-.456 Y2.3906 Z1.57
N5690 X-.1528 Y2.4289 Z1.565
N5700 X.1528 Z1.56
N5710 X.456 Y2.3906 Z1.555
N5720 X.7521 Y2.3146 Z1.55
N5730 X1.0362 Y2.2021 Z1.545
N5740 X1.3041 Y2.0549 Z1.54
N5750 X1.5513 Y1.8752 Z1.535
N5760 X1.7741 Y1.666 Z1.53
N5770 X1.9689 Y1.4305 Z1.525
N5780 X2.1327 Y1.1725 Z1.52
N5790 X2.2628 Y.8959 Z1.515
N5800 X2.3573 Y.6052 Z1.51
N5810 X2.4146 Y.305 Z1.505
N5820 X2.4337 Y0. Z1.5
N5830 X2.4146 Y-.305 Z1.495
N5840 X2.3573 Y-.6052 Z1.49
N5850 X2.2628 Y-.8959 Z1.485
N5860 X2.1327 Y-1.1725 Z1.48
N5870 X1.9689 Y-1.4305 Z1.475
N5880 X1.7741 Y-1.666 Z1.47
N5890 X1.5513 Y-1.8752 Z1.465
N5900 X1.3041 Y-2.0549 Z1.46
N5910 X1.0362 Y-2.2021 Z1.455
N5920 X.7521 Y-2.3146 Z1.45
N5930 X.456 Y-2.3906 Z1.445
N5940 X.1528 Y-2.4289 Z1.44
N5950 X-.1528 Z1.435
N5960 X-.456 Y-2.3906 Z1.43
N5970 X-.7521 Y-2.3146 Z1.425
N5980 X-1.0362 Y-2.2021 Z1.42
N5990 X-1.3041 Y-2.0549 Z1.415
N6000 X-1.5513 Y-1.8752 Z1.41
N6010 X-1.7741 Y-1.666 Z1.405
N6020 X-1.9689 Y-1.4305 Z1.4
N6030 X-2.1327 Y-1.1725 Z1.395
N6040 X-2.2628 Y-.8959 Z1.39
N6050 X-2.3573 Y-.6052 Z1.385
N6060 X-2.4146 Y-.305 Z1.38
N6070 X-2.4337 Y0. Z1.375
N6080 X-2.4146 Y.305 Z1.37
N6090 X-2.3573 Y.6052 Z1.365
N6100 X-2.2628 Y.8959 Z1.36
N6110 X-2.1327 Y1.1725 Z1.355
N6120 X-1.9689 Y1.4305 Z1.35
N6130 X-1.7741 Y1.666 Z1.345
N6140 X-1.5513 Y1.8752 Z1.34
N6150 X-1.3041 Y2.0549 Z1.335
N6160 X-1.0362 Y2.2021 Z1.33
N6170 X-.7521 Y2.3146 Z1.325
N6180 X-.456 Y2.3906 Z1.32
N6190 X-.1528 Y2.4289 Z1.315
N6200 X.1528 Z1.31
N6210 X.456 Y2.3906 Z1.305
N6220 X.7521 Y2.3146 Z1.3
N6230 X1.0362 Y2.2021 Z1.295
N6240 X1.3041 Y2.0549 Z1.29
N6250 X1.5513 Y1.8752 Z1.285
N6260 X1.7741 Y1.666 Z1.28
N6270 X1.9689 Y1.4305 Z1.275
N6280 X2.1327 Y1.1725 Z1.27
N6290 X2.2628 Y.8959 Z1.265
N6300 X2.3573 Y.6052 Z1.26
N6310 X2.4146 Y.305 Z1.255
N6320 X2.4337 Y0. Z1.25
N6330 X2.4146 Y-.305 Z1.245
N6340 X2.3573 Y-.6052 Z1.24
N6350 X2.2628 Y-.8959 Z1.235
N6360 X2.1327 Y-1.1725 Z1.23
N6370 X1.9689 Y-1.4305 Z1.225
N6380 X1.7741 Y-1.666 Z1.22
N6390 X1.5513 Y-1.8752 Z1.215
N6400 X1.3041 Y-2.0549 Z1.21
N6410 X1.0362 Y-2.2021 Z1.205
N6420 X.7521 Y-2.3146 Z1.2
N6430 X.456 Y-2.3906 Z1.195
N6440 X.1528 Y-2.4289 Z1.19
N6450 X-.1528 Z1.185
N6460 X-.456 Y-2.3906 Z1.18
N6470 X-.7521 Y-2.3146 Z1.175
N6480 X-1.0362 Y-2.2021 Z1.17
N6490 X-1.3041 Y-2.0549 Z1.165
N6500 X-1.5513 Y-1.8752 Z1.16
N6510 X-1.7741 Y-1.666 Z1.155
N6520 X-1.9689 Y-1.4305 Z1.15
N6530 X-2.1327 Y-1.1725 Z1.145
N6540 X-2.2628 Y-.8959 Z1.14
N6550 X-2.3573 Y-.6052 Z1.135
N6560 X-2.4146 Y-.305 Z1.13
N6570 X-2.4337 Y0. Z1.125
N6580 X-2.4146 Y.305 Z1.12
N6590 X-2.3573 Y.6052 Z1.115
N6600 X-2.2628 Y.8959 Z1.11
N6610 X-2.1327 Y1.1725 Z1.105
N6620 X-1.9689 Y1.4305 Z1.1
N6630 X-1.7741 Y1.666 Z1.095
N6640 X-1.5513 Y1.8752 Z1.09
N6650 X-1.3041 Y2.0549 Z1.085
N6660 X-1.0362 Y2.2021 Z1.08
N6670 X-.7521 Y2.3146 Z1.075
N6680 X-.456 Y2.3906 Z1.07
N6690 X-.1528 Y2.4289 Z1.065
N6700 X.1528 Z1.06
N6710 X.456 Y2.3906 Z1.055
N6720 X.7521 Y2.3146 Z1.05
N6730 X1.0362 Y2.2021 Z1.045
N6740 X1.3041 Y2.0549 Z1.04
N6750 X1.5513 Y1.8752 Z1.035
N6760 X1.7741 Y1.666 Z1.03
N6770 X1.9689 Y1.4305 Z1.025
N6780 X2.1327 Y1.1725 Z1.02
N6790 X2.2628 Y.8959 Z1.015
N6800 X2.3573 Y.6052 Z1.01
N6810 X2.4146 Y.305 Z1.005
N6820 X2.4337 Y0. Z1.
N6830 X2.4146 Y-.305 Z.995
N6840 X2.3573 Y-.6052 Z.99
N6850 X2.2628 Y-.8959 Z.985
N6860 X2.1327 Y-1.1725 Z.98
N6870 X1.9689 Y-1.4305 Z.975
N6880 X1.7741 Y-1.666 Z.97
N6890 X1.5513 Y-1.8752 Z.965
N6900 X1.3041 Y-2.0549 Z.96
N6910 X1.0362 Y-2.2021 Z.955
N6920 X.7521 Y-2.3146 Z.95
N6930 X.456 Y-2.3906 Z.945
N6940 X.1528 Y-2.4289 Z.94
N6950 X-.1528 Z.935
N6960 X-.456 Y-2.3906 Z.93
N6970 X-.7521 Y-2.3146 Z.925
N6980 X-1.0362 Y-2.2021 Z.92
N6990 X-1.3041 Y-2.0549 Z.915
N7000 X-1.5513 Y-1.8752 Z.91
N7010 X-1.7741 Y-1.666 Z.905
N7020 X-1.9689 Y-1.4305 Z.9
N7030 X-2.1327 Y-1.1725 Z.895
N7040 X-2.2628 Y-.8959 Z.89
N7050 X-2.3573 Y-.6052 Z.885
N7060 X-2.4146 Y-.305 Z.88
N7070 X-2.4337 Y0. Z.875
N7080 X-2.4146 Y.305 Z.87
N7090 X-2.3573 Y.6052 Z.865
N7100 X-2.2628 Y.8959 Z.86
N7110 X-2.1327 Y1.1725 Z.855
N7120 X-1.9689 Y1.4305 Z.85
N7130 X-1.7741 Y1.666 Z.845
N7140 X-1.5513 Y1.8752 Z.84
N7150 X-1.3041 Y2.0549 Z.835
N7160 X-1.0362 Y2.2021 Z.83
N7170 X-.7521 Y2.3146 Z.825
N7180 X-.456 Y2.3906 Z.82
N7190 X-.1528 Y2.4289 Z.815
N7200 X.1528 Z.81
N7210 X.456 Y2.3906 Z.805
N7220 X.7521 Y2.3146 Z.8
N7230 X1.0362 Y2.2021 Z.795
N7240 X1.3041 Y2.0549 Z.79
N7250 X1.5513 Y1.8752 Z.785
N7260 X1.7741 Y1.666 Z.78
N7270 X1.9689 Y1.4305 Z.775
N7280 X2.1327 Y1.1725 Z.77
N7290 X2.2628 Y.8959 Z.765
N7300 X2.3573 Y.6052 Z.76
N7310 X2.4146 Y.305 Z.755
N7320 X2.4337 Y0. Z.75
N7330 X2.4146 Y-.305 Z.745
N7340 X2.3573 Y-.6052 Z.74
N7350 X2.2628 Y-.8959 Z.735
N7360 X2.1327 Y-1.1725 Z.73
N7370 X1.9689 Y-1.4305 Z.725
N7380 X1.7741 Y-1.666 Z.72
N7390 X1.5513 Y-1.8752 Z.715
N7400 X1.3041 Y-2.0549 Z.71
N7410 X1.0362 Y-2.2021 Z.705
N7420 X.7521 Y-2.3146 Z.7
N7430 X.456 Y-2.3906 Z.695
N7440 X.1528 Y-2.4289 Z.69
N7450 X-.1528 Z.685
N7460 X-.456 Y-2.3906 Z.68
N7470 X-.7521 Y-2.3146 Z.675
N7480 X-1.0362 Y-2.2021 Z.67
N7490 X-1.3041 Y-2.0549 Z.665
N7500 X-1.5513 Y-1.8752 Z.66
N7510 X-1.7741 Y-1.666 Z.655
N7520 X-1.9689 Y-1.4305 Z.65
N7530 X-2.1327 Y-1.1725 Z.645
N7540 X-2.2628 Y-.8959 Z.64
N7550 X-2.3573 Y-.6052 Z.635
N7560 X-2.4146 Y-.305 Z.63
N7570 X-2.4337 Y0. Z.625
N7580 X-2.4146 Y.305 Z.62
N7590 X-2.3573 Y.6052 Z.615
N7600 X-2.2628 Y.8959 Z.61
N7610 X-2.1327 Y1.1725 Z.605
N7620 X-1.9689 Y1.4305 Z.6
N7630 X-1.7741 Y1.666 Z.595
N7640 X-1.5513 Y1.8752 Z.59
N7650 X-1.3041 Y2.0549 Z.585
N7660 X-1.0362 Y2.2021 Z.58
N7670 X-.7521 Y2.3146 Z.575
N7680 X-.456 Y2.3906 Z.57
N7690 X-.1528 Y2.4289 Z.565
N7700 X.1528 Z.56
N7710 X.456 Y2.3906 Z.555
N7720 X.7521 Y2.3146 Z.55
N7730 X1.0362 Y2.2021 Z.545
N7740 X1.3041 Y2.0549 Z.54
N7750 X1.5513 Y1.8752 Z.535
N7760 X1.7741 Y1.666 Z.53
N7770 X1.9689 Y1.4305 Z.525
N7780 X2.1327 Y1.1725 Z.52
N7790 X2.2628 Y.8959 Z.515
N7800 X2.3573 Y.6052 Z.51
N7810 X2.4146 Y.305 Z.505
N7820 X2.4337 Y0. Z.5
N7830 X2.4146 Y-.305 Z.495
N7840 X2.3573 Y-.6052 Z.49
N7850 X2.2628 Y-.8959 Z.485
N7860 X2.1327 Y-1.1725 Z.48
N7870 X1.9689 Y-1.4305 Z.475
N7880 X1.7741 Y-1.666 Z.47
N7890 X1.5513 Y-1.8752 Z.465
N7900 X1.3041 Y-2.0549 Z.46
N7910 X1.0362 Y-2.2021 Z.455
N7920 X.7521 Y-2.3146 Z.45
N7930 X.456 Y-2.3906 Z.445
N7940 X.1528 Y-2.4289 Z.44
N7950 X-.1528 Z.435
N7960 X-.456 Y-2.3906 Z.43
N7970 X-.7521 Y-2.3146 Z.425
N7980 X-1.0362 Y-2.2021 Z.42
N7990 X-1.3041 Y-2.0549 Z.415
N8000 X-1.5513 Y-1.8752 Z.41
N8010 X-1.7741 Y-1.666 Z.405
N8020 X-1.9689 Y-1.4305 Z.4
N8030 X-2.1327 Y-1.1725 Z.395
N8040 X-2.2628 Y-.8959 Z.39
N8050 X-2.3573 Y-.6052 Z.385
N8060 X-2.4146 Y-.305 Z.38
N8070 X-2.4337 Y0. Z.375
N8080 X-2.4146 Y.305 Z.37
N8090 X-2.3573 Y.6052 Z.365
N8100 X-2.2628 Y.8959 Z.36
N8110 X-2.1327 Y1.1725 Z.355
N8120 X-1.9689 Y1.4305 Z.35
N8130 X-1.7741 Y1.666 Z.345
N8140 X-1.5513 Y1.8752 Z.34
N8150 X-1.3041 Y2.0549 Z.335
N8160 X-1.0362 Y2.2021 Z.33
N8170 X-.7521 Y2.3146 Z.325
N8180 X-.456 Y2.3906 Z.32
N8190 X-.1528 Y2.4289 Z.315
N8200 X.1528 Z.31
N8210 X.456 Y2.3906 Z.305
N8220 X.7521 Y2.3146 Z.3
N8230 X1.0362 Y2.2021 Z.295
N8240 X1.3041 Y2.0549 Z.29
N8250 X1.5513 Y1.8752 Z.285
N8260 X1.7741 Y1.666 Z.28
N8270 X1.9689 Y1.4305 Z.275
N8280 X2.1327 Y1.1725 Z.27
N8290 X2.2628 Y.8959 Z.265
N8300 X2.3573 Y.6052 Z.26
N8310 X2.4146 Y.305 Z.255
N8320 X2.4337 Y0. Z.25
N8330 X2.4146 Y-.305 Z.245
N8340 X2.3573 Y-.6052 Z.24
N8350 X2.2628 Y-.8959 Z.235
N8360 X2.1327 Y-1.1725 Z.23
N8370 X1.9689 Y-1.4305 Z.225
N8380 X1.7741 Y-1.666 Z.22
N8390 X1.5513 Y-1.8752 Z.215
N8400 X1.3041 Y-2.0549 Z.21
N8410 X1.0362 Y-2.2021 Z.205
N8420 X.7521 Y-2.3146 Z.2
N8430 X.456 Y-2.3906 Z.195
N8440 X.1528 Y-2.4289 Z.19
N8450 X-.1528 Z.185
N8460 X-.456 Y-2.3906 Z.18
N8470 X-.7521 Y-2.3146 Z.175
N8480 X-1.0362 Y-2.2021 Z.17
N8490 X-1.3041 Y-2.0549 Z.165
N8500 X-1.5513 Y-1.8752 Z.16
N8510 X-1.7741 Y-1.666 Z.155
N8520 X-1.9689 Y-1.4305 Z.15
N8530 X-2.1327 Y-1.1725 Z.145
N8540 X-2.2628 Y-.8959 Z.14
N8550 X-2.3573 Y-.6052 Z.135
N8560 X-2.4146 Y-.305 Z.13
N8570 X-2.4337 Y0. Z.125
N8580 X-2.4146 Y.305 Z.12
N8590 X-2.3573 Y.6052 Z.115
N8600 X-2.2628 Y.8959 Z.11
N8610 X-2.1327 Y1.1725 Z.105
N8620 X-1.9689 Y1.4305 Z.1
N8630 X-1.7741 Y1.666 Z.095
N8640 X-1.5513 Y1.8752 Z.09
N8650 X-1.3041 Y2.0549 Z.085
N8660 X-1.0362 Y2.2021 Z.08
N8670 X-.7521 Y2.3146 Z.075
N8680 X-.456 Y2.3906 Z.07
N8690 X-.1528 Y2.4289 Z.065
N8700 X.1528 Z.06
N8710 X.456 Y2.3906 Z.055
N8720 X.7521 Y2.3146 Z.05
N8730 X1.0362 Y2.2021 Z.045
N8740 X1.3041 Y2.0549 Z.04
N8750 X1.5513 Y1.8752 Z.035
N8760 X1.7741 Y1.666 Z.03
N8770 X1.9689 Y1.4305 Z.025
N8780 X2.1327 Y1.1725 Z.02
N8790 X2.2628 Y.8959 Z.015
N8800 X2.3573 Y.6052 Z.01
N8810 X2.4146 Y.305 Z.005
N8820 X2.4337 Y0. Z0.
;N8830 G2 X0. Y-2.4337 I-2.4337 J0.
;N8840 X-2.4337 Y0. I0. J2.4337
;N8850 X0. Y2.4337 I2.4337 J0.
;N8860 X2.4337 Y0. I0. J-2.4337
N8870 G1 X2.6208
N8880 Z.2
N8890 G0 Z1.825
N8900 X-2.4287
N8910 G1 Z1.625 ;F6.42
N8920 X-2.4088 Y.3106 Z1.6199
N8930 X-2.3493 Y.6161 Z1.6148
N8940 X-2.2512 Y.9114 Z1.6097
N8950 X-2.1162 Y1.1918 Z1.6046
N8960 X-1.9464 Y1.4527 Z1.5995
N8970 X-1.7447 Y1.6896 Z1.5944
N8980 X-1.5143 Y1.8989 Z1.5893
N8990 X-1.259 Y2.0769 Z1.5842
N9000 X-.9831 Y2.2209 Z1.5791
N9010 X-.691 Y2.3284 Z1.574
N9020 X-.3876 Y2.3976 Z1.5689
N9030 X-.0778 Y2.4275 Z1.5638
N9040 X.2332 Y2.4175 Z1.5587
N9050 X.5404 Y2.3679 Z1.5536
N9060 X.8388 Y2.2793 Z1.5485
N9070 X1.1234 Y2.1533 Z1.5434
N9080 X1.3895 Y1.992 Z1.5383
N9090 X1.6329 Y1.798 Z1.5332
N9100 X1.8494 Y1.5744 Z1.5281
N9110 X2.0355 Y1.325 Z1.523
N9120 X2.1882 Y1.0538 Z1.5179
N9130 X2.305 Y.7653 Z1.5128
N9140 X2.384 Y.4643 Z1.5077
N9150 X2.4238 Y.1556 Z1.5026
N9160 Y-.1556 Z1.4974
N9170 X2.384 Y-.4643 Z1.4923
N9180 X2.305 Y-.7653 Z1.4872
N9190 X2.1882 Y-1.0538 Z1.4821
N9200 X2.0355 Y-1.325 Z1.477
N9210 X1.8494 Y-1.5744 Z1.4719
N9220 X1.6329 Y-1.798 Z1.4668
N9230 X1.3895 Y-1.992 Z1.4617
N9240 X1.1234 Y-2.1533 Z1.4566
N9250 X.8388 Y-2.2793 Z1.4515
N9260 X.5404 Y-2.3679 Z1.4464
N9270 X.2332 Y-2.4175 Z1.4413
N9280 X-.0778 Y-2.4275 Z1.4362
N9290 X-.3876 Y-2.3976 Z1.4311
N9300 X-.691 Y-2.3284 Z1.426
N9310 X-.9831 Y-2.2209 Z1.4209
N9320 X-1.259 Y-2.0769 Z1.4158
N9330 X-1.5143 Y-1.8989 Z1.4107
N9340 X-1.7447 Y-1.6896 Z1.4056
N9350 X-1.9464 Y-1.4527 Z1.4005
N9360 X-2.1162 Y-1.1918 Z1.3954
N9370 X-2.2512 Y-.9114 Z1.3903
N9380 X-2.3493 Y-.6161 Z1.3852
N9390 X-2.4088 Y-.3106 Z1.3801
N9400 X-2.4287 Y0. Z1.375
N9410 X-2.4088 Y.3106 Z1.3699
N9420 X-2.3493 Y.6161 Z1.3648
N9430 X-2.2512 Y.9114 Z1.3597
N9440 X-2.1162 Y1.1918 Z1.3546
N9450 X-1.9464 Y1.4527 Z1.3495
N9460 X-1.7447 Y1.6896 Z1.3444
N9470 X-1.5143 Y1.8989 Z1.3393
N9480 X-1.259 Y2.0769 Z1.3342
N9490 X-.9831 Y2.2209 Z1.3291
N9500 X-.691 Y2.3284 Z1.324
N9510 X-.3876 Y2.3976 Z1.3189
N9520 X-.0778 Y2.4275 Z1.3138
N9530 X.2332 Y2.4175 Z1.3087
N9540 X.5404 Y2.3679 Z1.3036
N9550 X.8388 Y2.2793 Z1.2985
N9560 X1.1234 Y2.1533 Z1.2934
N9570 X1.3895 Y1.992 Z1.2883
N9580 X1.6329 Y1.798 Z1.2832
N9590 X1.8494 Y1.5744 Z1.2781
N9600 X2.0355 Y1.325 Z1.273
N9610 X2.1882 Y1.0538 Z1.2679
N9620 X2.305 Y.7653 Z1.2628
N9630 X2.384 Y.4643 Z1.2577
N9640 X2.4238 Y.1556 Z1.2526
N9650 Y-.1556 Z1.2474
N9660 X2.384 Y-.4643 Z1.2423
N9670 X2.305 Y-.7653 Z1.2372
N9680 X2.1882 Y-1.0538 Z1.2321
N9690 X2.0355 Y-1.325 Z1.227
N9700 X1.8494 Y-1.5744 Z1.2219
N9710 X1.6329 Y-1.798 Z1.2168
N9720 X1.3895 Y-1.992 Z1.2117
N9730 X1.1234 Y-2.1533 Z1.2066
N9740 X.8388 Y-2.2793 Z1.2015
N9750 X.5404 Y-2.3679 Z1.1964
N9760 X.2332 Y-2.4175 Z1.1913
N9770 X-.0778 Y-2.4275 Z1.1862
N9780 X-.3876 Y-2.3976 Z1.1811
N9790 X-.691 Y-2.3284 Z1.176
N9800 X-.9831 Y-2.2209 Z1.1709
N9810 X-1.259 Y-2.0769 Z1.1658
N9820 X-1.5143 Y-1.8989 Z1.1607
N9830 X-1.7447 Y-1.6896 Z1.1556
N9840 X-1.9464 Y-1.4527 Z1.1505
N9850 X-2.1162 Y-1.1918 Z1.1454
N9860 X-2.2512 Y-.9114 Z1.1403
N9870 X-2.3493 Y-.6161 Z1.1352
N9880 X-2.4088 Y-.3106 Z1.1301
N9890 X-2.4287 Y0. Z1.125
N9900 X-2.4088 Y.3106 Z1.1199
N9910 X-2.3493 Y.6161 Z1.1148
N9920 X-2.2512 Y.9114 Z1.1097
N9930 X-2.1162 Y1.1918 Z1.1046
N9940 X-1.9464 Y1.4527 Z1.0995
N9950 X-1.7447 Y1.6896 Z1.0944
N9960 X-1.5143 Y1.8989 Z1.0893
N9970 X-1.259 Y2.0769 Z1.0842
N9980 X-.9831 Y2.2209 Z1.0791
N9990 X-.691 Y2.3284 Z1.074
N100 X-.3876 Y2.3976 Z1.0689
N110 X-.0778 Y2.4275 Z1.0638
N120 X.2332 Y2.4175 Z1.0587
N130 X.5404 Y2.3679 Z1.0536
N140 X.8388 Y2.2793 Z1.0485
N150 X1.1234 Y2.1533 Z1.0434
N160 X1.3895 Y1.992 Z1.0383
N170 X1.6329 Y1.798 Z1.0332
N180 X1.8494 Y1.5744 Z1.0281
N190 X2.0355 Y1.325 Z1.023
N200 X2.1882 Y1.0538 Z1.0179
N210 X2.305 Y.7653 Z1.0128
N220 X2.384 Y.4643 Z1.0077
N230 X2.4238 Y.1556 Z1.0026
N240 Y-.1556 Z.9974
N250 X2.384 Y-.4643 Z.9923
N260 X2.305 Y-.7653 Z.9872
N270 X2.1882 Y-1.0538 Z.9821
N280 X2.0355 Y-1.325 Z.977
N290 X1.8494 Y-1.5744 Z.9719
N300 X1.6329 Y-1.798 Z.9668
N310 X1.3895 Y-1.992 Z.9617
N320 X1.1234 Y-2.1533 Z.9566
N330 X.8388 Y-2.2793 Z.9515
N340 X.5404 Y-2.3679 Z.9464
N350 X.2332 Y-2.4175 Z.9413
N360 X-.0778 Y-2.4275 Z.9362
N370 X-.3876 Y-2.3976 Z.9311
N380 X-.691 Y-2.3284 Z.926
N390 X-.9831 Y-2.2209 Z.9209
N400 X-1.259 Y-2.0769 Z.9158
N410 X-1.5143 Y-1.8989 Z.9107
N420 X-1.7447 Y-1.6896 Z.9056
N430 X-1.9464 Y-1.4527 Z.9005
N440 X-2.1162 Y-1.1918 Z.8954
N450 X-2.2512 Y-.9114 Z.8903
N460 X-2.3493 Y-.6161 Z.8852
N470 X-2.4088 Y-.3106 Z.8801
N480 X-2.4287 Y0. Z.875
N490 X-2.4088 Y.3106 Z.8699
N500 X-2.3493 Y.6161 Z.8648
N510 X-2.2512 Y.9114 Z.8597
N520 X-2.1162 Y1.1918 Z.8546
N530 X-1.9464 Y1.4527 Z.8495
N540 X-1.7447 Y1.6896 Z.8444
N550 X-1.5143 Y1.8989 Z.8393
N560 X-1.259 Y2.0769 Z.8342
N570 X-.9831 Y2.2209 Z.8291
N580 X-.691 Y2.3284 Z.824
N590 X-.3876 Y2.3976 Z.8189
N600 X-.0778 Y2.4275 Z.8138
N610 X.2332 Y2.4175 Z.8087
N620 X.5404 Y2.3679 Z.8036
N630 X.8388 Y2.2793 Z.7985
N640 X1.1234 Y2.1533 Z.7934
N650 X1.3895 Y1.992 Z.7883
N660 X1.6329 Y1.798 Z.7832
N670 X1.8494 Y1.5744 Z.7781
N680 X2.0355 Y1.325 Z.773
N690 X2.1882 Y1.0538 Z.7679
N700 X2.305 Y.7653 Z.7628
N710 X2.384 Y.4643 Z.7577
N720 X2.4238 Y.1556 Z.7526
N730 Y-.1556 Z.7474
N740 X2.384 Y-.4643 Z.7423
N750 X2.305 Y-.7653 Z.7372
N760 X2.1882 Y-1.0538 Z.7321
N770 X2.0355 Y-1.325 Z.727
N780 X1.8494 Y-1.5744 Z.7219
N790 X1.6329 Y-1.798 Z.7168
N800 X1.3895 Y-1.992 Z.7117
N810 X1.1234 Y-2.1533 Z.7066
N820 X.8388 Y-2.2793 Z.7015
N830 X.5404 Y-2.3679 Z.6964
N840 X.2332 Y-2.4175 Z.6913
N850 X-.0778 Y-2.4275 Z.6862
N860 X-.3876 Y-2.3976 Z.6811
N870 X-.691 Y-2.3284 Z.676
N880 X-.9831 Y-2.2209 Z.6709
N890 X-1.259 Y-2.0769 Z.6658
N900 X-1.5143 Y-1.8989 Z.6607
N910 X-1.7447 Y-1.6896 Z.6556
N920 X-1.9464 Y-1.4527 Z.6505
N930 X-2.1162 Y-1.1918 Z.6454
N940 X-2.2512 Y-.9114 Z.6403
N950 X-2.3493 Y-.6161 Z.6352
N960 X-2.4088 Y-.3106 Z.6301
N970 X-2.4287 Y0. Z.625
N980 X-2.4088 Y.3106 Z.6199
N990 X-2.3493 Y.6161 Z.6148
N1000 X-2.2512 Y.9114 Z.6097
N1010 X-2.1162 Y1.1918 Z.6046
N1020 X-1.9464 Y1.4527 Z.5995
N1030 X-1.7447 Y1.6896 Z.5944
N1040 X-1.5143 Y1.8989 Z.5893
N1050 X-1.259 Y2.0769 Z.5842
N1060 X-.9831 Y2.2209 Z.5791
N1070 X-.691 Y2.3284 Z.574
N1080 X-.3876 Y2.3976 Z.5689
N1090 X-.0778 Y2.4275 Z.5638
N1100 X.2332 Y2.4175 Z.5587
N1110 X.5404 Y2.3679 Z.5536
N1120 X.8388 Y2.2793 Z.5485
N1130 X1.1234 Y2.1533 Z.5434
N1140 X1.3895 Y1.992 Z.5383
N1150 X1.6329 Y1.798 Z.5332
N1160 X1.8494 Y1.5744 Z.5281
N1170 X2.0355 Y1.325 Z.523
N1180 X2.1882 Y1.0538 Z.5179
N1190 X2.305 Y.7653 Z.5128
N1200 X2.384 Y.4643 Z.5077
N1210 X2.4238 Y.1556 Z.5026
N1220 Y-.1556 Z.4974
N1230 X2.384 Y-.4643 Z.4923
N1240 X2.305 Y-.7653 Z.4872
N1250 X2.1882 Y-1.0538 Z.4821
N1260 X2.0355 Y-1.325 Z.477
N1270 X1.8494 Y-1.5744 Z.4719
N1280 X1.6329 Y-1.798 Z.4668
N1290 X1.3895 Y-1.992 Z.4617
N1300 X1.1234 Y-2.1533 Z.4566
N1310 X.8388 Y-2.2793 Z.4515
N1320 X.5404 Y-2.3679 Z.4464
N1330 X.2332 Y-2.4175 Z.4413
N1340 X-.0778 Y-2.4275 Z.4362
N1350 X-.3876 Y-2.3976 Z.4311
N1360 X-.691 Y-2.3284 Z.426
N1370 X-.9831 Y-2.2209 Z.4209
N1380 X-1.259 Y-2.0769 Z.4158
N1390 X-1.5143 Y-1.8989 Z.4107
N1400 X-1.7447 Y-1.6896 Z.4056
N1410 X-1.9464 Y-1.4527 Z.4005
N1420 X-2.1162 Y-1.1918 Z.3954
N1430 X-2.2512 Y-.9114 Z.3903
N1440 X-2.3493 Y-.6161 Z.3852
N1450 X-2.4088 Y-.3106 Z.3801
N1460 X-2.4287 Y0. Z.375
N1470 X-2.4088 Y.3106 Z.3699
N1480 X-2.3493 Y.6161 Z.3648
N1490 X-2.2512 Y.9114 Z.3597
N1500 X-2.1162 Y1.1918 Z.3546
N1510 X-1.9464 Y1.4527 Z.3495
N1520 X-1.7447 Y1.6896 Z.3444
N1530 X-1.5143 Y1.8989 Z.3393
N1540 X-1.259 Y2.0769 Z.3342
N1550 X-.9831 Y2.2209 Z.3291
N1560 X-.691 Y2.3284 Z.324
N1570 X-.3876 Y2.3976 Z.3189
N1580 X-.0778 Y2.4275 Z.3138
N1590 X.2332 Y2.4175 Z.3087
N1600 X.5404 Y2.3679 Z.3036
N1610 X.8388 Y2.2793 Z.2985
N1620 X1.1234 Y2.1533 Z.2934
N1630 X1.3895 Y1.992 Z.2883
N1640 X1.6329 Y1.798 Z.2832
N1650 X1.8494 Y1.5744 Z.2781
N1660 X2.0355 Y1.325 Z.273
N1670 X2.1882 Y1.0538 Z.2679
N1680 X2.305 Y.7653 Z.2628
N1690 X2.384 Y.4643 Z.2577
N1700 X2.4238 Y.1556 Z.2526
N1710 Y-.1556 Z.2474
N1720 X2.384 Y-.4643 Z.2423
N1730 X2.305 Y-.7653 Z.2372
N1740 X2.1882 Y-1.0538 Z.2321
N1750 X2.0355 Y-1.325 Z.227
N1760 X1.8494 Y-1.5744 Z.2219
N1770 X1.6329 Y-1.798 Z.2168
N1780 X1.3895 Y-1.992 Z.2117
N1790 X1.1234 Y-2.1533 Z.2066
N1800 X.8388 Y-2.2793 Z.2015
N1810 X.5404 Y-2.3679 Z.1964
N1820 X.2332 Y-2.4175 Z.1913
N1830 X-.0778 Y-2.4275 Z.1862
N1840 X-.3876 Y-2.3976 Z.1811
N1850 X-.691 Y-2.3284 Z.176
N1860 X-.9831 Y-2.2209 Z.1709
N1870 X-1.259 Y-2.0769 Z.1658
N1880 X-1.5143 Y-1.8989 Z.1607
N1890 X-1.7447 Y-1.6896 Z.1556
N1900 X-1.9464 Y-1.4527 Z.1505
N1910 X-2.1162 Y-1.1918 Z.1454
N1920 X-2.2512 Y-.9114 Z.1403
N1930 X-2.3493 Y-.6161 Z.1352
N1940 X-2.4088 Y-.3106 Z.1301
N1950 X-2.4287 Y0. Z.125
N1960 X-2.4096 Y.3044 Z.12
N1970 X-2.3524 Y.604 Z.115
N1980 X-2.2582 Y.8941 Z.11
N1990 X-2.1283 Y1.1701 Z.105
N2000 X-1.9649 Y1.4276 Z.1
N2010 X-1.7705 Y1.6626 Z.095
N2020 X-1.5481 Y1.8714 Z.09
N2030 X-1.3014 Y2.0507 Z.085
N2040 X-1.0341 Y2.1976 Z.08
N2050 X-.7505 Y2.3099 Z.075
N2060 X-.4551 Y2.3857 Z.07
N2070 X-.1525 Y2.424 Z.065
N2080 X.1525 Z.06
N2090 X.4551 Y2.3857 Z.055
N2100 X.7505 Y2.3099 Z.05
N2110 X1.0341 Y2.1976 Z.045
N2120 X1.3014 Y2.0507 Z.04
N2130 X1.5481 Y1.8714 Z.035
N2140 X1.7705 Y1.6626 Z.03
N2150 X1.9649 Y1.4276 Z.025
N2160 X2.1283 Y1.1701 Z.02
N2170 X2.2582 Y.8941 Z.015
N2180 X2.3524 Y.604 Z.01
N2190 X2.4096 Y.3044 Z.005
N2200 X2.4287 Y0. Z0.
;N2210 G2 X0. Y-2.4287 I-2.4287 J0.
;N2220 X-2.4287 Y0. I0. J2.4287
;N2230 X0. Y2.4287 I2.4287 J0.
;N2240 X2.4287 Y0. I0. J-2.4287
N2250 G1 X2.6157
N2260 Z.2
N2270 G0 Z1.825
N2280 X-2.4238
N2290 G1 Z1.625 ;F6.42
N2300 X-2.4039 Y.3099 Z1.6199
N2310 X-2.3445 Y.6148 Z1.6148
N2320 X-2.2466 Y.9096 Z1.6097
N2330 X-2.1119 Y1.1894 Z1.6046
N2340 X-1.9424 Y1.4497 Z1.5995
N2350 X-1.7411 Y1.6862 Z1.5944
N2360 X-1.5112 Y1.895 Z1.5893
N2370 X-1.2565 Y2.0727 Z1.5842
N2380 X-.9811 Y2.2163 Z1.5791
N2390 X-.6896 Y2.3236 Z1.574
N2400 X-.3868 Y2.3927 Z1.5689
N2410 X-.0777 Y2.4225 Z1.5638
N2420 X.2327 Y2.4126 Z1.5587
N2430 X.5393 Y2.363 Z1.5536
N2440 X.8371 Y2.2746 Z1.5485
N2450 X1.1211 Y2.1489 Z1.5434
N2460 X1.3867 Y1.9879 Z1.5383
N2470 X1.6295 Y1.7942 Z1.5332
N2480 X1.8456 Y1.5711 Z1.5281
N2490 X2.0313 Y1.3222 Z1.523
N2500 X2.1837 Y1.0516 Z1.5179
N2510 X2.3003 Y.7637 Z1.5128
N2520 X2.3791 Y.4633 Z1.5077
N2530 X2.4188 Y.1553 Z1.5026
N2540 Y-.1553 Z1.4974
N2550 X2.3791 Y-.4633 Z1.4923
N2560 X2.3003 Y-.7637 Z1.4872
N2570 X2.1837 Y-1.0516 Z1.4821
N2580 X2.0313 Y-1.3222 Z1.477
N2590 X1.8456 Y-1.5711 Z1.4719
N2600 X1.6295 Y-1.7942 Z1.4668
N2610 X1.3867 Y-1.9879 Z1.4617
N2620 X1.1211 Y-2.1489 Z1.4566
N2630 X.8371 Y-2.2746 Z1.4515
N2640 X.5393 Y-2.363 Z1.4464
N2650 X.2327 Y-2.4126 Z1.4413
N2660 X-.0777 Y-2.4225 Z1.4362
N2670 X-.3868 Y-2.3927 Z1.4311
N2680 X-.6896 Y-2.3236 Z1.426
N2690 X-.9811 Y-2.2163 Z1.4209
N2700 X-1.2565 Y-2.0727 Z1.4158
N2710 X-1.5112 Y-1.895 Z1.4107
N2720 X-1.7411 Y-1.6862 Z1.4056
N2730 X-1.9424 Y-1.4497 Z1.4005
N2740 X-2.1119 Y-1.1894 Z1.3954
N2750 X-2.2466 Y-.9096 Z1.3903
N2760 X-2.3445 Y-.6148 Z1.3852
N2770 X-2.4039 Y-.3099 Z1.3801
N2780 X-2.4238 Y0. Z1.375
N2790 X-2.4039 Y.3099 Z1.3699
N2800 X-2.3445 Y.6148 Z1.3648
N2810 X-2.2466 Y.9096 Z1.3597
N2820 X-2.1119 Y1.1894 Z1.3546
N2830 X-1.9424 Y1.4497 Z1.3495
N2840 X-1.7411 Y1.6862 Z1.3444
N2850 X-1.5112 Y1.895 Z1.3393
N2860 X-1.2565 Y2.0727 Z1.3342
N2870 X-.9811 Y2.2163 Z1.3291
N2880 X-.6896 Y2.3236 Z1.324
N2890 X-.3868 Y2.3927 Z1.3189
N2900 X-.0777 Y2.4225 Z1.3138
N2910 X.2327 Y2.4126 Z1.3087
N2920 X.5393 Y2.363 Z1.3036
N2930 X.8371 Y2.2746 Z1.2985
N2940 X1.1211 Y2.1489 Z1.2934
N2950 X1.3867 Y1.9879 Z1.2883
N2960 X1.6295 Y1.7942 Z1.2832
N2970 X1.8456 Y1.5711 Z1.2781
N2980 X2.0313 Y1.3222 Z1.273
N2990 X2.1837 Y1.0516 Z1.2679
N3000 X2.3003 Y.7637 Z1.2628
N3010 X2.3791 Y.4633 Z1.2577
N3020 X2.4188 Y.1553 Z1.2526
N3030 Y-.1553 Z1.2474
N3040 X2.3791 Y-.4633 Z1.2423
N3050 X2.3003 Y-.7637 Z1.2372
N3060 X2.1837 Y-1.0516 Z1.2321
N3070 X2.0313 Y-1.3222 Z1.227
N3080 X1.8456 Y-1.5711 Z1.2219
N3090 X1.6295 Y-1.7942 Z1.2168
N3100 X1.3867 Y-1.9879 Z1.2117
N3110 X1.1211 Y-2.1489 Z1.2066
N3120 X.8371 Y-2.2746 Z1.2015
N3130 X.5393 Y-2.363 Z1.1964
N3140 X.2327 Y-2.4126 Z1.1913
N3150 X-.0777 Y-2.4225 Z1.1862
N3160 X-.3868 Y-2.3927 Z1.1811
N3170 X-.6896 Y-2.3236 Z1.176
N3180 X-.9811 Y-2.2163 Z1.1709
N3190 X-1.2565 Y-2.0727 Z1.1658
N3200 X-1.5112 Y-1.895 Z1.1607
N3210 X-1.7411 Y-1.6862 Z1.1556
N3220 X-1.9424 Y-1.4497 Z1.1505
N3230 X-2.1119 Y-1.1894 Z1.1454
N3240 X-2.2466 Y-.9096 Z1.1403
N3250 X-2.3445 Y-.6148 Z1.1352
N3260 X-2.4039 Y-.3099 Z1.1301
N3270 X-2.4238 Y0. Z1.125
N3280 X-2.4039 Y.3099 Z1.1199
N3290 X-2.3445 Y.6148 Z1.1148
N3300 X-2.2466 Y.9096 Z1.1097
N3310 X-2.1119 Y1.1894 Z1.1046
N3320 X-1.9424 Y1.4497 Z1.0995
N3330 X-1.7411 Y1.6862 Z1.0944
N3340 X-1.5112 Y1.895 Z1.0893
N3350 X-1.2565 Y2.0727 Z1.0842
N3360 X-.9811 Y2.2163 Z1.0791
N3370 X-.6896 Y2.3236 Z1.074
N3380 X-.3868 Y2.3927 Z1.0689
N3390 X-.0777 Y2.4225 Z1.0638
N3400 X.2327 Y2.4126 Z1.0587
N3410 X.5393 Y2.363 Z1.0536
N3420 X.8371 Y2.2746 Z1.0485
N3430 X1.1211 Y2.1489 Z1.0434
N3440 X1.3867 Y1.9879 Z1.0383
N3450 X1.6295 Y1.7942 Z1.0332
N3460 X1.8456 Y1.5711 Z1.0281
N3470 X2.0313 Y1.3222 Z1.023
N3480 X2.1837 Y1.0516 Z1.0179
N3490 X2.3003 Y.7637 Z1.0128
N3500 X2.3791 Y.4633 Z1.0077
N3510 X2.4188 Y.1553 Z1.0026
N3520 Y-.1553 Z.9974
N3530 X2.3791 Y-.4633 Z.9923
N3540 X2.3003 Y-.7637 Z.9872
N3550 X2.1837 Y-1.0516 Z.9821
N3560 X2.0313 Y-1.3222 Z.977
N3570 X1.8456 Y-1.5711 Z.9719
N3580 X1.6295 Y-1.7942 Z.9668
N3590 X1.3867 Y-1.9879 Z.9617
N3600 X1.1211 Y-2.1489 Z.9566
N3610 X.8371 Y-2.2746 Z.9515
N3620 X.5393 Y-2.363 Z.9464
N3630 X.2327 Y-2.4126 Z.9413
N3640 X-.0777 Y-2.4225 Z.9362
N3650 X-.3868 Y-2.3927 Z.9311
N3660 X-.6896 Y-2.3236 Z.926
N3670 X-.9811 Y-2.2163 Z.9209
N3680 X-1.2565 Y-2.0727 Z.9158
N3690 X-1.5112 Y-1.895 Z.9107
N3700 X-1.7411 Y-1.6862 Z.9056
N3710 X-1.9424 Y-1.4497 Z.9005
N3720 X-2.1119 Y-1.1894 Z.8954
N3730 X-2.2466 Y-.9096 Z.8903
N3740 X-2.3445 Y-.6148 Z.8852
N3750 X-2.4039 Y-.3099 Z.8801
N3760 X-2.4238 Y0. Z.875
N3770 X-2.4039 Y.3099 Z.8699
N3780 X-2.3445 Y.6148 Z.8648
N3790 X-2.2466 Y.9096 Z.8597
N3800 X-2.1119 Y1.1894 Z.8546
N3810 X-1.9424 Y1.4497 Z.8495
N3820 X-1.7411 Y1.6862 Z.8444
N3830 X-1.5112 Y1.895 Z.8393
N3840 X-1.2565 Y2.0727 Z.8342
N3850 X-.9811 Y2.2163 Z.8291
N3860 X-.6896 Y2.3236 Z.824
N3870 X-.3868 Y2.3927 Z.8189
N3880 X-.0777 Y2.4225 Z.8138
N3890 X.2327 Y2.4126 Z.8087
N3900 X.5393 Y2.363 Z.8036
N3910 X.8371 Y2.2746 Z.7985
N3920 X1.1211 Y2.1489 Z.7934
N3930 X1.3867 Y1.9879 Z.7883
N3940 X1.6295 Y1.7942 Z.7832
N3950 X1.8456 Y1.5711 Z.7781
N3960 X2.0313 Y1.3222 Z.773
N3970 X2.1837 Y1.0516 Z.7679
N3980 X2.3003 Y.7637 Z.7628
N3990 X2.3791 Y.4633 Z.7577
N4000 X2.4188 Y.1553 Z.7526
N4010 Y-.1553 Z.7474
N4020 X2.3791 Y-.4633 Z.7423
N4030 X2.3003 Y-.7637 Z.7372
N4040 X2.1837 Y-1.0516 Z.7321
N4050 X2.0313 Y-1.3222 Z.727
N4060 X1.8456 Y-1.5711 Z.7219
N4070 X1.6295 Y-1.7942 Z.7168
N4080 X1.3867 Y-1.9879 Z.7117
N4090 X1.1211 Y-2.1489 Z.7066
N4100 X.8371 Y-2.2746 Z.7015
N4110 X.5393 Y-2.363 Z.6964
N4120 X.2327 Y-2.4126 Z.6913
N4130 X-.0777 Y-2.4225 Z.6862
N4140 X-.3868 Y-2.3927 Z.6811
N4150 X-.6896 Y-2.3236 Z.676
N4160 X-.9811 Y-2.2163 Z.6709
N4170 X-1.2565 Y-2.0727 Z.6658
N4180 X-1.5112 Y-1.895 Z.6607
N4190 X-1.7411 Y-1.6862 Z.6556
N4200 X-1.9424 Y-1.4497 Z.6505
N4210 X-2.1119 Y-1.1894 Z.6454
N4220 X-2.2466 Y-.9096 Z.6403
N4230 X-2.3445 Y-.6148 Z.6352
N4240 X-2.4039 Y-.3099 Z.6301
N4250 X-2.4238 Y0. Z.625
N4260 X-2.4039 Y.3099 Z.6199
N4270 X-2.3445 Y.6148 Z.6148
N4280 X-2.2466 Y.9096 Z.6097
N4290 X-2.1119 Y1.1894 Z.6046
N4300 X-1.9424 Y1.4497 Z.5995
N4310 X-1.7411 Y1.6862 Z.5944
N4320 X-1.5112 Y1.895 Z.5893
N4330 X-1.2565 Y2.0727 Z.5842
N4340 X-.9811 Y2.2163 Z.5791
N4350 X-.6896 Y2.3236 Z.574
N4360 X-.3868 Y2.3927 Z.5689
N4370 X-.0777 Y2.4225 Z.5638
N4380 X.2327 Y2.4126 Z.5587
N4390 X.5393 Y2.363 Z.5536
N4400 X.8371 Y2.2746 Z.5485
N4410 X1.1211 Y2.1489 Z.5434
N4420 X1.3867 Y1.9879 Z.5383
N4430 X1.6295 Y1.7942 Z.5332
N4440 X1.8456 Y1.5711 Z.5281
N4450 X2.0313 Y1.3222 Z.523
N4460 X2.1837 Y1.0516 Z.5179
N4470 X2.3003 Y.7637 Z.5128
N4480 X2.3791 Y.4633 Z.5077
N4490 X2.4188 Y.1553 Z.5026
N4500 Y-.1553 Z.4974
N4510 X2.3791 Y-.4633 Z.4923
N4520 X2.3003 Y-.7637 Z.4872
N4530 X2.1837 Y-1.0516 Z.4821
N4540 X2.0313 Y-1.3222 Z.477
N4550 X1.8456 Y-1.5711 Z.4719
N4560 X1.6295 Y-1.7942 Z.4668
N4570 X1.3867 Y-1.9879 Z.4617
N4580 X1.1211 Y-2.1489 Z.4566
N4590 X.8371 Y-2.2746 Z.4515
N4600 X.5393 Y-2.363 Z.4464
N4610 X.2327 Y-2.4126 Z.4413
N4620 X-.0777 Y-2.4225 Z.4362
N4630 X-.3868 Y-2.3927 Z.4311
N4640 X-.6896 Y-2.3236 Z.426
N4650 X-.9811 Y-2.2163 Z.4209
N4660 X-1.2565 Y-2.0727 Z.4158
N4670 X-1.5112 Y-1.895 Z.4107
N4680 X-1.7411 Y-1.6862 Z.4056
N4690 X-1.9424 Y-1.4497 Z.4005
N4700 X-2.1119 Y-1.1894 Z.3954
N4710 X-2.2466 Y-.9096 Z.3903
N4720 X-2.3445 Y-.6148 Z.3852
N4730 X-2.4039 Y-.3099 Z.3801
N4740 X-2.4238 Y0. Z.375
N4750 X-2.4039 Y.3099 Z.3699
N4760 X-2.3445 Y.6148 Z.3648
N4770 X-2.2466 Y.9096 Z.3597
N4780 X-2.1119 Y1.1894 Z.3546
N4790 X-1.9424 Y1.4497 Z.3495
N4800 X-1.7411 Y1.6862 Z.3444
N4810 X-1.5112 Y1.895 Z.3393
N4820 X-1.2565 Y2.0727 Z.3342
N4830 X-.9811 Y2.2163 Z.3291
N4840 X-.6896 Y2.3236 Z.324
N4850 X-.3868 Y2.3927 Z.3189
N4860 X-.0777 Y2.4225 Z.3138
N4870 X.2327 Y2.4126 Z.3087
N4880 X.5393 Y2.363 Z.3036
N4890 X.8371 Y2.2746 Z.2985
N4900 X1.1211 Y2.1489 Z.2934
N4910 X1.3867 Y1.9879 Z.2883
N4920 X1.6295 Y1.7942 Z.2832
N4930 X1.8456 Y1.5711 Z.2781
N4940 X2.0313 Y1.3222 Z.273
N4950 X2.1837 Y1.0516 Z.2679
N4960 X2.3003 Y.7637 Z.2628
N4970 X2.3791 Y.4633 Z.2577
N4980 X2.4188 Y.1553 Z.2526
N4990 Y-.1553 Z.2474
N5000 X2.3791 Y-.4633 Z.2423
N5010 X2.3003 Y-.7637 Z.2372
N5020 X2.1837 Y-1.0516 Z.2321
N5030 X2.0313 Y-1.3222 Z.227
N5040 X1.8456 Y-1.5711 Z.2219
N5050 X1.6295 Y-1.7942 Z.2168
N5060 X1.3867 Y-1.9879 Z.2117
N5070 X1.1211 Y-2.1489 Z.2066
N5080 X.8371 Y-2.2746 Z.2015
N5090 X.5393 Y-2.363 Z.1964
N5100 X.2327 Y-2.4126 Z.1913
N5110 X-.0777 Y-2.4225 Z.1862
N5120 X-.3868 Y-2.3927 Z.1811
N5130 X-.6896 Y-2.3236 Z.176
N5140 X-.9811 Y-2.2163 Z.1709
N5150 X-1.2565 Y-2.0727 Z.1658
N5160 X-1.5112 Y-1.895 Z.1607
N5170 X-1.7411 Y-1.6862 Z.1556
N5180 X-1.9424 Y-1.4497 Z.1505
N5190 X-2.1119 Y-1.1894 Z.1454
N5200 X-2.2466 Y-.9096 Z.1403
N5210 X-2.3445 Y-.6148 Z.1352
N5220 X-2.4039 Y-.3099 Z.1301
N5230 X-2.4238 Y0. Z.125
N5240 X-2.4046 Y.3038 Z.12
N5250 X-2.3476 Y.6028 Z.115
N5260 X-2.2535 Y.8922 Z.11
N5270 X-2.1239 Y1.1677 Z.105
N5280 X-1.9609 Y1.4246 Z.1
N5290 X-1.7668 Y1.6592 Z.095
N5300 X-1.545 Y1.8675 Z.09
N5310 X-1.2987 Y2.0464 Z.085
N5320 X-1.032 Y2.1931 Z.08
N5330 X-.749 Y2.3051 Z.075
N5340 X-.4542 Y2.3808 Z.07
N5350 X-.1522 Y2.419 Z.065
N5360 X.1522 Z.06
N5370 X.4542 Y2.3808 Z.055
N5380 X.749 Y2.3051 Z.05
N5390 X1.032 Y2.1931 Z.045
N5400 X1.2987 Y2.0464 Z.04
N5410 X1.545 Y1.8675 Z.035
N5420 X1.7668 Y1.6592 Z.03
N5430 X1.9609 Y1.4246 Z.025
N5440 X2.1239 Y1.1677 Z.02
N5450 X2.2535 Y.8922 Z.015
N5460 X2.3476 Y.6028 Z.01
N5470 X2.4046 Y.3038 Z.005
N5480 X2.4238 Y0. Z0.
;N5490 G2 X0. Y-2.4238 I-2.4238 J0.
;N5500 X-2.4238 Y0. I0. J2.4238
;N5510 X0. Y2.4238 I2.4238 J0.
;N5520 X2.4238 Y0. I0. J-2.4238
N5530 G1 X2.6107
N5540 Z.2
N5550 G0 Z1.825
N5560 X-2.4188
N5570 G1 Z1.625 ;F6.42
N5580 X-2.3989 Y.3093 Z1.6199
N5590 X-2.3396 Y.6135 Z1.6148
N5600 X-2.242 Y.9077 Z1.6097
N5610 X-2.1075 Y1.1869 Z1.6046
N5620 X-1.9384 Y1.4467 Z1.5995
N5630 X-1.7375 Y1.6827 Z1.5944
N5640 X-1.5081 Y1.8911 Z1.5893
N5650 X-1.2539 Y2.0684 Z1.5842
N5660 X-.9791 Y2.2117 Z1.5791
N5670 X-.6882 Y2.3188 Z1.574
N5680 X-.386 Y2.3877 Z1.5689
N5690 X-.0775 Y2.4175 Z1.5638
N5700 X.2323 Y2.4076 Z1.5587
N5710 X.5382 Y2.3581 Z1.5536
N5720 X.8354 Y2.2699 Z1.5485
N5730 X1.1188 Y2.1445 Z1.5434
N5740 X1.3838 Y1.9838 Z1.5383
N5750 X1.6261 Y1.7905 Z1.5332
N5760 X1.8417 Y1.5679 Z1.5281
N5770 X2.0271 Y1.3195 Z1.523
N5780 X2.1792 Y1.0495 Z1.5179
N5790 X2.2955 Y.7622 Z1.5128
N5800 X2.3741 Y.4624 Z1.5077
N5810 X2.4138 Y.155 Z1.5026
N5820 Y-.155 Z1.4974
N5830 X2.3741 Y-.4624 Z1.4923
N5840 X2.2955 Y-.7622 Z1.4872
N5850 X2.1792 Y-1.0495 Z1.4821
N5860 X2.0271 Y-1.3195 Z1.477
N5870 X1.8417 Y-1.5679 Z1.4719
N5880 X1.6261 Y-1.7905 Z1.4668
N5890 X1.3838 Y-1.9838 Z1.4617
N5900 X1.1188 Y-2.1445 Z1.4566
N5910 X.8354 Y-2.2699 Z1.4515
N5920 X.5382 Y-2.3581 Z1.4464
N5930 X.2323 Y-2.4076 Z1.4413
N5940 X-.0775 Y-2.4175 Z1.4362
N5950 X-.386 Y-2.3877 Z1.4311
N5960 X-.6882 Y-2.3188 Z1.426
N5970 X-.9791 Y-2.2117 Z1.4209
N5980 X-1.2539 Y-2.0684 Z1.4158
N5990 X-1.5081 Y-1.8911 Z1.4107
N6000 X-1.7375 Y-1.6827 Z1.4056
N6010 X-1.9384 Y-1.4467 Z1.4005
N6020 X-2.1075 Y-1.1869 Z1.3954
N6030 X-2.242 Y-.9077 Z1.3903
N6040 X-2.3396 Y-.6135 Z1.3852
N6050 X-2.3989 Y-.3093 Z1.3801
N6060 X-2.4188 Y0. Z1.375
N6070 X-2.3989 Y.3093 Z1.3699
N6080 X-2.3396 Y.6135 Z1.3648
N6090 X-2.242 Y.9077 Z1.3597
N6100 X-2.1075 Y1.1869 Z1.3546
N6110 X-1.9384 Y1.4467 Z1.3495
N6120 X-1.7375 Y1.6827 Z1.3444
N6130 X-1.5081 Y1.8911 Z1.3393
N6140 X-1.2539 Y2.0684 Z1.3342
N6150 X-.9791 Y2.2117 Z1.3291
N6160 X-.6882 Y2.3188 Z1.324
N6170 X-.386 Y2.3877 Z1.3189
N6180 X-.0775 Y2.4175 Z1.3138
N6190 X.2323 Y2.4076 Z1.3087
N6200 X.5382 Y2.3581 Z1.3036
N6210 X.8354 Y2.2699 Z1.2985
N6220 X1.1188 Y2.1445 Z1.2934
N6230 X1.3838 Y1.9838 Z1.2883
N6240 X1.6261 Y1.7905 Z1.2832
N6250 X1.8417 Y1.5679 Z1.2781
N6260 X2.0271 Y1.3195 Z1.273
N6270 X2.1792 Y1.0495 Z1.2679
N6280 X2.2955 Y.7622 Z1.2628
N6290 X2.3741 Y.4624 Z1.2577
N6300 X2.4138 Y.155 Z1.2526
N6310 Y-.155 Z1.2474
N6320 X2.3741 Y-.4624 Z1.2423
N6330 X2.2955 Y-.7622 Z1.2372
N6340 X2.1792 Y-1.0495 Z1.2321
N6350 X2.0271 Y-1.3195 Z1.227
N6360 X1.8417 Y-1.5679 Z1.2219
N6370 X1.6261 Y-1.7905 Z1.2168
N6380 X1.3838 Y-1.9838 Z1.2117
N6390 X1.1188 Y-2.1445 Z1.2066
N6400 X.8354 Y-2.2699 Z1.2015
N6410 X.5382 Y-2.3581 Z1.1964
N6420 X.2323 Y-2.4076 Z1.1913
N6430 X-.0775 Y-2.4175 Z1.1862
N6440 X-.386 Y-2.3877 Z1.1811
N6450 X-.6882 Y-2.3188 Z1.176
N6460 X-.9791 Y-2.2117 Z1.1709
N6470 X-1.2539 Y-2.0684 Z1.1658
N6480 X-1.5081 Y-1.8911 Z1.1607
N6490 X-1.7375 Y-1.6827 Z1.1556
N6500 X-1.9384 Y-1.4467 Z1.1505
N6510 X-2.1075 Y-1.1869 Z1.1454
N6520 X-2.242 Y-.9077 Z1.1403
N6530 X-2.3396 Y-.6135 Z1.1352
N6540 X-2.3989 Y-.3093 Z1.1301
N6550 X-2.4188 Y0. Z1.125
N6560 X-2.3989 Y.3093 Z1.1199
N6570 X-2.3396 Y.6135 Z1.1148
N6580 X-2.242 Y.9077 Z1.1097
N6590 X-2.1075 Y1.1869 Z1.1046
N6600 X-1.9384 Y1.4467 Z1.0995
N6610 X-1.7375 Y1.6827 Z1.0944
N6620 X-1.5081 Y1.8911 Z1.0893
N6630 X-1.2539 Y2.0684 Z1.0842
N6640 X-.9791 Y2.2117 Z1.0791
N6650 X-.6882 Y2.3188 Z1.074
N6660 X-.386 Y2.3877 Z1.0689
N6670 X-.0775 Y2.4175 Z1.0638
N6680 X.2323 Y2.4076 Z1.0587
N6690 X.5382 Y2.3581 Z1.0536
N6700 X.8354 Y2.2699 Z1.0485
N6710 X1.1188 Y2.1445 Z1.0434
N6720 X1.3838 Y1.9838 Z1.0383
N6730 X1.6261 Y1.7905 Z1.0332
N6740 X1.8417 Y1.5679 Z1.0281
N6750 X2.0271 Y1.3195 Z1.023
N6760 X2.1792 Y1.0495 Z1.0179
N6770 X2.2955 Y.7622 Z1.0128
N6780 X2.3741 Y.4624 Z1.0077
N6790 X2.4138 Y.155 Z1.0026
N6800 Y-.155 Z.9974
N6810 X2.3741 Y-.4624 Z.9923
N6820 X2.2955 Y-.7622 Z.9872
N6830 X2.1792 Y-1.0495 Z.9821
N6840 X2.0271 Y-1.3195 Z.977
N6850 X1.8417 Y-1.5679 Z.9719
N6860 X1.6261 Y-1.7905 Z.9668
N6870 X1.3838 Y-1.9838 Z.9617
N6880 X1.1188 Y-2.1445 Z.9566
N6890 X.8354 Y-2.2699 Z.9515
N6900 X.5382 Y-2.3581 Z.9464
N6910 X.2323 Y-2.4076 Z.9413
N6920 X-.0775 Y-2.4175 Z.9362
N6930 X-.386 Y-2.3877 Z.9311
N6940 X-.6882 Y-2.3188 Z.926
N6950 X-.9791 Y-2.2117 Z.9209
N6960 X-1.2539 Y-2.0684 Z.9158
N6970 X-1.5081 Y-1.8911 Z.9107
N6980 X-1.7375 Y-1.6827 Z.9056
N6990 X-1.9384 Y-1.4467 Z.9005
N7000 X-2.1075 Y-1.1869 Z.8954
N7010 X-2.242 Y-.9077 Z.8903
N7020 X-2.3396 Y-.6135 Z.8852
N7030 X-2.3989 Y-.3093 Z.8801
N7040 X-2.4188 Y0. Z.875
N7050 X-2.3989 Y.3093 Z.8699
N7060 X-2.3396 Y.6135 Z.8648
N7070 X-2.242 Y.9077 Z.8597
N7080 X-2.1075 Y1.1869 Z.8546
N7090 X-1.9384 Y1.4467 Z.8495
N7100 X-1.7375 Y1.6827 Z.8444
N7110 X-1.5081 Y1.8911 Z.8393
N7120 X-1.2539 Y2.0684 Z.8342
N7130 X-.9791 Y2.2117 Z.8291
N7140 X-.6882 Y2.3188 Z.824
N7150 X-.386 Y2.3877 Z.8189
N7160 X-.0775 Y2.4175 Z.8138
N7170 X.2323 Y2.4076 Z.8087
N7180 X.5382 Y2.3581 Z.8036
N7190 X.8354 Y2.2699 Z.7985
N7200 X1.1188 Y2.1445 Z.7934
N7210 X1.3838 Y1.9838 Z.7883
N7220 X1.6261 Y1.7905 Z.7832
N7230 X1.8417 Y1.5679 Z.7781
N7240 X2.0271 Y1.3195 Z.773
N7250 X2.1792 Y1.0495 Z.7679
N7260 X2.2955 Y.7622 Z.7628
N7270 X2.3741 Y.4624 Z.7577
N7280 X2.4138 Y.155 Z.7526
N7290 Y-.155 Z.7474
N7300 X2.3741 Y-.4624 Z.7423
N7310 X2.2955 Y-.7622 Z.7372
N7320 X2.1792 Y-1.0495 Z.7321
N7330 X2.0271 Y-1.3195 Z.727
N7340 X1.8417 Y-1.5679 Z.7219
N7350 X1.6261 Y-1.7905 Z.7168
N7360 X1.3838 Y-1.9838 Z.7117
N7370 X1.1188 Y-2.1445 Z.7066
N7380 X.8354 Y-2.2699 Z.7015
N7390 X.5382 Y-2.3581 Z.6964
N7400 X.2323 Y-2.4076 Z.6913
N7410 X-.0775 Y-2.4175 Z.6862
N7420 X-.386 Y-2.3877 Z.6811
N7430 X-.6882 Y-2.3188 Z.676
N7440 X-.9791 Y-2.2117 Z.6709
N7450 X-1.2539 Y-2.0684 Z.6658
N7460 X-1.5081 Y-1.8911 Z.6607
N7470 X-1.7375 Y-1.6827 Z.6556
N7480 X-1.9384 Y-1.4467 Z.6505
N7490 X-2.1075 Y-1.1869 Z.6454
N7500 X-2.242 Y-.9077 Z.6403
N7510 X-2.3396 Y-.6135 Z.6352
N7520 X-2.3989 Y-.3093 Z.6301
N7530 X-2.4188 Y0. Z.625
N7540 X-2.3989 Y.3093 Z.6199
N7550 X-2.3396 Y.6135 Z.6148
N7560 X-2.242 Y.9077 Z.6097
N7570 X-2.1075 Y1.1869 Z.6046
N7580 X-1.9384 Y1.4467 Z.5995
N7590 X-1.7375 Y1.6827 Z.5944
N7600 X-1.5081 Y1.8911 Z.5893
N7610 X-1.2539 Y2.0684 Z.5842
N7620 X-.9791 Y2.2117 Z.5791
N7630 X-.6882 Y2.3188 Z.574
N7640 X-.386 Y2.3877 Z.5689
N7650 X-.0775 Y2.4175 Z.5638
N7660 X.2323 Y2.4076 Z.5587
N7670 X.5382 Y2.3581 Z.5536
N7680 X.8354 Y2.2699 Z.5485
N7690 X1.1188 Y2.1445 Z.5434
N7700 X1.3838 Y1.9838 Z.5383
N7710 X1.6261 Y1.7905 Z.5332
N7720 X1.8417 Y1.5679 Z.5281
N7730 X2.0271 Y1.3195 Z.523
N7740 X2.1792 Y1.0495 Z.5179
N7750 X2.2955 Y.7622 Z.5128
N7760 X2.3741 Y.4624 Z.5077
N7770 X2.4138 Y.155 Z.5026
N7780 Y-.155 Z.4974
N7790 X2.3741 Y-.4624 Z.4923
N7800 X2.2955 Y-.7622 Z.4872
N7810 X2.1792 Y-1.0495 Z.4821
N7820 X2.0271 Y-1.3195 Z.477
N7830 X1.8417 Y-1.5679 Z.4719
N7840 X1.6261 Y-1.7905 Z.4668
N7850 X1.3838 Y-1.9838 Z.4617
N7860 X1.1188 Y-2.1445 Z.4566
N7870 X.8354 Y-2.2699 Z.4515
N7880 X.5382 Y-2.3581 Z.4464
N7890 X.2323 Y-2.4076 Z.4413
N7900 X-.0775 Y-2.4175 Z.4362
N7910 X-.386 Y-2.3877 Z.4311
N7920 X-.6882 Y-2.3188 Z.426
N7930 X-.9791 Y-2.2117 Z.4209
N7940 X-1.2539 Y-2.0684 Z.4158
N7950 X-1.5081 Y-1.8911 Z.4107
N7960 X-1.7375 Y-1.6827 Z.4056
N7970 X-1.9384 Y-1.4467 Z.4005
N7980 X-2.1075 Y-1.1869 Z.3954
N7990 X-2.242 Y-.9077 Z.3903
N8000 X-2.3396 Y-.6135 Z.3852
N8010 X-2.3989 Y-.3093 Z.3801
N8020 X-2.4188 Y0. Z.375
N8030 X-2.3989 Y.3093 Z.3699
N8040 X-2.3396 Y.6135 Z.3648
N8050 X-2.242 Y.9077 Z.3597
N8060 X-2.1075 Y1.1869 Z.3546
N8070 X-1.9384 Y1.4467 Z.3495
N8080 X-1.7375 Y1.6827 Z.3444
N8090 X-1.5081 Y1.8911 Z.3393
N8100 X-1.2539 Y2.0684 Z.3342
N8110 X-.9791 Y2.2117 Z.3291
N8120 X-.6882 Y2.3188 Z.324
N8130 X-.386 Y2.3877 Z.3189
N8140 X-.0775 Y2.4175 Z.3138
N8150 X.2323 Y2.4076 Z.3087
N8160 X.5382 Y2.3581 Z.3036
N8170 X.8354 Y2.2699 Z.2985
N8180 X1.1188 Y2.1445 Z.2934
N8190 X1.3838 Y1.9838 Z.2883
N8200 X1.6261 Y1.7905 Z.2832
N8210 X1.8417 Y1.5679 Z.2781
N8220 X2.0271 Y1.3195 Z.273
N8230 X2.1792 Y1.0495 Z.2679
N8240 X2.2955 Y.7622 Z.2628
N8250 X2.3741 Y.4624 Z.2577
N8260 X2.4138 Y.155 Z.2526
N8270 Y-.155 Z.2474
N8280 X2.3741 Y-.4624 Z.2423
N8290 X2.2955 Y-.7622 Z.2372
N8300 X2.1792 Y-1.0495 Z.2321
N8310 X2.0271 Y-1.3195 Z.227
N8320 X1.8417 Y-1.5679 Z.2219
N8330 X1.6261 Y-1.7905 Z.2168
N8340 X1.3838 Y-1.9838 Z.2117
N8350 X1.1188 Y-2.1445 Z.2066
N8360 X.8354 Y-2.2699 Z.2015
N8370 X.5382 Y-2.3581 Z.1964
N8380 X.2323 Y-2.4076 Z.1913
N8390 X-.0775 Y-2.4175 Z.1862
N8400 X-.386 Y-2.3877 Z.1811
N8410 X-.6882 Y-2.3188 Z.176
N8420 X-.9791 Y-2.2117 Z.1709
N8430 X-1.2539 Y-2.0684 Z.1658
N8440 X-1.5081 Y-1.8911 Z.1607
N8450 X-1.7375 Y-1.6827 Z.1556
N8460 X-1.9384 Y-1.4467 Z.1505
N8470 X-2.1075 Y-1.1869 Z.1454
N8480 X-2.242 Y-.9077 Z.1403
N8490 X-2.3396 Y-.6135 Z.1352
N8500 X-2.3989 Y-.3093 Z.1301
N8510 X-2.4188 Y0. Z.125
N8520 X-2.3997 Y.3031 Z.12
N8530 X-2.3428 Y.6015 Z.115
N8540 X-2.2489 Y.8904 Z.11
N8550 X-2.1196 Y1.1652 Z.105
N8560 X-1.9568 Y1.4217 Z.1
N8570 X-1.7632 Y1.6557 Z.095
N8580 X-1.5418 Y1.8637 Z.09
N8590 X-1.296 Y2.0422 Z.085
N8600 X-1.0299 Y2.1886 Z.08
N8610 X-.7474 Y2.3004 Z.075
N8620 X-.4532 Y2.3759 Z.07
N8630 X-.1519 Y2.414 Z.065
N8640 X.1519 Z.06
N8650 X.4532 Y2.3759 Z.055
N8660 X.7474 Y2.3004 Z.05
N8670 X1.0299 Y2.1886 Z.045
N8680 X1.296 Y2.0422 Z.04
N8690 X1.5418 Y1.8637 Z.035
N8700 X1.7632 Y1.6557 Z.03
N8710 X1.9568 Y1.4217 Z.025
N8720 X2.1196 Y1.1652 Z.02
N8730 X2.2489 Y.8904 Z.015
N8740 X2.3428 Y.6015 Z.01
N8750 X2.3997 Y.3031 Z.005
N8760 X2.4188 Y0. Z0.
;N8770 G2 X0. Y-2.4188 I-2.4188 J0.
;N8780 X-2.4188 Y0. I0. J2.4188
;N8790 X0. Y2.4188 I2.4188 J0.
;N8800 X2.4188 Y0. I0. J-2.4188
N8810 G1 X2.6058
N8820 Z.2
N8830 G0 Z1.825
N8840 X-2.4137
N8850 G1 Z1.625 ;F6.42
N8860 X-2.3939 Y.3087 Z1.6199
N8870 X-2.3348 Y.6123 Z1.6148
N8880 X-2.2373 Y.9058 Z1.6097
N8890 X-2.1031 Y1.1845 Z1.6046
N8900 X-1.9344 Y1.4437 Z1.5995
N8910 X-1.7339 Y1.6792 Z1.5944
N8920 X-1.5049 Y1.8871 Z1.5893
N8930 X-1.2513 Y2.0641 Z1.5842
N8940 X-.977 Y2.2072 Z1.5791
N8950 X-.6868 Y2.314 Z1.574
N8960 X-.3852 Y2.3828 Z1.5689
N8970 X-.0774 Y2.4125 Z1.5638
N8980 X.2318 Y2.4026 Z1.5587
N8990 X.5371 Y2.3532 Z1.5536
N9000 X.8336 Y2.2652 Z1.5485
N9010 X1.1165 Y2.14 Z1.5434
N9020 X1.3809 Y1.9797 Z1.5383
N9030 X1.6228 Y1.7868 Z1.5332
N9040 X1.8379 Y1.5647 Z1.5281
N9050 X2.0229 Y1.3168 Z1.523
N9060 X2.1747 Y1.0473 Z1.5179
N9070 X2.2908 Y.7606 Z1.5128
N9080 X2.3692 Y.4614 Z1.5077
N9090 X2.4088 Y.1546 Z1.5026
N9100 Y-.1546 Z1.4974
N9110 X2.3692 Y-.4614 Z1.4923
N9120 X2.2908 Y-.7606 Z1.4872
N9130 X2.1747 Y-1.0473 Z1.4821
N9140 X2.0229 Y-1.3168 Z1.477
N9150 X1.8379 Y-1.5647 Z1.4719
N9160 X1.6228 Y-1.7868 Z1.4668
N9170 X1.3809 Y-1.9797 Z1.4617
N9180 X1.1165 Y-2.14 Z1.4566
N9190 X.8336 Y-2.2652 Z1.4515
N9200 X.5371 Y-2.3532 Z1.4464
N9210 X.2318 Y-2.4026 Z1.4413
N9220 X-.0774 Y-2.4125 Z1.4362
N9230 X-.3852 Y-2.3828 Z1.4311
N9240 X-.6868 Y-2.314 Z1.426
N9250 X-.977 Y-2.2072 Z1.4209
N9260 X-1.2513 Y-2.0641 Z1.4158
N9270 X-1.5049 Y-1.8871 Z1.4107
N9280 X-1.7339 Y-1.6792 Z1.4056
N9290 X-1.9344 Y-1.4437 Z1.4005
N9300 X-2.1031 Y-1.1845 Z1.3954
N9310 X-2.2373 Y-.9058 Z1.3903
N9320 X-2.3348 Y-.6123 Z1.3852
N9330 X-2.3939 Y-.3087 Z1.3801
N9340 X-2.4137 Y0. Z1.375
N9350 X-2.3939 Y.3087 Z1.3699
N9360 X-2.3348 Y.6123 Z1.3648
N9370 X-2.2373 Y.9058 Z1.3597
N9380 X-2.1031 Y1.1845 Z1.3546
N9390 X-1.9344 Y1.4437 Z1.3495
N9400 X-1.7339 Y1.6792 Z1.3444
N9410 X-1.5049 Y1.8871 Z1.3393
N9420 X-1.2513 Y2.0641 Z1.3342
N9430 X-.977 Y2.2072 Z1.3291
N9440 X-.6868 Y2.314 Z1.324
N9450 X-.3852 Y2.3828 Z1.3189
N9460 X-.0774 Y2.4125 Z1.3138
N9470 X.2318 Y2.4026 Z1.3087
N9480 X.5371 Y2.3532 Z1.3036
N9490 X.8336 Y2.2652 Z1.2985
N9500 X1.1165 Y2.14 Z1.2934
N9510 X1.3809 Y1.9797 Z1.2883
N9520 X1.6228 Y1.7868 Z1.2832
N9530 X1.8379 Y1.5647 Z1.2781
N9540 X2.0229 Y1.3168 Z1.273
N9550 X2.1747 Y1.0473 Z1.2679
N9560 X2.2908 Y.7606 Z1.2628
N9570 X2.3692 Y.4614 Z1.2577
N9580 X2.4088 Y.1546 Z1.2526
N9590 Y-.1546 Z1.2474
N9600 X2.3692 Y-.4614 Z1.2423
N9610 X2.2908 Y-.7606 Z1.2372
N9620 X2.1747 Y-1.0473 Z1.2321
N9630 X2.0229 Y-1.3168 Z1.227
N9640 X1.8379 Y-1.5647 Z1.2219
N9650 X1.6228 Y-1.7868 Z1.2168
N9660 X1.3809 Y-1.9797 Z1.2117
N9670 X1.1165 Y-2.14 Z1.2066
N9680 X.8336 Y-2.2652 Z1.2015
N9690 X.5371 Y-2.3532 Z1.1964
N9700 X.2318 Y-2.4026 Z1.1913
N9710 X-.0774 Y-2.4125 Z1.1862
N9720 X-.3852 Y-2.3828 Z1.1811
N9730 X-.6868 Y-2.314 Z1.176
N9740 X-.977 Y-2.2072 Z1.1709
N9750 X-1.2513 Y-2.0641 Z1.1658
N9760 X-1.5049 Y-1.8871 Z1.1607
N9770 X-1.7339 Y-1.6792 Z1.1556
N9780 X-1.9344 Y-1.4437 Z1.1505
N9790 X-2.1031 Y-1.1845 Z1.1454
N9800 X-2.2373 Y-.9058 Z1.1403
N9810 X-2.3348 Y-.6123 Z1.1352
N9820 X-2.3939 Y-.3087 Z1.1301
N9830 X-2.4137 Y0. Z1.125
N9840 X-2.3939 Y.3087 Z1.1199
N9850 X-2.3348 Y.6123 Z1.1148
N9860 X-2.2373 Y.9058 Z1.1097
N9870 X-2.1031 Y1.1845 Z1.1046
N9880 X-1.9344 Y1.4437 Z1.0995
N9890 X-1.7339 Y1.6792 Z1.0944
N9900 X-1.5049 Y1.8871 Z1.0893
N9910 X-1.2513 Y2.0641 Z1.0842
N9920 X-.977 Y2.2072 Z1.0791
N9930 X-.6868 Y2.314 Z1.074
N9940 X-.3852 Y2.3828 Z1.0689
N9950 X-.0774 Y2.4125 Z1.0638
N9960 X.2318 Y2.4026 Z1.0587
N9970 X.5371 Y2.3532 Z1.0536
N9980 X.8336 Y2.2652 Z1.0485
N9990 X1.1165 Y2.14 Z1.0434
N100 X1.3809 Y1.9797 Z1.0383
N110 X1.6228 Y1.7868 Z1.0332
N120 X1.8379 Y1.5647 Z1.0281
N130 X2.0229 Y1.3168 Z1.023
N140 X2.1747 Y1.0473 Z1.0179
N150 X2.2908 Y.7606 Z1.0128
N160 X2.3692 Y.4614 Z1.0077
N170 X2.4088 Y.1546 Z1.0026
N180 Y-.1546 Z.9974
N190 X2.3692 Y-.4614 Z.9923
N200 X2.2908 Y-.7606 Z.9872
N210 X2.1747 Y-1.0473 Z.9821
N220 X2.0229 Y-1.3168 Z.977
N230 X1.8379 Y-1.5647 Z.9719
N240 X1.6228 Y-1.7868 Z.9668
N250 X1.3809 Y-1.9797 Z.9617
N260 X1.1165 Y-2.14 Z.9566
N270 X.8336 Y-2.2652 Z.9515
N280 X.5371 Y-2.3532 Z.9464
N290 X.2318 Y-2.4026 Z.9413
N300 X-.0774 Y-2.4125 Z.9362
N310 X-.3852 Y-2.3828 Z.9311
N320 X-.6868 Y-2.314 Z.926
N330 X-.977 Y-2.2072 Z.9209
N340 X-1.2513 Y-2.0641 Z.9158
N350 X-1.5049 Y-1.8871 Z.9107
N360 X-1.7339 Y-1.6792 Z.9056
N370 X-1.9344 Y-1.4437 Z.9005
N380 X-2.1031 Y-1.1845 Z.8954
N390 X-2.2373 Y-.9058 Z.8903
N400 X-2.3348 Y-.6123 Z.8852
N410 X-2.3939 Y-.3087 Z.8801
N420 X-2.4137 Y0. Z.875
N430 X-2.3939 Y.3087 Z.8699
N440 X-2.3348 Y.6123 Z.8648
N450 X-2.2373 Y.9058 Z.8597
N460 X-2.1031 Y1.1845 Z.8546
N470 X-1.9344 Y1.4437 Z.8495
N480 X-1.7339 Y1.6792 Z.8444
N490 X-1.5049 Y1.8871 Z.8393
N500 X-1.2513 Y2.0641 Z.8342
N510 X-.977 Y2.2072 Z.8291
N520 X-.6868 Y2.314 Z.824
N530 X-.3852 Y2.3828 Z.8189
N540 X-.0774 Y2.4125 Z.8138
N550 X.2318 Y2.4026 Z.8087
N560 X.5371 Y2.3532 Z.8036
N570 X.8336 Y2.2652 Z.7985
N580 X1.1165 Y2.14 Z.7934
N590 X1.3809 Y1.9797 Z.7883
N600 X1.6228 Y1.7868 Z.7832
N610 X1.8379 Y1.5647 Z.7781
N620 X2.0229 Y1.3168 Z.773
N630 X2.1747 Y1.0473 Z.7679
N640 X2.2908 Y.7606 Z.7628
N650 X2.3692 Y.4614 Z.7577
N660 X2.4088 Y.1546 Z.7526
N670 Y-.1546 Z.7474
N680 X2.3692 Y-.4614 Z.7423
N690 X2.2908 Y-.7606 Z.7372
N700 X2.1747 Y-1.0473 Z.7321
N710 X2.0229 Y-1.3168 Z.727
N720 X1.8379 Y-1.5647 Z.7219
N730 X1.6228 Y-1.7868 Z.7168
N740 X1.3809 Y-1.9797 Z.7117
N750 X1.1165 Y-2.14 Z.7066
N760 X.8336 Y-2.2652 Z.7015
N770 X.5371 Y-2.3532 Z.6964
N780 X.2318 Y-2.4026 Z.6913
N790 X-.0774 Y-2.4125 Z.6862
N800 X-.3852 Y-2.3828 Z.6811
N810 X-.6868 Y-2.314 Z.676
N820 X-.977 Y-2.2072 Z.6709
N830 X-1.2513 Y-2.0641 Z.6658
N840 X-1.5049 Y-1.8871 Z.6607
N850 X-1.7339 Y-1.6792 Z.6556
N860 X-1.9344 Y-1.4437 Z.6505
N870 X-2.1031 Y-1.1845 Z.6454
N880 X-2.2373 Y-.9058 Z.6403
N890 X-2.3348 Y-.6123 Z.6352
N900 X-2.3939 Y-.3087 Z.6301
N910 X-2.4137 Y0. Z.625
N920 X-2.3939 Y.3087 Z.6199
N930 X-2.3348 Y.6123 Z.6148
N940 X-2.2373 Y.9058 Z.6097
N950 X-2.1031 Y1.1845 Z.6046
N960 X-1.9344 Y1.4437 Z.5995
N970 X-1.7339 Y1.6792 Z.5944
N980 X-1.5049 Y1.8871 Z.5893
N990 X-1.2513 Y2.0641 Z.5842
N1000 X-.977 Y2.2072 Z.5791
N1010 X-.6868 Y2.314 Z.574
N1020 X-.3852 Y2.3828 Z.5689
N1030 X-.0774 Y2.4125 Z.5638
N1040 X.2318 Y2.4026 Z.5587
N1050 X.5371 Y2.3532 Z.5536
N1060 X.8336 Y2.2652 Z.5485
N1070 X1.1165 Y2.14 Z.5434
N1080 X1.3809 Y1.9797 Z.5383
N1090 X1.6228 Y1.7868 Z.5332
N1100 X1.8379 Y1.5647 Z.5281
N1110 X2.0229 Y1.3168 Z.523
N1120 X2.1747 Y1.0473 Z.5179
N1130 X2.2908 Y.7606 Z.5128
N1140 X2.3692 Y.4614 Z.5077
N1150 X2.4088 Y.1546 Z.5026
N1160 Y-.1546 Z.4974
N1170 X2.3692 Y-.4614 Z.4923
N1180 X2.2908 Y-.7606 Z.4872
N1190 X2.1747 Y-1.0473 Z.4821
N1200 X2.0229 Y-1.3168 Z.477
N1210 X1.8379 Y-1.5647 Z.4719
N1220 X1.6228 Y-1.7868 Z.4668
N1230 X1.3809 Y-1.9797 Z.4617
N1240 X1.1165 Y-2.14 Z.4566
N1250 X.8336 Y-2.2652 Z.4515
N1260 X.5371 Y-2.3532 Z.4464
N1270 X.2318 Y-2.4026 Z.4413
N1280 X-.0774 Y-2.4125 Z.4362
N1290 X-.3852 Y-2.3828 Z.4311
N1300 X-.6868 Y-2.314 Z.426
N1310 X-.977 Y-2.2072 Z.4209
N1320 X-1.2513 Y-2.0641 Z.4158
N1330 X-1.5049 Y-1.8871 Z.4107
N1340 X-1.7339 Y-1.6792 Z.4056
N1350 X-1.9344 Y-1.4437 Z.4005
N1360 X-2.1031 Y-1.1845 Z.3954
N1370 X-2.2373 Y-.9058 Z.3903
N1380 X-2.3348 Y-.6123 Z.3852
N1390 X-2.3939 Y-.3087 Z.3801
N1400 X-2.4137 Y0. Z.375
N1410 X-2.3939 Y.3087 Z.3699
N1420 X-2.3348 Y.6123 Z.3648
N1430 X-2.2373 Y.9058 Z.3597
N1440 X-2.1031 Y1.1845 Z.3546
N1450 X-1.9344 Y1.4437 Z.3495
N1460 X-1.7339 Y1.6792 Z.3444
N1470 X-1.5049 Y1.8871 Z.3393
N1480 X-1.2513 Y2.0641 Z.3342
N1490 X-.977 Y2.2072 Z.3291
N1500 X-.6868 Y2.314 Z.324
N1510 X-.3852 Y2.3828 Z.3189
N1520 X-.0774 Y2.4125 Z.3138
N1530 X.2318 Y2.4026 Z.3087
N1540 X.5371 Y2.3532 Z.3036
N1550 X.8336 Y2.2652 Z.2985
N1560 X1.1165 Y2.14 Z.2934
N1570 X1.3809 Y1.9797 Z.2883
N1580 X1.6228 Y1.7868 Z.2832
N1590 X1.8379 Y1.5647 Z.2781
N1600 X2.0229 Y1.3168 Z.273
N1610 X2.1747 Y1.0473 Z.2679
N1620 X2.2908 Y.7606 Z.2628
N1630 X2.3692 Y.4614 Z.2577
N1640 X2.4088 Y.1546 Z.2526
N1650 Y-.1546 Z.2474
N1660 X2.3692 Y-.4614 Z.2423
N1670 X2.2908 Y-.7606 Z.2372
N1680 X2.1747 Y-1.0473 Z.2321
N1690 X2.0229 Y-1.3168 Z.227
N1700 X1.8379 Y-1.5647 Z.2219
N1710 X1.6228 Y-1.7868 Z.2168
N1720 X1.3809 Y-1.9797 Z.2117
N1730 X1.1165 Y-2.14 Z.2066
N1740 X.8336 Y-2.2652 Z.2015
N1750 X.5371 Y-2.3532 Z.1964
N1760 X.2318 Y-2.4026 Z.1913
N1770 X-.0774 Y-2.4125 Z.1862
N1780 X-.3852 Y-2.3828 Z.1811
N1790 X-.6868 Y-2.314 Z.176
N1800 X-.977 Y-2.2072 Z.1709
N1810 X-1.2513 Y-2.0641 Z.1658
N1820 X-1.5049 Y-1.8871 Z.1607
N1830 X-1.7339 Y-1.6792 Z.1556
N1840 X-1.9344 Y-1.4437 Z.1505
N1850 X-2.1031 Y-1.1845 Z.1454
N1860 X-2.2373 Y-.9058 Z.1403
N1870 X-2.3348 Y-.6123 Z.1352
N1880 X-2.3939 Y-.3087 Z.1301
N1890 X-2.4137 Y0. Z.125
N1900 X-2.3947 Y.3025 Z.12
N1910 X-2.3379 Y.6003 Z.115
N1920 X-2.2442 Y.8886 Z.11
N1930 X-2.1152 Y1.1628 Z.105
N1940 X-1.9528 Y1.4188 Z.1
N1950 X-1.7595 Y1.6523 Z.095
N1960 X-1.5386 Y1.8598 Z.09
N1970 X-1.2934 Y2.038 Z.085
N1980 X-1.0277 Y2.184 Z.08
N1990 X-.7459 Y2.2956 Z.075
N2000 X-.4523 Y2.371 Z.07
N2010 X-.1516 Y2.409 Z.065
N2020 X.1516 Z.06
N2030 X.4523 Y2.371 Z.055
N2040 X.7459 Y2.2956 Z.05
N2050 X1.0277 Y2.184 Z.045
N2060 X1.2934 Y2.038 Z.04
N2070 X1.5386 Y1.8598 Z.035
N2080 X1.7595 Y1.6523 Z.03
N2090 X1.9528 Y1.4188 Z.025
N2100 X2.1152 Y1.1628 Z.02
N2110 X2.2442 Y.8886 Z.015
N2120 X2.3379 Y.6003 Z.01
N2130 X2.3947 Y.3025 Z.005
N2140 X2.4137 Y0. Z0.
;N2150 G2 X0. Y-2.4137 I-2.4137 J0.
;N2160 X-2.4137 Y0. I0. J2.4137
;N2170 X0. Y2.4137 I2.4137 J0.
;N2180 X2.4137 Y0. I0. J-2.4137
N2190 G1 X2.6008
N2200 Z.2
N2210 G0 Z1.825
N2220 X-2.4087
N2230 G1 Z1.625 ;F6.42
N2240 X-2.389 Y.308 Z1.6199
N2250 X-2.33 Y.611 Z1.6148
N2260 X-2.2327 Y.9039 Z1.6097
N2270 X-2.0988 Y1.182 Z1.6046
N2280 X-1.9304 Y1.4407 Z1.5995
N2290 X-1.7303 Y1.6757 Z1.5944
N2300 X-1.5018 Y1.8832 Z1.5893
N2310 X-1.2487 Y2.0598 Z1.5842
N2320 X-.975 Y2.2026 Z1.5791
N2330 X-.6854 Y2.3092 Z1.574
N2340 X-.3844 Y2.3779 Z1.5689
N2350 X-.0772 Y2.4075 Z1.5638
N2360 X.2313 Y2.3976 Z1.5587
N2370 X.536 Y2.3484 Z1.5536
N2380 X.8319 Y2.2605 Z1.5485
N2390 X1.1141 Y2.1356 Z1.5434
N2400 X1.3781 Y1.9756 Z1.5383
N2410 X1.6194 Y1.7831 Z1.5332
N2420 X1.8341 Y1.5614 Z1.5281
N2430 X2.0187 Y1.3141 Z1.523
N2440 X2.1702 Y1.0451 Z1.5179
N2450 X2.286 Y.759 Z1.5128
N2460 X2.3643 Y.4605 Z1.5077
N2470 X2.4038 Y.1543 Z1.5026
N2480 Y-.1543 Z1.4974
N2490 X2.3643 Y-.4605 Z1.4923
N2500 X2.286 Y-.759 Z1.4872
N2510 X2.1702 Y-1.0451 Z1.4821
N2520 X2.0187 Y-1.3141 Z1.477
N2530 X1.8341 Y-1.5614 Z1.4719
N2540 X1.6194 Y-1.7831 Z1.4668
N2550 X1.3781 Y-1.9756 Z1.4617
N2560 X1.1141 Y-2.1356 Z1.4566
N2570 X.8319 Y-2.2605 Z1.4515
N2580 X.536 Y-2.3484 Z1.4464
N2590 X.2313 Y-2.3976 Z1.4413
N2600 X-.0772 Y-2.4075 Z1.4362
N2610 X-.3844 Y-2.3779 Z1.4311
N2620 X-.6854 Y-2.3092 Z1.426
N2630 X-.975 Y-2.2026 Z1.4209
N2640 X-1.2487 Y-2.0598 Z1.4158
N2650 X-1.5018 Y-1.8832 Z1.4107
N2660 X-1.7303 Y-1.6757 Z1.4056
N2670 X-1.9304 Y-1.4407 Z1.4005
N2680 X-2.0988 Y-1.182 Z1.3954
N2690 X-2.2327 Y-.9039 Z1.3903
N2700 X-2.33 Y-.611 Z1.3852
N2710 X-2.389 Y-.308 Z1.3801
N2720 X-2.4087 Y0. Z1.375
N2730 X-2.389 Y.308 Z1.3699
N2740 X-2.33 Y.611 Z1.3648
N2750 X-2.2327 Y.9039 Z1.3597
N2760 X-2.0988 Y1.182 Z1.3546
N2770 X-1.9304 Y1.4407 Z1.3495
N2780 X-1.7303 Y1.6757 Z1.3444
N2790 X-1.5018 Y1.8832 Z1.3393
N2800 X-1.2487 Y2.0598 Z1.3342
N2810 X-.975 Y2.2026 Z1.3291
N2820 X-.6854 Y2.3092 Z1.324
N2830 X-.3844 Y2.3779 Z1.3189
N2840 X-.0772 Y2.4075 Z1.3138
N2850 X.2313 Y2.3976 Z1.3087
N2860 X.536 Y2.3484 Z1.3036
N2870 X.8319 Y2.2605 Z1.2985
N2880 X1.1141 Y2.1356 Z1.2934
N2890 X1.3781 Y1.9756 Z1.2883
N2900 X1.6194 Y1.7831 Z1.2832
N2910 X1.8341 Y1.5614 Z1.2781
N2920 X2.0187 Y1.3141 Z1.273
N2930 X2.1702 Y1.0451 Z1.2679
N2940 X2.286 Y.759 Z1.2628
N2950 X2.3643 Y.4605 Z1.2577
N2960 X2.4038 Y.1543 Z1.2526
N2970 Y-.1543 Z1.2474
N2980 X2.3643 Y-.4605 Z1.2423
N2990 X2.286 Y-.759 Z1.2372
N3000 X2.1702 Y-1.0451 Z1.2321
N3010 X2.0187 Y-1.3141 Z1.227
N3020 X1.8341 Y-1.5614 Z1.2219
N3030 X1.6194 Y-1.7831 Z1.2168
N3040 X1.3781 Y-1.9756 Z1.2117
N3050 X1.1141 Y-2.1356 Z1.2066
N3060 X.8319 Y-2.2605 Z1.2015
N3070 X.536 Y-2.3484 Z1.1964
N3080 X.2313 Y-2.3976 Z1.1913
N3090 X-.0772 Y-2.4075 Z1.1862
N3100 X-.3844 Y-2.3779 Z1.1811
N3110 X-.6854 Y-2.3092 Z1.176
N3120 X-.975 Y-2.2026 Z1.1709
N3130 X-1.2487 Y-2.0598 Z1.1658
N3140 X-1.5018 Y-1.8832 Z1.1607
N3150 X-1.7303 Y-1.6757 Z1.1556
N3160 X-1.9304 Y-1.4407 Z1.1505
N3170 X-2.0988 Y-1.182 Z1.1454
N3180 X-2.2327 Y-.9039 Z1.1403
N3190 X-2.33 Y-.611 Z1.1352
N3200 X-2.389 Y-.308 Z1.1301
N3210 X-2.4087 Y0. Z1.125
N3220 X-2.389 Y.308 Z1.1199
N3230 X-2.33 Y.611 Z1.1148
N3240 X-2.2327 Y.9039 Z1.1097
N3250 X-2.0988 Y1.182 Z1.1046
N3260 X-1.9304 Y1.4407 Z1.0995
N3270 X-1.7303 Y1.6757 Z1.0944
N3280 X-1.5018 Y1.8832 Z1.0893
N3290 X-1.2487 Y2.0598 Z1.0842
N3300 X-.975 Y2.2026 Z1.0791
N3310 X-.6854 Y2.3092 Z1.074
N3320 X-.3844 Y2.3779 Z1.0689
N3330 X-.0772 Y2.4075 Z1.0638
N3340 X.2313 Y2.3976 Z1.0587
N3350 X.536 Y2.3484 Z1.0536
N3360 X.8319 Y2.2605 Z1.0485
N3370 X1.1141 Y2.1356 Z1.0434
N3380 X1.3781 Y1.9756 Z1.0383
N3390 X1.6194 Y1.7831 Z1.0332
N3400 X1.8341 Y1.5614 Z1.0281
N3410 X2.0187 Y1.3141 Z1.023
N3420 X2.1702 Y1.0451 Z1.0179
N3430 X2.286 Y.759 Z1.0128
N3440 X2.3643 Y.4605 Z1.0077
N3450 X2.4038 Y.1543 Z1.0026
N3460 Y-.1543 Z.9974
N3470 X2.3643 Y-.4605 Z.9923
N3480 X2.286 Y-.759 Z.9872
N3490 X2.1702 Y-1.0451 Z.9821
N3500 X2.0187 Y-1.3141 Z.977
N3510 X1.8341 Y-1.5614 Z.9719
N3520 X1.6194 Y-1.7831 Z.9668
N3530 X1.3781 Y-1.9756 Z.9617
N3540 X1.1141 Y-2.1356 Z.9566
N3550 X.8319 Y-2.2605 Z.9515
N3560 X.536 Y-2.3484 Z.9464
N3570 X.2313 Y-2.3976 Z.9413
N3580 X-.0772 Y-2.4075 Z.9362
N3590 X-.3844 Y-2.3779 Z.9311
N3600 X-.6854 Y-2.3092 Z.926
N3610 X-.975 Y-2.2026 Z.9209
N3620 X-1.2487 Y-2.0598 Z.9158
N3630 X-1.5018 Y-1.8832 Z.9107
N3640 X-1.7303 Y-1.6757 Z.9056
N3650 X-1.9304 Y-1.4407 Z.9005
N3660 X-2.0988 Y-1.182 Z.8954
N3670 X-2.2327 Y-.9039 Z.8903
N3680 X-2.33 Y-.611 Z.8852
N3690 X-2.389 Y-.308 Z.8801
N3700 X-2.4087 Y0. Z.875
N3710 X-2.389 Y.308 Z.8699
N3720 X-2.33 Y.611 Z.8648
N3730 X-2.2327 Y.9039 Z.8597
N3740 X-2.0988 Y1.182 Z.8546
N3750 X-1.9304 Y1.4407 Z.8495
N3760 X-1.7303 Y1.6757 Z.8444
N3770 X-1.5018 Y1.8832 Z.8393
N3780 X-1.2487 Y2.0598 Z.8342
N3790 X-.975 Y2.2026 Z.8291
N3800 X-.6854 Y2.3092 Z.824
N3810 X-.3844 Y2.3779 Z.8189
N3820 X-.0772 Y2.4075 Z.8138
N3830 X.2313 Y2.3976 Z.8087
N3840 X.536 Y2.3484 Z.8036
N3850 X.8319 Y2.2605 Z.7985
N3860 X1.1141 Y2.1356 Z.7934
N3870 X1.3781 Y1.9756 Z.7883
N3880 X1.6194 Y1.7831 Z.7832
N3890 X1.8341 Y1.5614 Z.7781
N3900 X2.0187 Y1.3141 Z.773
N3910 X2.1702 Y1.0451 Z.7679
N3920 X2.286 Y.759 Z.7628
N3930 X2.3643 Y.4605 Z.7577
N3940 X2.4038 Y.1543 Z.7526
N3950 Y-.1543 Z.7474
N3960 X2.3643 Y-.4605 Z.7423
N3970 X2.286 Y-.759 Z.7372
N3980 X2.1702 Y-1.0451 Z.7321
N3990 X2.0187 Y-1.3141 Z.727
N4000 X1.8341 Y-1.5614 Z.7219
N4010 X1.6194 Y-1.7831 Z.7168
N4020 X1.3781 Y-1.9756 Z.7117
N4030 X1.1141 Y-2.1356 Z.7066
N4040 X.8319 Y-2.2605 Z.7015
N4050 X.536 Y-2.3484 Z.6964
N4060 X.2313 Y-2.3976 Z.6913
N4070 X-.0772 Y-2.4075 Z.6862
N4080 X-.3844 Y-2.3779 Z.6811
N4090 X-.6854 Y-2.3092 Z.676
N4100 X-.975 Y-2.2026 Z.6709
N4110 X-1.2487 Y-2.0598 Z.6658
N4120 X-1.5018 Y-1.8832 Z.6607
N4130 X-1.7303 Y-1.6757 Z.6556
N4140 X-1.9304 Y-1.4407 Z.6505
N4150 X-2.0988 Y-1.182 Z.6454
N4160 X-2.2327 Y-.9039 Z.6403
N4170 X-2.33 Y-.611 Z.6352
N4180 X-2.389 Y-.308 Z.6301
N4190 X-2.4087 Y0. Z.625
N4200 X-2.389 Y.308 Z.6199
N4210 X-2.33 Y.611 Z.6148
N4220 X-2.2327 Y.9039 Z.6097
N4230 X-2.0988 Y1.182 Z.6046
N4240 X-1.9304 Y1.4407 Z.5995
N4250 X-1.7303 Y1.6757 Z.5944
N4260 X-1.5018 Y1.8832 Z.5893
N4270 X-1.2487 Y2.0598 Z.5842
N4280 X-.975 Y2.2026 Z.5791
N4290 X-.6854 Y2.3092 Z.574
N4300 X-.3844 Y2.3779 Z.5689
N4310 X-.0772 Y2.4075 Z.5638
N4320 X.2313 Y2.3976 Z.5587
N4330 X.536 Y2.3484 Z.5536
N4340 X.8319 Y2.2605 Z.5485
N4350 X1.1141 Y2.1356 Z.5434
N4360 X1.3781 Y1.9756 Z.5383
N4370 X1.6194 Y1.7831 Z.5332
N4380 X1.8341 Y1.5614 Z.5281
N4390 X2.0187 Y1.3141 Z.523
N4400 X2.1702 Y1.0451 Z.5179
N4410 X2.286 Y.759 Z.5128
N4420 X2.3643 Y.4605 Z.5077
N4430 X2.4038 Y.1543 Z.5026
N4440 Y-.1543 Z.4974
N4450 X2.3643 Y-.4605 Z.4923
N4460 X2.286 Y-.759 Z.4872
N4470 X2.1702 Y-1.0451 Z.4821
N4480 X2.0187 Y-1.3141 Z.477
N4490 X1.8341 Y-1.5614 Z.4719
N4500 X1.6194 Y-1.7831 Z.4668
N4510 X1.3781 Y-1.9756 Z.4617
N4520 X1.1141 Y-2.1356 Z.4566
N4530 X.8319 Y-2.2605 Z.4515
N4540 X.536 Y-2.3484 Z.4464
N4550 X.2313 Y-2.3976 Z.4413
N4560 X-.0772 Y-2.4075 Z.4362
N4570 X-.3844 Y-2.3779 Z.4311
N4580 X-.6854 Y-2.3092 Z.426
N4590 X-.975 Y-2.2026 Z.4209
N4600 X-1.2487 Y-2.0598 Z.4158
N4610 X-1.5018 Y-1.8832 Z.4107
N4620 X-1.7303 Y-1.6757 Z.4056
N4630 X-1.9304 Y-1.4407 Z.4005
N4640 X-2.0988 Y-1.182 Z.3954
N4650 X-2.2327 Y-.9039 Z.3903
N4660 X-2.33 Y-.611 Z.3852
N4670 X-2.389 Y-.308 Z.3801
N4680 X-2.4087 Y0. Z.375
N4690 X-2.389 Y.308 Z.3699
N4700 X-2.33 Y.611 Z.3648
N4710 X-2.2327 Y.9039 Z.3597
N4720 X-2.0988 Y1.182 Z.3546
N4730 X-1.9304 Y1.4407 Z.3495
N4740 X-1.7303 Y1.6757 Z.3444
N4750 X-1.5018 Y1.8832 Z.3393
N4760 X-1.2487 Y2.0598 Z.3342
N4770 X-.975 Y2.2026 Z.3291
N4780 X-.6854 Y2.3092 Z.324
N4790 X-.3844 Y2.3779 Z.3189
N4800 X-.0772 Y2.4075 Z.3138
N4810 X.2313 Y2.3976 Z.3087
N4820 X.536 Y2.3484 Z.3036
N4830 X.8319 Y2.2605 Z.2985
N4840 X1.1141 Y2.1356 Z.2934
N4850 X1.3781 Y1.9756 Z.2883
N4860 X1.6194 Y1.7831 Z.2832
N4870 X1.8341 Y1.5614 Z.2781
N4880 X2.0187 Y1.3141 Z.273
N4890 X2.1702 Y1.0451 Z.2679
N4900 X2.286 Y.759 Z.2628
N4910 X2.3643 Y.4605 Z.2577
N4920 X2.4038 Y.1543 Z.2526
N4930 Y-.1543 Z.2474
N4940 X2.3643 Y-.4605 Z.2423
N4950 X2.286 Y-.759 Z.2372
N4960 X2.1702 Y-1.0451 Z.2321
N4970 X2.0187 Y-1.3141 Z.227
N4980 X1.8341 Y-1.5614 Z.2219
N4990 X1.6194 Y-1.7831 Z.2168
N5000 X1.3781 Y-1.9756 Z.2117
N5010 X1.1141 Y-2.1356 Z.2066
N5020 X.8319 Y-2.2605 Z.2015
N5030 X.536 Y-2.3484 Z.1964
N5040 X.2313 Y-2.3976 Z.1913
N5050 X-.0772 Y-2.4075 Z.1862
N5060 X-.3844 Y-2.3779 Z.1811
N5070 X-.6854 Y-2.3092 Z.176
N5080 X-.975 Y-2.2026 Z.1709
N5090 X-1.2487 Y-2.0598 Z.1658
N5100 X-1.5018 Y-1.8832 Z.1607
N5110 X-1.7303 Y-1.6757 Z.1556
N5120 X-1.9304 Y-1.4407 Z.1505
N5130 X-2.0988 Y-1.182 Z.1454
N5140 X-2.2327 Y-.9039 Z.1403
N5150 X-2.33 Y-.611 Z.1352
N5160 X-2.389 Y-.308 Z.1301
N5170 X-2.4087 Y0. Z.125
N5180 X-2.3898 Y.3019 Z.12
N5190 X-2.3331 Y.599 Z.115
N5200 X-2.2396 Y.8867 Z.11
N5210 X-2.1108 Y1.1604 Z.105
N5220 X-1.9487 Y1.4158 Z.1
N5230 X-1.7559 Y1.6489 Z.095
N5240 X-1.5354 Y1.856 Z.09
N5250 X-1.2907 Y2.0338 Z.085
N5260 X-1.0256 Y2.1795 Z.08
N5270 X-.7443 Y2.2909 Z.075
N5280 X-.4514 Y2.3661 Z.07
N5290 X-.1512 Y2.404 Z.065
N5300 X.1512 Z.06
N5310 X.4514 Y2.3661 Z.055
N5320 X.7443 Y2.2909 Z.05
N5330 X1.0256 Y2.1795 Z.045
N5340 X1.2907 Y2.0338 Z.04
N5350 X1.5354 Y1.856 Z.035
N5360 X1.7559 Y1.6489 Z.03
N5370 X1.9487 Y1.4158 Z.025
N5380 X2.1108 Y1.1604 Z.02
N5390 X2.2396 Y.8867 Z.015
N5400 X2.3331 Y.599 Z.01
N5410 X2.3898 Y.3019 Z.005
N5420 X2.4087 Y0. Z0.
;N5430 G2 X0. Y-2.4087 I-2.4087 J0.
;N5440 X-2.4087 Y0. I0. J2.4087
;N5450 X0. Y2.4087 I2.4087 J0.
;N5460 X2.4087 Y0. I0. J-2.4087
N5470 G1 X2.5957
N5480 Z.2
N5490 G0 Z1.825
N5500 X-2.4038
N5510 G1 Z1.625 ;F6.42
N5520 X-2.384 Y.3074 Z1.6199
N5530 X-2.3251 Y.6097 Z1.6148
N5540 X-2.2281 Y.902 Z1.6097
N5550 X-2.0944 Y1.1796 Z1.6046
N5560 X-1.9264 Y1.4377 Z1.5995
N5570 X-1.7267 Y1.6722 Z1.5944
N5580 X-1.4987 Y1.8793 Z1.5893
N5590 X-1.2461 Y2.0555 Z1.5842
N5600 X-.973 Y2.198 Z1.5791
N5610 X-.6839 Y2.3044 Z1.574
N5620 X-.3836 Y2.3729 Z1.5689
N5630 X-.077 Y2.4025 Z1.5638
N5640 X.2308 Y2.3926 Z1.5587
N5650 X.5349 Y2.3435 Z1.5536
N5660 X.8302 Y2.2558 Z1.5485
N5670 X1.1118 Y2.1312 Z1.5434
N5680 X1.3752 Y1.9715 Z1.5383
N5690 X1.616 Y1.7794 Z1.5332
N5700 X1.8303 Y1.5582 Z1.5281
N5710 X2.0146 Y1.3113 Z1.523
N5720 X2.1657 Y1.0429 Z1.5179
N5730 X2.2813 Y.7574 Z1.5128
N5740 X2.3594 Y.4595 Z1.5077
N5750 X2.3988 Y.154 Z1.5026
N5760 Y-.154 Z1.4974
N5770 X2.3594 Y-.4595 Z1.4923
N5780 X2.2813 Y-.7574 Z1.4872
N5790 X2.1657 Y-1.0429 Z1.4821
N5800 X2.0146 Y-1.3113 Z1.477
N5810 X1.8303 Y-1.5582 Z1.4719
N5820 X1.616 Y-1.7794 Z1.4668
N5830 X1.3752 Y-1.9715 Z1.4617
N5840 X1.1118 Y-2.1312 Z1.4566
N5850 X.8302 Y-2.2558 Z1.4515
N5860 X.5349 Y-2.3435 Z1.4464
N5870 X.2308 Y-2.3926 Z1.4413
N5880 X-.077 Y-2.4025 Z1.4362
N5890 X-.3836 Y-2.3729 Z1.4311
N5900 X-.6839 Y-2.3044 Z1.426
N5910 X-.973 Y-2.198 Z1.4209
N5920 X-1.2461 Y-2.0555 Z1.4158
N5930 X-1.4987 Y-1.8793 Z1.4107
N5940 X-1.7267 Y-1.6722 Z1.4056
N5950 X-1.9264 Y-1.4377 Z1.4005
N5960 X-2.0944 Y-1.1796 Z1.3954
N5970 X-2.2281 Y-.902 Z1.3903
N5980 X-2.3251 Y-.6097 Z1.3852
N5990 X-2.384 Y-.3074 Z1.3801
N6000 X-2.4038 Y0. Z1.375
N6010 X-2.384 Y.3074 Z1.3699
N6020 X-2.3251 Y.6097 Z1.3648
N6030 X-2.2281 Y.902 Z1.3597
N6040 X-2.0944 Y1.1796 Z1.3546
N6050 X-1.9264 Y1.4377 Z1.3495
N6060 X-1.7267 Y1.6722 Z1.3444
N6070 X-1.4987 Y1.8793 Z1.3393
N6080 X-1.2461 Y2.0555 Z1.3342
N6090 X-.973 Y2.198 Z1.3291
N6100 X-.6839 Y2.3044 Z1.324
N6110 X-.3836 Y2.3729 Z1.3189
N6120 X-.077 Y2.4025 Z1.3138
