%
O0000(WAAM_CYLINDER_2875_OUT42)
(DATE=DD-MM-YY - 17-04-25 TIME=HH:MM - 19:28)
(MCAM ;FILE - C:\USERS\CAILEAN S P15\DOCUMENTS\MASTERCAM\WAAM_CYLINDER.EMCAM)
(NC ;FILE - ;F:\WAAM_CYLINDER_2875_OUT42.nc)
(MATERIAL - ALUMINUM INCH - 2024)
( T256 |  1/2 BALL ENDMILL | H256 )
N100 G20
N110 G0 G17 G40 G49 G80 G90
N120 T256 M6
N130 G0 G90 G54 X-2.3767 Y0. A0. S1069 M3
N140 G43 H256 Z1.75
N150 G1 Z1.25 F1.6
N160 X-2.2348
N170 X-2.2148 Y.2979 Z1.2447
N180 X-2.1553 Y.5904 Z1.2394
N190 X-2.0574 Y.8724 Z1.234
N200 X-1.9228 Y1.1389 Z1.2287
N210 X-1.7538 Y1.385 Z1.2234
N220 X-1.5536 Y1.6064 Z1.2181
N230 X-1.3256 Y1.7991 Z1.2128
N240 X-1.074 Y1.9598 Z1.2074
N250 X-.8032 Y2.0854 Z1.2021
N260 X-.5181 Y2.1739 Z1.1968
N270 X-.2237 Y2.2235 Z1.1915
N280 X.0747 Y2.2335 Z1.1862
N290 X.3717 Y2.2036 Z1.1809
N300 X.6621 Y2.1344 Z1.1755
N310 X.9407 Y2.0271 Z1.1702
N320 X1.2025 Y1.8837 Z1.1649
N330 X1.4428 Y1.7066 Z1.1596
N340 X1.6574 Y1.499 Z1.1543
N350 X1.8424 Y1.2648 Z1.1489
N360 X1.9946 Y1.0079 Z1.1436
N370 X2.1111 Y.7331 Z1.1383
N380 X2.19 Y.4451 Z1.133
N390 X2.2298 Y.1493 Z1.1277
N400 Y-.1493 Z1.1223
N410 X2.19 Y-.4451 Z1.117
N420 X2.1111 Y-.7331 Z1.1117
N430 X1.9946 Y-1.0079 Z1.1064
N440 X1.8424 Y-1.2648 Z1.1011
N450 X1.6574 Y-1.499 Z1.0957
N460 X1.4428 Y-1.7066 Z1.0904
N470 X1.2025 Y-1.8837 Z1.0851
N480 X.9407 Y-2.0271 Z1.0798
N490 X.6621 Y-2.1344 Z1.0745
N500 X.3717 Y-2.2036 Z1.0691
N510 X.0747 Y-2.2335 Z1.0638
N520 X-.2237 Y-2.2235 Z1.0585
N530 X-.5181 Y-2.1739 Z1.0532
N540 X-.8032 Y-2.0854 Z1.0479
N550 X-1.074 Y-1.9598 Z1.0426
N560 X-1.3256 Y-1.7991 Z1.0372
N570 X-1.5536 Y-1.6064 Z1.0319
N580 X-1.7538 Y-1.385 Z1.0266
N590 X-1.9228 Y-1.1389 Z1.0213
N600 X-2.0574 Y-.8724 Z1.016
N610 X-2.1553 Y-.5904 Z1.0106
N620 X-2.2148 Y-.2979 Z1.0053
N630 X-2.2348 Y0. Z1.
N640 X-2.2148 Y.2979 Z.9947
N650 X-2.1553 Y.5904 Z.9894
N660 X-2.0574 Y.8724 Z.984
N670 X-1.9228 Y1.1389 Z.9787
N680 X-1.7538 Y1.385 Z.9734
N690 X-1.5536 Y1.6064 Z.9681
N700 X-1.3256 Y1.7991 Z.9628
N710 X-1.074 Y1.9598 Z.9574
N720 X-.8032 Y2.0854 Z.9521
N730 X-.5181 Y2.1739 Z.9468
N740 X-.2237 Y2.2235 Z.9415
N750 X.0747 Y2.2335 Z.9362
N760 X.3717 Y2.2036 Z.9309
N770 X.6621 Y2.1344 Z.9255
N780 X.9407 Y2.0271 Z.9202
N790 X1.2025 Y1.8837 Z.9149
N800 X1.4428 Y1.7066 Z.9096
N810 X1.6574 Y1.499 Z.9043
N820 X1.8424 Y1.2648 Z.8989
N830 X1.9946 Y1.0079 Z.8936
N840 X2.1111 Y.7331 Z.8883
N850 X2.19 Y.4451 Z.883
N860 X2.2298 Y.1493 Z.8777
N870 Y-.1493 Z.8723
N880 X2.19 Y-.4451 Z.867
N890 X2.1111 Y-.7331 Z.8617
N900 X1.9946 Y-1.0079 Z.8564
N910 X1.8424 Y-1.2648 Z.8511
N920 X1.6574 Y-1.499 Z.8457
N930 X1.4428 Y-1.7066 Z.8404
N940 X1.2025 Y-1.8837 Z.8351
N950 X.9407 Y-2.0271 Z.8298
N960 X.6621 Y-2.1344 Z.8245
N970 X.3717 Y-2.2036 Z.8191
N980 X.0747 Y-2.2335 Z.8138
N990 X-.2237 Y-2.2235 Z.8085
N1000 X-.5181 Y-2.1739 Z.8032
N1010 X-.8032 Y-2.0854 Z.7979
N1020 X-1.074 Y-1.9598 Z.7926
N1030 X-1.3256 Y-1.7991 Z.7872
N1040 X-1.5536 Y-1.6064 Z.7819
N1050 X-1.7538 Y-1.385 Z.7766
N1060 X-1.9228 Y-1.1389 Z.7713
N1070 X-2.0574 Y-.8724 Z.766
N1080 X-2.1553 Y-.5904 Z.7606
N1090 X-2.2148 Y-.2979 Z.7553
N1100 X-2.2348 Y0. Z.75
N1110 X-2.2148 Y.2979 Z.7447
N1120 X-2.1553 Y.5904 Z.7394
N1130 X-2.0574 Y.8724 Z.734
N1140 X-1.9228 Y1.1389 Z.7287
N1150 X-1.7538 Y1.385 Z.7234
N1160 X-1.5536 Y1.6064 Z.7181
N1170 X-1.3256 Y1.7991 Z.7128
N1180 X-1.074 Y1.9598 Z.7074
N1190 X-.8032 Y2.0854 Z.7021
N1200 X-.5181 Y2.1739 Z.6968
N1210 X-.2237 Y2.2235 Z.6915
N1220 X.0747 Y2.2335 Z.6862
N1230 X.3717 Y2.2036 Z.6809
N1240 X.6621 Y2.1344 Z.6755
N1250 X.9407 Y2.0271 Z.6702
N1260 X1.2025 Y1.8837 Z.6649
N1270 X1.4428 Y1.7066 Z.6596
N1280 X1.6574 Y1.499 Z.6543
N1290 X1.8424 Y1.2648 Z.6489
N1300 X1.9946 Y1.0079 Z.6436
N1310 X2.1111 Y.7331 Z.6383
N1320 X2.19 Y.4451 Z.633
N1330 X2.2298 Y.1493 Z.6277
N1340 Y-.1493 Z.6223
N1350 X2.19 Y-.4451 Z.617
N1360 X2.1111 Y-.7331 Z.6117
N1370 X1.9946 Y-1.0079 Z.6064
N1380 X1.8424 Y-1.2648 Z.6011
N1390 X1.6574 Y-1.499 Z.5957
N1400 X1.4428 Y-1.7066 Z.5904
N1410 X1.2025 Y-1.8837 Z.5851
N1420 X.9407 Y-2.0271 Z.5798
N1430 X.6621 Y-2.1344 Z.5745
N1440 X.3717 Y-2.2036 Z.5691
N1450 X.0747 Y-2.2335 Z.5638
N1460 X-.2237 Y-2.2235 Z.5585
N1470 X-.5181 Y-2.1739 Z.5532
N1480 X-.8032 Y-2.0854 Z.5479
N1490 X-1.074 Y-1.9598 Z.5426
N1500 X-1.3256 Y-1.7991 Z.5372
N1510 X-1.5536 Y-1.6064 Z.5319
N1520 X-1.7538 Y-1.385 Z.5266
N1530 X-1.9228 Y-1.1389 Z.5213
N1540 X-2.0574 Y-.8724 Z.516
N1550 X-2.1553 Y-.5904 Z.5106
N1560 X-2.2148 Y-.2979 Z.5053
N1570 X-2.2348 Y0. Z.5
N1580 X-2.2148 Y.2979 Z.4947
N1590 X-2.1553 Y.5904 Z.4894
N1600 X-2.0574 Y.8724 Z.484
N1610 X-1.9228 Y1.1389 Z.4787
N1620 X-1.7538 Y1.385 Z.4734
N1630 X-1.5536 Y1.6064 Z.4681
N1640 X-1.3256 Y1.7991 Z.4628
N1650 X-1.074 Y1.9598 Z.4574
N1660 X-.8032 Y2.0854 Z.4521
N1670 X-.5181 Y2.1739 Z.4468
N1680 X-.2237 Y2.2235 Z.4415
N1690 X.0747 Y2.2335 Z.4362
N1700 X.3717 Y2.2036 Z.4309
N1710 X.6621 Y2.1344 Z.4255
N1720 X.9407 Y2.0271 Z.4202
N1730 X1.2025 Y1.8837 Z.4149
N1740 X1.4428 Y1.7066 Z.4096
N1750 X1.6574 Y1.499 Z.4043
N1760 X1.8424 Y1.2648 Z.3989
N1770 X1.9946 Y1.0079 Z.3936
N1780 X2.1111 Y.7331 Z.3883
N1790 X2.19 Y.4451 Z.383
N1800 X2.2298 Y.1493 Z.3777
N1810 Y-.1493 Z.3723
N1820 X2.19 Y-.4451 Z.367
N1830 X2.1111 Y-.7331 Z.3617
N1840 X1.9946 Y-1.0079 Z.3564
N1850 X1.8424 Y-1.2648 Z.3511
N1860 X1.6574 Y-1.499 Z.3457
N1870 X1.4428 Y-1.7066 Z.3404
N1880 X1.2025 Y-1.8837 Z.3351
N1890 X.9407 Y-2.0271 Z.3298
N1900 X.6621 Y-2.1344 Z.3245
N1910 X.3717 Y-2.2036 Z.3191
N1920 X.0747 Y-2.2335 Z.3138
N1930 X-.2237 Y-2.2235 Z.3085
N1940 X-.5181 Y-2.1739 Z.3032
N1950 X-.8032 Y-2.0854 Z.2979
N1960 X-1.074 Y-1.9598 Z.2926
N1970 X-1.3256 Y-1.7991 Z.2872
N1980 X-1.5536 Y-1.6064 Z.2819
N1990 X-1.7538 Y-1.385 Z.2766
N2000 X-1.9228 Y-1.1389 Z.2713
N2010 X-2.0574 Y-.8724 Z.266
N2020 X-2.1553 Y-.5904 Z.2606
N2030 X-2.2148 Y-.2979 Z.2553
N2040 X-2.2348 Y0. Z.25
N2050 X-2.2148 Y.2979 Z.2447
N2060 X-2.1553 Y.5904 Z.2394
N2070 X-2.0574 Y.8724 Z.234
N2080 X-1.9228 Y1.1389 Z.2287
N2090 X-1.7538 Y1.385 Z.2234
N2100 X-1.5536 Y1.6064 Z.2181
N2110 X-1.3256 Y1.7991 Z.2128
N2120 X-1.074 Y1.9598 Z.2074
N2130 X-.8032 Y2.0854 Z.2021
N2140 X-.5181 Y2.1739 Z.1968
N2150 X-.2237 Y2.2235 Z.1915
N2160 X.0747 Y2.2335 Z.1862
N2170 X.3717 Y2.2036 Z.1809
N2180 X.6621 Y2.1344 Z.1755
N2190 X.9407 Y2.0271 Z.1702
N2200 X1.2025 Y1.8837 Z.1649
N2210 X1.4428 Y1.7066 Z.1596
N2220 X1.6574 Y1.499 Z.1543
N2230 X1.8424 Y1.2648 Z.1489
N2240 X1.9946 Y1.0079 Z.1436
N2250 X2.1111 Y.7331 Z.1383
N2260 X2.19 Y.4451 Z.133
N2270 X2.2298 Y.1493 Z.1277
N2280 Y-.1493 Z.1223
N2290 X2.19 Y-.4451 Z.117
N2300 X2.1111 Y-.7331 Z.1117
N2310 X1.9946 Y-1.0079 Z.1064
N2320 X1.8424 Y-1.2648 Z.1011
N2330 X1.6574 Y-1.499 Z.0957
N2340 X1.4428 Y-1.7066 Z.0904
N2350 X1.2025 Y-1.8837 Z.0851
N2360 X.9407 Y-2.0271 Z.0798
N2370 X.6621 Y-2.1344 Z.0745
N2380 X.3717 Y-2.2036 Z.0691
N2390 X.0747 Y-2.2335 Z.0638
N2400 X-.2237 Y-2.2235 Z.0585
N2410 X-.5181 Y-2.1739 Z.0532
N2420 X-.8032 Y-2.0854 Z.0479
N2430 X-1.074 Y-1.9598 Z.0426
N2440 X-1.3256 Y-1.7991 Z.0372
N2450 X-1.5536 Y-1.6064 Z.0319
N2460 X-1.7538 Y-1.385 Z.0266
N2470 X-1.9228 Y-1.1389 Z.0213
N2480 X-2.0574 Y-.8724 Z.016
N2490 X-2.1553 Y-.5904 Z.0106
N2500 X-2.2148 Y-.2979 Z.0053
N2510 X-2.2348 Y0. Z0.
N2520 X-2.3767
N2530 Z1.75
N2540 G0 X-2.3687
N2550 G1 Z1.25 ;F6.42
N2560 X-2.2268
N2570 X-2.2069 Y.2968 Z1.2447
N2580 X-2.1476 Y.5883 Z1.2394
N2590 X-2.0501 Y.8693 Z1.234
N2600 X-1.9159 Y1.1348 Z1.2287
N2610 X-1.7476 Y1.38 Z1.2234
N2620 X-1.548 Y1.6006 Z1.2181
N2630 X-1.3209 Y1.7927 Z1.2128
N2640 X-1.0701 Y1.9527 Z1.2074
N2650 X-.8003 Y2.078 Z1.2021
N2660 X-.5162 Y2.1661 Z1.1968
N2670 X-.2229 Y2.2156 Z1.1915
N2680 X.0744 Y2.2255 Z1.1862
N2690 X.3704 Y2.1957 Z1.1809
N2700 X.6597 Y2.1268 Z1.1755
N2710 X.9373 Y2.0199 Z1.1702
N2720 X1.1982 Y1.8769 Z1.1649
N2730 X1.4377 Y1.7005 Z1.1596
N2740 X1.6515 Y1.4937 Z1.1543
N2750 X1.8358 Y1.2602 Z1.1489
N2760 X1.9874 Y1.0043 Z1.1436
N2770 X2.1035 Y.7304 Z1.1383
N2780 X2.1821 Y.4435 Z1.133
N2790 X2.2218 Y.1487 Z1.1277
N2800 Y-.1487 Z1.1223
N2810 X2.1821 Y-.4435 Z1.117
N2820 X2.1035 Y-.7304 Z1.1117
N2830 X1.9874 Y-1.0043 Z1.1064
N2840 X1.8358 Y-1.2602 Z1.1011
N2850 X1.6515 Y-1.4937 Z1.0957
N2860 X1.4377 Y-1.7005 Z1.0904
N2870 X1.1982 Y-1.8769 Z1.0851
N2880 X.9373 Y-2.0199 Z1.0798
N2890 X.6597 Y-2.1268 Z1.0745
N2900 X.3704 Y-2.1957 Z1.0691
N2910 X.0744 Y-2.2255 Z1.0638
N2920 X-.2229 Y-2.2156 Z1.0585
N2930 X-.5162 Y-2.1661 Z1.0532
N2940 X-.8003 Y-2.078 Z1.0479
N2950 X-1.0701 Y-1.9527 Z1.0426
N2960 X-1.3209 Y-1.7927 Z1.0372
N2970 X-1.548 Y-1.6006 Z1.0319
N2980 X-1.7476 Y-1.38 Z1.0266
N2990 X-1.9159 Y-1.1348 Z1.0213
N3000 X-2.0501 Y-.8693 Z1.016
N3010 X-2.1476 Y-.5883 Z1.0106
N3020 X-2.2069 Y-.2968 Z1.0053
N3030 X-2.2268 Y0. Z1.
N3040 X-2.2069 Y.2968 Z.9947
N3050 X-2.1476 Y.5883 Z.9894
N3060 X-2.0501 Y.8693 Z.984
N3070 X-1.9159 Y1.1348 Z.9787
N3080 X-1.7476 Y1.38 Z.9734
N3090 X-1.548 Y1.6006 Z.9681
N3100 X-1.3209 Y1.7927 Z.9628
N3110 X-1.0701 Y1.9527 Z.9574
N3120 X-.8003 Y2.078 Z.9521
N3130 X-.5162 Y2.1661 Z.9468
N3140 X-.2229 Y2.2156 Z.9415
N3150 X.0744 Y2.2255 Z.9362
N3160 X.3704 Y2.1957 Z.9309
N3170 X.6597 Y2.1268 Z.9255
N3180 X.9373 Y2.0199 Z.9202
N3190 X1.1982 Y1.8769 Z.9149
N3200 X1.4377 Y1.7005 Z.9096
N3210 X1.6515 Y1.4937 Z.9043
N3220 X1.8358 Y1.2602 Z.8989
N3230 X1.9874 Y1.0043 Z.8936
N3240 X2.1035 Y.7304 Z.8883
N3250 X2.1821 Y.4435 Z.883
N3260 X2.2218 Y.1487 Z.8777
N3270 Y-.1487 Z.8723
N3280 X2.1821 Y-.4435 Z.867
N3290 X2.1035 Y-.7304 Z.8617
N3300 X1.9874 Y-1.0043 Z.8564
N3310 X1.8358 Y-1.2602 Z.8511
N3320 X1.6515 Y-1.4937 Z.8457
N3330 X1.4377 Y-1.7005 Z.8404
N3340 X1.1982 Y-1.8769 Z.8351
N3350 X.9373 Y-2.0199 Z.8298
N3360 X.6597 Y-2.1268 Z.8245
N3370 X.3704 Y-2.1957 Z.8191
N3380 X.0744 Y-2.2255 Z.8138
N3390 X-.2229 Y-2.2156 Z.8085
N3400 X-.5162 Y-2.1661 Z.8032
N3410 X-.8003 Y-2.078 Z.7979
N3420 X-1.0701 Y-1.9527 Z.7926
N3430 X-1.3209 Y-1.7927 Z.7872
N3440 X-1.548 Y-1.6006 Z.7819
N3450 X-1.7476 Y-1.38 Z.7766
N3460 X-1.9159 Y-1.1348 Z.7713
N3470 X-2.0501 Y-.8693 Z.766
N3480 X-2.1476 Y-.5883 Z.7606
N3490 X-2.2069 Y-.2968 Z.7553
N3500 X-2.2268 Y0. Z.75
N3510 X-2.2069 Y.2968 Z.7447
N3520 X-2.1476 Y.5883 Z.7394
N3530 X-2.0501 Y.8693 Z.734
N3540 X-1.9159 Y1.1348 Z.7287
N3550 X-1.7476 Y1.38 Z.7234
N3560 X-1.548 Y1.6006 Z.7181
N3570 X-1.3209 Y1.7927 Z.7128
N3580 X-1.0701 Y1.9527 Z.7074
N3590 X-.8003 Y2.078 Z.7021
N3600 X-.5162 Y2.1661 Z.6968
N3610 X-.2229 Y2.2156 Z.6915
N3620 X.0744 Y2.2255 Z.6862
N3630 X.3704 Y2.1957 Z.6809
N3640 X.6597 Y2.1268 Z.6755
N3650 X.9373 Y2.0199 Z.6702
N3660 X1.1982 Y1.8769 Z.6649
N3670 X1.4377 Y1.7005 Z.6596
N3680 X1.6515 Y1.4937 Z.6543
N3690 X1.8358 Y1.2602 Z.6489
N3700 X1.9874 Y1.0043 Z.6436
N3710 X2.1035 Y.7304 Z.6383
N3720 X2.1821 Y.4435 Z.633
N3730 X2.2218 Y.1487 Z.6277
N3740 Y-.1487 Z.6223
N3750 X2.1821 Y-.4435 Z.617
N3760 X2.1035 Y-.7304 Z.6117
N3770 X1.9874 Y-1.0043 Z.6064
N3780 X1.8358 Y-1.2602 Z.6011
N3790 X1.6515 Y-1.4937 Z.5957
N3800 X1.4377 Y-1.7005 Z.5904
N3810 X1.1982 Y-1.8769 Z.5851
N3820 X.9373 Y-2.0199 Z.5798
N3830 X.6597 Y-2.1268 Z.5745
N3840 X.3704 Y-2.1957 Z.5691
N3850 X.0744 Y-2.2255 Z.5638
N3860 X-.2229 Y-2.2156 Z.5585
N3870 X-.5162 Y-2.1661 Z.5532
N3880 X-.8003 Y-2.078 Z.5479
N3890 X-1.0701 Y-1.9527 Z.5426
N3900 X-1.3209 Y-1.7927 Z.5372
N3910 X-1.548 Y-1.6006 Z.5319
N3920 X-1.7476 Y-1.38 Z.5266
N3930 X-1.9159 Y-1.1348 Z.5213
N3940 X-2.0501 Y-.8693 Z.516
N3950 X-2.1476 Y-.5883 Z.5106
N3960 X-2.2069 Y-.2968 Z.5053
N3970 X-2.2268 Y0. Z.5
N3980 X-2.2069 Y.2968 Z.4947
N3990 X-2.1476 Y.5883 Z.4894
N4000 X-2.0501 Y.8693 Z.484
N4010 X-1.9159 Y1.1348 Z.4787
N4020 X-1.7476 Y1.38 Z.4734
N4030 X-1.548 Y1.6006 Z.4681
N4040 X-1.3209 Y1.7927 Z.4628
N4050 X-1.0701 Y1.9527 Z.4574
N4060 X-.8003 Y2.078 Z.4521
N4070 X-.5162 Y2.1661 Z.4468
N4080 X-.2229 Y2.2156 Z.4415
N4090 X.0744 Y2.2255 Z.4362
N4100 X.3704 Y2.1957 Z.4309
N4110 X.6597 Y2.1268 Z.4255
N4120 X.9373 Y2.0199 Z.4202
N4130 X1.1982 Y1.8769 Z.4149
N4140 X1.4377 Y1.7005 Z.4096
N4150 X1.6515 Y1.4937 Z.4043
N4160 X1.8358 Y1.2602 Z.3989
N4170 X1.9874 Y1.0043 Z.3936
N4180 X2.1035 Y.7304 Z.3883
N4190 X2.1821 Y.4435 Z.383
N4200 X2.2218 Y.1487 Z.3777
N4210 Y-.1487 Z.3723
N4220 X2.1821 Y-.4435 Z.367
N4230 X2.1035 Y-.7304 Z.3617
N4240 X1.9874 Y-1.0043 Z.3564
N4250 X1.8358 Y-1.2602 Z.3511
N4260 X1.6515 Y-1.4937 Z.3457
N4270 X1.4377 Y-1.7005 Z.3404
N4280 X1.1982 Y-1.8769 Z.3351
N4290 X.9373 Y-2.0199 Z.3298
N4300 X.6597 Y-2.1268 Z.3245
N4310 X.3704 Y-2.1957 Z.3191
N4320 X.0744 Y-2.2255 Z.3138
N4330 X-.2229 Y-2.2156 Z.3085
N4340 X-.5162 Y-2.1661 Z.3032
N4350 X-.8003 Y-2.078 Z.2979
N4360 X-1.0701 Y-1.9527 Z.2926
N4370 X-1.3209 Y-1.7927 Z.2872
N4380 X-1.548 Y-1.6006 Z.2819
N4390 X-1.7476 Y-1.38 Z.2766
N4400 X-1.9159 Y-1.1348 Z.2713
N4410 X-2.0501 Y-.8693 Z.266
N4420 X-2.1476 Y-.5883 Z.2606
N4430 X-2.2069 Y-.2968 Z.2553
N4440 X-2.2268 Y0. Z.25
N4450 X-2.2069 Y.2968 Z.2447
N4460 X-2.1476 Y.5883 Z.2394
N4470 X-2.0501 Y.8693 Z.234
N4480 X-1.9159 Y1.1348 Z.2287
N4490 X-1.7476 Y1.38 Z.2234
N4500 X-1.548 Y1.6006 Z.2181
N4510 X-1.3209 Y1.7927 Z.2128
N4520 X-1.0701 Y1.9527 Z.2074
N4530 X-.8003 Y2.078 Z.2021
N4540 X-.5162 Y2.1661 Z.1968
N4550 X-.2229 Y2.2156 Z.1915
N4560 X.0744 Y2.2255 Z.1862
N4570 X.3704 Y2.1957 Z.1809
N4580 X.6597 Y2.1268 Z.1755
N4590 X.9373 Y2.0199 Z.1702
N4600 X1.1982 Y1.8769 Z.1649
N4610 X1.4377 Y1.7005 Z.1596
N4620 X1.6515 Y1.4937 Z.1543
N4630 X1.8358 Y1.2602 Z.1489
N4640 X1.9874 Y1.0043 Z.1436
N4650 X2.1035 Y.7304 Z.1383
N4660 X2.1821 Y.4435 Z.133
N4670 X2.2218 Y.1487 Z.1277
N4680 Y-.1487 Z.1223
N4690 X2.1821 Y-.4435 Z.117
N4700 X2.1035 Y-.7304 Z.1117
N4710 X1.9874 Y-1.0043 Z.1064
N4720 X1.8358 Y-1.2602 Z.1011
N4730 X1.6515 Y-1.4937 Z.0957
N4740 X1.4377 Y-1.7005 Z.0904
N4750 X1.1982 Y-1.8769 Z.0851
N4760 X.9373 Y-2.0199 Z.0798
N4770 X.6597 Y-2.1268 Z.0745
N4780 X.3704 Y-2.1957 Z.0691
N4790 X.0744 Y-2.2255 Z.0638
N4800 X-.2229 Y-2.2156 Z.0585
N4810 X-.5162 Y-2.1661 Z.0532
N4820 X-.8003 Y-2.078 Z.0479
N4830 X-1.0701 Y-1.9527 Z.0426
N4840 X-1.3209 Y-1.7927 Z.0372
N4850 X-1.548 Y-1.6006 Z.0319
N4860 X-1.7476 Y-1.38 Z.0266
N4870 X-1.9159 Y-1.1348 Z.0213
N4880 X-2.0501 Y-.8693 Z.016
N4890 X-2.1476 Y-.5883 Z.0106
N4900 X-2.2069 Y-.2968 Z.0053
N4910 X-2.2268 Y0. Z0.
N4920 X-2.3687
N4930 Z1.75
N4940 G0 X-2.3607
N4950 G1 Z1.25 ;F6.42
N4960 X-2.2188
N4970 X-2.199 Y.2957 Z1.2447
N4980 X-2.1399 Y.5862 Z1.2394
N4990 X-2.0427 Y.8662 Z1.234
N5000 X-1.909 Y1.1307 Z1.2287
N5010 X-1.7413 Y1.3751 Z1.2234
N5020 X-1.5425 Y1.5949 Z1.2181
N5030 X-1.3161 Y1.7862 Z1.2128
N5040 X-1.0663 Y1.9457 Z1.2074
N5050 X-.7974 Y2.0705 Z1.2021
N5060 X-.5144 Y2.1583 Z1.1968
N5070 X-.2221 Y2.2076 Z1.1915
N5080 X.0741 Y2.2175 Z1.1862
N5090 X.369 Y2.1878 Z1.1809
N5100 X.6574 Y2.1191 Z1.1755
N5110 X.9339 Y2.0126 Z1.1702
N5120 X1.1939 Y1.8702 Z1.1649
N5130 X1.4325 Y1.6944 Z1.1596
N5140 X1.6455 Y1.4883 Z1.1543
N5150 X1.8292 Y1.2557 Z1.1489
N5160 X1.9803 Y1.0007 Z1.1436
N5170 X2.096 Y.7278 Z1.1383
N5180 X2.1743 Y.4419 Z1.133
N5190 X2.2138 Y.1482 Z1.1277
N5200 Y-.1482 Z1.1223
N5210 X2.1743 Y-.4419 Z1.117
N5220 X2.096 Y-.7278 Z1.1117
N5230 X1.9803 Y-1.0007 Z1.1064
N5240 X1.8292 Y-1.2557 Z1.1011
N5250 X1.6455 Y-1.4883 Z1.0957
N5260 X1.4325 Y-1.6944 Z1.0904
N5270 X1.1939 Y-1.8702 Z1.0851
N5280 X.9339 Y-2.0126 Z1.0798
N5290 X.6574 Y-2.1191 Z1.0745
N5300 X.369 Y-2.1878 Z1.0691
N5310 X.0741 Y-2.2175 Z1.0638
N5320 X-.2221 Y-2.2076 Z1.0585
N5330 X-.5144 Y-2.1583 Z1.0532
N5340 X-.7974 Y-2.0705 Z1.0479
N5350 X-1.0663 Y-1.9457 Z1.0426
N5360 X-1.3161 Y-1.7862 Z1.0372
N5370 X-1.5425 Y-1.5949 Z1.0319
N5380 X-1.7413 Y-1.3751 Z1.0266
N5390 X-1.909 Y-1.1307 Z1.0213
N5400 X-2.0427 Y-.8662 Z1.016
N5410 X-2.1399 Y-.5862 Z1.0106
N5420 X-2.199 Y-.2957 Z1.0053
N5430 X-2.2188 Y0. Z1.
N5440 X-2.199 Y.2957 Z.9947
N5450 X-2.1399 Y.5862 Z.9894
N5460 X-2.0427 Y.8662 Z.984
N5470 X-1.909 Y1.1307 Z.9787
N5480 X-1.7413 Y1.3751 Z.9734
N5490 X-1.5425 Y1.5949 Z.9681
N5500 X-1.3161 Y1.7862 Z.9628
N5510 X-1.0663 Y1.9457 Z.9574
N5520 X-.7974 Y2.0705 Z.9521
N5530 X-.5144 Y2.1583 Z.9468
N5540 X-.2221 Y2.2076 Z.9415
N5550 X.0741 Y2.2175 Z.9362
N5560 X.369 Y2.1878 Z.9309
N5570 X.6574 Y2.1191 Z.9255
N5580 X.9339 Y2.0126 Z.9202
N5590 X1.1939 Y1.8702 Z.9149
N5600 X1.4325 Y1.6944 Z.9096
N5610 X1.6455 Y1.4883 Z.9043
N5620 X1.8292 Y1.2557 Z.8989
N5630 X1.9803 Y1.0007 Z.8936
N5640 X2.096 Y.7278 Z.8883
N5650 X2.1743 Y.4419 Z.883
N5660 X2.2138 Y.1482 Z.8777
N5670 Y-.1482 Z.8723
N5680 X2.1743 Y-.4419 Z.867
N5690 X2.096 Y-.7278 Z.8617
N5700 X1.9803 Y-1.0007 Z.8564
N5710 X1.8292 Y-1.2557 Z.8511
N5720 X1.6455 Y-1.4883 Z.8457
N5730 X1.4325 Y-1.6944 Z.8404
N5740 X1.1939 Y-1.8702 Z.8351
N5750 X.9339 Y-2.0126 Z.8298
N5760 X.6574 Y-2.1191 Z.8245
N5770 X.369 Y-2.1878 Z.8191
N5780 X.0741 Y-2.2175 Z.8138
N5790 X-.2221 Y-2.2076 Z.8085
N5800 X-.5144 Y-2.1583 Z.8032
N5810 X-.7974 Y-2.0705 Z.7979
N5820 X-1.0663 Y-1.9457 Z.7926
N5830 X-1.3161 Y-1.7862 Z.7872
N5840 X-1.5425 Y-1.5949 Z.7819
N5850 X-1.7413 Y-1.3751 Z.7766
N5860 X-1.909 Y-1.1307 Z.7713
N5870 X-2.0427 Y-.8662 Z.766
N5880 X-2.1399 Y-.5862 Z.7606
N5890 X-2.199 Y-.2957 Z.7553
N5900 X-2.2188 Y0. Z.75
N5910 X-2.199 Y.2957 Z.7447
N5920 X-2.1399 Y.5862 Z.7394
N5930 X-2.0427 Y.8662 Z.734
N5940 X-1.909 Y1.1307 Z.7287
N5950 X-1.7413 Y1.3751 Z.7234
N5960 X-1.5425 Y1.5949 Z.7181
N5970 X-1.3161 Y1.7862 Z.7128
N5980 X-1.0663 Y1.9457 Z.7074
N5990 X-.7974 Y2.0705 Z.7021
N6000 X-.5144 Y2.1583 Z.6968
N6010 X-.2221 Y2.2076 Z.6915
N6020 X.0741 Y2.2175 Z.6862
N6030 X.369 Y2.1878 Z.6809
N6040 X.6574 Y2.1191 Z.6755
N6050 X.9339 Y2.0126 Z.6702
N6060 X1.1939 Y1.8702 Z.6649
N6070 X1.4325 Y1.6944 Z.6596
N6080 X1.6455 Y1.4883 Z.6543
N6090 X1.8292 Y1.2557 Z.6489
N6100 X1.9803 Y1.0007 Z.6436
N6110 X2.096 Y.7278 Z.6383
N6120 X2.1743 Y.4419 Z.633
N6130 X2.2138 Y.1482 Z.6277
N6140 Y-.1482 Z.6223
N6150 X2.1743 Y-.4419 Z.617
N6160 X2.096 Y-.7278 Z.6117
N6170 X1.9803 Y-1.0007 Z.6064
N6180 X1.8292 Y-1.2557 Z.6011
N6190 X1.6455 Y-1.4883 Z.5957
N6200 X1.4325 Y-1.6944 Z.5904
N6210 X1.1939 Y-1.8702 Z.5851
N6220 X.9339 Y-2.0126 Z.5798
N6230 X.6574 Y-2.1191 Z.5745
N6240 X.369 Y-2.1878 Z.5691
N6250 X.0741 Y-2.2175 Z.5638
N6260 X-.2221 Y-2.2076 Z.5585
N6270 X-.5144 Y-2.1583 Z.5532
N6280 X-.7974 Y-2.0705 Z.5479
N6290 X-1.0663 Y-1.9457 Z.5426
N6300 X-1.3161 Y-1.7862 Z.5372
N6310 X-1.5425 Y-1.5949 Z.5319
N6320 X-1.7413 Y-1.3751 Z.5266
N6330 X-1.909 Y-1.1307 Z.5213
N6340 X-2.0427 Y-.8662 Z.516
N6350 X-2.1399 Y-.5862 Z.5106
N6360 X-2.199 Y-.2957 Z.5053
N6370 X-2.2188 Y0. Z.5
N6380 X-2.199 Y.2957 Z.4947
N6390 X-2.1399 Y.5862 Z.4894
N6400 X-2.0427 Y.8662 Z.484
N6410 X-1.909 Y1.1307 Z.4787
N6420 X-1.7413 Y1.3751 Z.4734
N6430 X-1.5425 Y1.5949 Z.4681
N6440 X-1.3161 Y1.7862 Z.4628
N6450 X-1.0663 Y1.9457 Z.4574
N6460 X-.7974 Y2.0705 Z.4521
N6470 X-.5144 Y2.1583 Z.4468
N6480 X-.2221 Y2.2076 Z.4415
N6490 X.0741 Y2.2175 Z.4362
N6500 X.369 Y2.1878 Z.4309
N6510 X.6574 Y2.1191 Z.4255
N6520 X.9339 Y2.0126 Z.4202
N6530 X1.1939 Y1.8702 Z.4149
N6540 X1.4325 Y1.6944 Z.4096
N6550 X1.6455 Y1.4883 Z.4043
N6560 X1.8292 Y1.2557 Z.3989
N6570 X1.9803 Y1.0007 Z.3936
N6580 X2.096 Y.7278 Z.3883
N6590 X2.1743 Y.4419 Z.383
N6600 X2.2138 Y.1482 Z.3777
N6610 Y-.1482 Z.3723
N6620 X2.1743 Y-.4419 Z.367
N6630 X2.096 Y-.7278 Z.3617
N6640 X1.9803 Y-1.0007 Z.3564
N6650 X1.8292 Y-1.2557 Z.3511
N6660 X1.6455 Y-1.4883 Z.3457
N6670 X1.4325 Y-1.6944 Z.3404
N6680 X1.1939 Y-1.8702 Z.3351
N6690 X.9339 Y-2.0126 Z.3298
N6700 X.6574 Y-2.1191 Z.3245
N6710 X.369 Y-2.1878 Z.3191
N6720 X.0741 Y-2.2175 Z.3138
N6730 X-.2221 Y-2.2076 Z.3085
N6740 X-.5144 Y-2.1583 Z.3032
N6750 X-.7974 Y-2.0705 Z.2979
N6760 X-1.0663 Y-1.9457 Z.2926
N6770 X-1.3161 Y-1.7862 Z.2872
N6780 X-1.5425 Y-1.5949 Z.2819
N6790 X-1.7413 Y-1.3751 Z.2766
N6800 X-1.909 Y-1.1307 Z.2713
N6810 X-2.0427 Y-.8662 Z.266
N6820 X-2.1399 Y-.5862 Z.2606
N6830 X-2.199 Y-.2957 Z.2553
N6840 X-2.2188 Y0. Z.25
N6850 X-2.199 Y.2957 Z.2447
N6860 X-2.1399 Y.5862 Z.2394
N6870 X-2.0427 Y.8662 Z.234
N6880 X-1.909 Y1.1307 Z.2287
N6890 X-1.7413 Y1.3751 Z.2234
N6900 X-1.5425 Y1.5949 Z.2181
N6910 X-1.3161 Y1.7862 Z.2128
N6920 X-1.0663 Y1.9457 Z.2074
N6930 X-.7974 Y2.0705 Z.2021
N6940 X-.5144 Y2.1583 Z.1968
N6950 X-.2221 Y2.2076 Z.1915
N6960 X.0741 Y2.2175 Z.1862
N6970 X.369 Y2.1878 Z.1809
N6980 X.6574 Y2.1191 Z.1755
N6990 X.9339 Y2.0126 Z.1702
N7000 X1.1939 Y1.8702 Z.1649
N7010 X1.4325 Y1.6944 Z.1596
N7020 X1.6455 Y1.4883 Z.1543
N7030 X1.8292 Y1.2557 Z.1489
N7040 X1.9803 Y1.0007 Z.1436
N7050 X2.096 Y.7278 Z.1383
N7060 X2.1743 Y.4419 Z.133
N7070 X2.2138 Y.1482 Z.1277
N7080 Y-.1482 Z.1223
N7090 X2.1743 Y-.4419 Z.117
N7100 X2.096 Y-.7278 Z.1117
N7110 X1.9803 Y-1.0007 Z.1064
N7120 X1.8292 Y-1.2557 Z.1011
N7130 X1.6455 Y-1.4883 Z.0957
N7140 X1.4325 Y-1.6944 Z.0904
N7150 X1.1939 Y-1.8702 Z.0851
N7160 X.9339 Y-2.0126 Z.0798
N7170 X.6574 Y-2.1191 Z.0745
N7180 X.369 Y-2.1878 Z.0691
N7190 X.0741 Y-2.2175 Z.0638
N7200 X-.2221 Y-2.2076 Z.0585
N7210 X-.5144 Y-2.1583 Z.0532
N7220 X-.7974 Y-2.0705 Z.0479
N7230 X-1.0663 Y-1.9457 Z.0426
N7240 X-1.3161 Y-1.7862 Z.0372
N7250 X-1.5425 Y-1.5949 Z.0319
N7260 X-1.7413 Y-1.3751 Z.0266
N7270 X-1.909 Y-1.1307 Z.0213
N7280 X-2.0427 Y-.8662 Z.016
N7290 X-2.1399 Y-.5862 Z.0106
N7300 X-2.199 Y-.2957 Z.0053
N7310 X-2.2188 Y0. Z0.
N7320 X-2.3607
N7330 Z1.75
N7340 G0 X-2.3527
N7350 G1 Z1.25 ;F6.42
N7360 X-2.2107
N7370 X-2.191 Y.2947 Z1.2447
N7380 X-2.1322 Y.5841 Z1.2394
N7390 X-2.0353 Y.8631 Z1.234
N7400 X-1.9021 Y1.1266 Z1.2287
N7410 X-1.735 Y1.3701 Z1.2234
N7420 X-1.5369 Y1.5891 Z1.2181
N7430 X-1.3114 Y1.7798 Z1.2128
N7440 X-1.0624 Y1.9387 Z1.2074
N7450 X-.7946 Y2.063 Z1.2021
N7460 X-.5125 Y2.1505 Z1.1968
N7470 X-.2213 Y2.1996 Z1.1915
N7480 X.0739 Y2.2095 Z1.1862
N7490 X.3677 Y2.18 Z1.1809
N7500 X.655 Y2.1115 Z1.1755
N7510 X.9306 Y2.0054 Z1.1702
N7520 X1.1896 Y1.8634 Z1.1649
N7530 X1.4273 Y1.6882 Z1.1596
N7540 X1.6396 Y1.4829 Z1.1543
N7550 X1.8226 Y1.2512 Z1.1489
N7560 X1.9731 Y.9971 Z1.1436
N7570 X2.0884 Y.7252 Z1.1383
N7580 X2.1665 Y.4404 Z1.133
N7590 X2.2058 Y.1477 Z1.1277
N7600 Y-.1477 Z1.1223
N7610 X2.1665 Y-.4404 Z1.117
N7620 X2.0884 Y-.7252 Z1.1117
N7630 X1.9731 Y-.9971 Z1.1064
N7640 X1.8226 Y-1.2512 Z1.1011
N7650 X1.6396 Y-1.4829 Z1.0957
N7660 X1.4273 Y-1.6882 Z1.0904
N7670 X1.1896 Y-1.8634 Z1.0851
N7680 X.9306 Y-2.0054 Z1.0798
N7690 X.655 Y-2.1115 Z1.0745
N7700 X.3677 Y-2.18 Z1.0691
N7710 X.0739 Y-2.2095 Z1.0638
N7720 X-.2213 Y-2.1996 Z1.0585
N7730 X-.5125 Y-2.1505 Z1.0532
N7740 X-.7946 Y-2.063 Z1.0479
N7750 X-1.0624 Y-1.9387 Z1.0426
N7760 X-1.3114 Y-1.7798 Z1.0372
N7770 X-1.5369 Y-1.5891 Z1.0319
N7780 X-1.735 Y-1.3701 Z1.0266
N7790 X-1.9021 Y-1.1266 Z1.0213
N7800 X-2.0353 Y-.8631 Z1.016
N7810 X-2.1322 Y-.5841 Z1.0106
N7820 X-2.191 Y-.2947 Z1.0053
N7830 X-2.2107 Y0. Z1.
N7840 X-2.191 Y.2947 Z.9947
N7850 X-2.1322 Y.5841 Z.9894
N7860 X-2.0353 Y.8631 Z.984
N7870 X-1.9021 Y1.1266 Z.9787
N7880 X-1.735 Y1.3701 Z.9734
N7890 X-1.5369 Y1.5891 Z.9681
N7900 X-1.3114 Y1.7798 Z.9628
N7910 X-1.0624 Y1.9387 Z.9574
N7920 X-.7946 Y2.063 Z.9521
N7930 X-.5125 Y2.1505 Z.9468
N7940 X-.2213 Y2.1996 Z.9415
N7950 X.0739 Y2.2095 Z.9362
N7960 X.3677 Y2.18 Z.9309
N7970 X.655 Y2.1115 Z.9255
N7980 X.9306 Y2.0054 Z.9202
N7990 X1.1896 Y1.8634 Z.9149
N8000 X1.4273 Y1.6882 Z.9096
N8010 X1.6396 Y1.4829 Z.9043
N8020 X1.8226 Y1.2512 Z.8989
N8030 X1.9731 Y.9971 Z.8936
N8040 X2.0884 Y.7252 Z.8883
N8050 X2.1665 Y.4404 Z.883
N8060 X2.2058 Y.1477 Z.8777
N8070 Y-.1477 Z.8723
N8080 X2.1665 Y-.4404 Z.867
N8090 X2.0884 Y-.7252 Z.8617
N8100 X1.9731 Y-.9971 Z.8564
N8110 X1.8226 Y-1.2512 Z.8511
N8120 X1.6396 Y-1.4829 Z.8457
N8130 X1.4273 Y-1.6882 Z.8404
N8140 X1.1896 Y-1.8634 Z.8351
N8150 X.9306 Y-2.0054 Z.8298
N8160 X.655 Y-2.1115 Z.8245
N8170 X.3677 Y-2.18 Z.8191
N8180 X.0739 Y-2.2095 Z.8138
N8190 X-.2213 Y-2.1996 Z.8085
N8200 X-.5125 Y-2.1505 Z.8032
N8210 X-.7946 Y-2.063 Z.7979
N8220 X-1.0624 Y-1.9387 Z.7926
N8230 X-1.3114 Y-1.7798 Z.7872
N8240 X-1.5369 Y-1.5891 Z.7819
N8250 X-1.735 Y-1.3701 Z.7766
N8260 X-1.9021 Y-1.1266 Z.7713
N8270 X-2.0353 Y-.8631 Z.766
N8280 X-2.1322 Y-.5841 Z.7606
N8290 X-2.191 Y-.2947 Z.7553
N8300 X-2.2107 Y0. Z.75
N8310 X-2.191 Y.2947 Z.7447
N8320 X-2.1322 Y.5841 Z.7394
N8330 X-2.0353 Y.8631 Z.734
N8340 X-1.9021 Y1.1266 Z.7287
N8350 X-1.735 Y1.3701 Z.7234
N8360 X-1.5369 Y1.5891 Z.7181
N8370 X-1.3114 Y1.7798 Z.7128
N8380 X-1.0624 Y1.9387 Z.7074
N8390 X-.7946 Y2.063 Z.7021
N8400 X-.5125 Y2.1505 Z.6968
N8410 X-.2213 Y2.1996 Z.6915
N8420 X.0739 Y2.2095 Z.6862
N8430 X.3677 Y2.18 Z.6809
N8440 X.655 Y2.1115 Z.6755
N8450 X.9306 Y2.0054 Z.6702
N8460 X1.1896 Y1.8634 Z.6649
N8470 X1.4273 Y1.6882 Z.6596
N8480 X1.6396 Y1.4829 Z.6543
N8490 X1.8226 Y1.2512 Z.6489
N8500 X1.9731 Y.9971 Z.6436
N8510 X2.0884 Y.7252 Z.6383
N8520 X2.1665 Y.4404 Z.633
N8530 X2.2058 Y.1477 Z.6277
N8540 Y-.1477 Z.6223
N8550 X2.1665 Y-.4404 Z.617
N8560 X2.0884 Y-.7252 Z.6117
N8570 X1.9731 Y-.9971 Z.6064
N8580 X1.8226 Y-1.2512 Z.6011
N8590 X1.6396 Y-1.4829 Z.5957
N8600 X1.4273 Y-1.6882 Z.5904
N8610 X1.1896 Y-1.8634 Z.5851
N8620 X.9306 Y-2.0054 Z.5798
N8630 X.655 Y-2.1115 Z.5745
N8640 X.3677 Y-2.18 Z.5691
N8650 X.0739 Y-2.2095 Z.5638
N8660 X-.2213 Y-2.1996 Z.5585
N8670 X-.5125 Y-2.1505 Z.5532
N8680 X-.7946 Y-2.063 Z.5479
N8690 X-1.0624 Y-1.9387 Z.5426
N8700 X-1.3114 Y-1.7798 Z.5372
N8710 X-1.5369 Y-1.5891 Z.5319
N8720 X-1.735 Y-1.3701 Z.5266
N8730 X-1.9021 Y-1.1266 Z.5213
N8740 X-2.0353 Y-.8631 Z.516
N8750 X-2.1322 Y-.5841 Z.5106
N8760 X-2.191 Y-.2947 Z.5053
N8770 X-2.2107 Y0. Z.5
N8780 X-2.191 Y.2947 Z.4947
N8790 X-2.1322 Y.5841 Z.4894
N8800 X-2.0353 Y.8631 Z.484
N8810 X-1.9021 Y1.1266 Z.4787
N8820 X-1.735 Y1.3701 Z.4734
N8830 X-1.5369 Y1.5891 Z.4681
N8840 X-1.3114 Y1.7798 Z.4628
N8850 X-1.0624 Y1.9387 Z.4574
N8860 X-.7946 Y2.063 Z.4521
N8870 X-.5125 Y2.1505 Z.4468
N8880 X-.2213 Y2.1996 Z.4415
N8890 X.0739 Y2.2095 Z.4362
N8900 X.3677 Y2.18 Z.4309
N8910 X.655 Y2.1115 Z.4255
N8920 X.9306 Y2.0054 Z.4202
N8930 X1.1896 Y1.8634 Z.4149
N8940 X1.4273 Y1.6882 Z.4096
N8950 X1.6396 Y1.4829 Z.4043
N8960 X1.8226 Y1.2512 Z.3989
N8970 X1.9731 Y.9971 Z.3936
N8980 X2.0884 Y.7252 Z.3883
N8990 X2.1665 Y.4404 Z.383
N9000 X2.2058 Y.1477 Z.3777
N9010 Y-.1477 Z.3723
N9020 X2.1665 Y-.4404 Z.367
N9030 X2.0884 Y-.7252 Z.3617
N9040 X1.9731 Y-.9971 Z.3564
N9050 X1.8226 Y-1.2512 Z.3511
N9060 X1.6396 Y-1.4829 Z.3457
N9070 X1.4273 Y-1.6882 Z.3404
N9080 X1.1896 Y-1.8634 Z.3351
N9090 X.9306 Y-2.0054 Z.3298
N9100 X.655 Y-2.1115 Z.3245
N9110 X.3677 Y-2.18 Z.3191
N9120 X.0739 Y-2.2095 Z.3138
N9130 X-.2213 Y-2.1996 Z.3085
N9140 X-.5125 Y-2.1505 Z.3032
N9150 X-.7946 Y-2.063 Z.2979
N9160 X-1.0624 Y-1.9387 Z.2926
N9170 X-1.3114 Y-1.7798 Z.2872
N9180 X-1.5369 Y-1.5891 Z.2819
N9190 X-1.735 Y-1.3701 Z.2766
N9200 X-1.9021 Y-1.1266 Z.2713
N9210 X-2.0353 Y-.8631 Z.266
N9220 X-2.1322 Y-.5841 Z.2606
N9230 X-2.191 Y-.2947 Z.2553
N9240 X-2.2107 Y0. Z.25
N9250 X-2.191 Y.2947 Z.2447
N9260 X-2.1322 Y.5841 Z.2394
N9270 X-2.0353 Y.8631 Z.234
N9280 X-1.9021 Y1.1266 Z.2287
N9290 X-1.735 Y1.3701 Z.2234
N9300 X-1.5369 Y1.5891 Z.2181
N9310 X-1.3114 Y1.7798 Z.2128
N9320 X-1.0624 Y1.9387 Z.2074
N9330 X-.7946 Y2.063 Z.2021
N9340 X-.5125 Y2.1505 Z.1968
N9350 X-.2213 Y2.1996 Z.1915
N9360 X.0739 Y2.2095 Z.1862
N9370 X.3677 Y2.18 Z.1809
N9380 X.655 Y2.1115 Z.1755
N9390 X.9306 Y2.0054 Z.1702
N9400 X1.1896 Y1.8634 Z.1649
N9410 X1.4273 Y1.6882 Z.1596
N9420 X1.6396 Y1.4829 Z.1543
N9430 X1.8226 Y1.2512 Z.1489
N9440 X1.9731 Y.9971 Z.1436
N9450 X2.0884 Y.7252 Z.1383
N9460 X2.1665 Y.4404 Z.133
N9470 X2.2058 Y.1477 Z.1277
N9480 Y-.1477 Z.1223
N9490 X2.1665 Y-.4404 Z.117
N9500 X2.0884 Y-.7252 Z.1117
N9510 X1.9731 Y-.9971 Z.1064
N9520 X1.8226 Y-1.2512 Z.1011
N9530 X1.6396 Y-1.4829 Z.0957
N9540 X1.4273 Y-1.6882 Z.0904
N9550 X1.1896 Y-1.8634 Z.0851
N9560 X.9306 Y-2.0054 Z.0798
N9570 X.655 Y-2.1115 Z.0745
N9580 X.3677 Y-2.18 Z.0691
N9590 X.0739 Y-2.2095 Z.0638
N9600 X-.2213 Y-2.1996 Z.0585
N9610 X-.5125 Y-2.1505 Z.0532
N9620 X-.7946 Y-2.063 Z.0479
N9630 X-1.0624 Y-1.9387 Z.0426
N9640 X-1.3114 Y-1.7798 Z.0372
N9650 X-1.5369 Y-1.5891 Z.0319
N9660 X-1.735 Y-1.3701 Z.0266
N9670 X-1.9021 Y-1.1266 Z.0213
N9680 X-2.0353 Y-.8631 Z.016
N9690 X-2.1322 Y-.5841 Z.0106
N9700 X-2.191 Y-.2947 Z.0053
N9710 X-2.2107 Y0. Z0.
N9720 X-2.3527
N9730 Z1.75
N9740 G0 X-2.3447
N9750 G1 Z1.25 ;F6.42
N9760 X-2.2027
N9770 X-2.1831 Y.2936 Z1.2447
N9780 X-2.1245 Y.582 Z1.2394
N9790 X-2.028 Y.8599 Z1.234
N9800 X-1.8952 Y1.1226 Z1.2287
N9810 X-1.7287 Y1.3652 Z1.2234
N9820 X-1.5313 Y1.5834 Z1.2181
N9830 X-1.3066 Y1.7734 Z1.2128
N9840 X-1.0586 Y1.9317 Z1.2074
N9850 X-.7917 Y2.0556 Z1.2021
N9860 X-.5106 Y2.1427 Z1.1968
N9870 X-.2205 Y2.1917 Z1.1915
N9880 X.0736 Y2.2015 Z1.1862
N9890 X.3664 Y2.1721 Z1.1809
N9900 X.6526 Y2.1039 Z1.1755
N9910 X.9272 Y1.9981 Z1.1702
N9920 X1.1853 Y1.8567 Z1.1649
N9930 X1.4222 Y1.6821 Z1.1596
N9940 X1.6337 Y1.4776 Z1.1543
N9950 X1.816 Y1.2466 Z1.1489
N9960 X1.966 Y.9935 Z1.1436
N9970 X2.0809 Y.7226 Z1.1383
N9980 X2.1586 Y.4388 Z1.133
N9990 X2.1978 Y.1471 Z1.1277
N100 Y-.1471 Z1.1223
N110 X2.1586 Y-.4388 Z1.117
N120 X2.0809 Y-.7226 Z1.1117
N130 X1.966 Y-.9935 Z1.1064
N140 X1.816 Y-1.2466 Z1.1011
N150 X1.6337 Y-1.4776 Z1.0957
N160 X1.4222 Y-1.6821 Z1.0904
N170 X1.1853 Y-1.8567 Z1.0851
N180 X.9272 Y-1.9981 Z1.0798
N190 X.6526 Y-2.1039 Z1.0745
N200 X.3664 Y-2.1721 Z1.0691
N210 X.0736 Y-2.2015 Z1.0638
N220 X-.2205 Y-2.1917 Z1.0585
N230 X-.5106 Y-2.1427 Z1.0532
N240 X-.7917 Y-2.0556 Z1.0479
N250 X-1.0586 Y-1.9317 Z1.0426
N260 X-1.3066 Y-1.7734 Z1.0372
N270 X-1.5313 Y-1.5834 Z1.0319
N280 X-1.7287 Y-1.3652 Z1.0266
N290 X-1.8952 Y-1.1226 Z1.0213
N300 X-2.028 Y-.8599 Z1.016
N310 X-2.1245 Y-.582 Z1.0106
N320 X-2.1831 Y-.2936 Z1.0053
N330 X-2.2027 Y0. Z1.
N340 X-2.1831 Y.2936 Z.9947
N350 X-2.1245 Y.582 Z.9894
N360 X-2.028 Y.8599 Z.984
N370 X-1.8952 Y1.1226 Z.9787
N380 X-1.7287 Y1.3652 Z.9734
N390 X-1.5313 Y1.5834 Z.9681
N400 X-1.3066 Y1.7734 Z.9628
N410 X-1.0586 Y1.9317 Z.9574
N420 X-.7917 Y2.0556 Z.9521
N430 X-.5106 Y2.1427 Z.9468
N440 X-.2205 Y2.1917 Z.9415
N450 X.0736 Y2.2015 Z.9362
N460 X.3664 Y2.1721 Z.9309
N470 X.6526 Y2.1039 Z.9255
N480 X.9272 Y1.9981 Z.9202
N490 X1.1853 Y1.8567 Z.9149
N500 X1.4222 Y1.6821 Z.9096
N510 X1.6337 Y1.4776 Z.9043
N520 X1.816 Y1.2466 Z.8989
N530 X1.966 Y.9935 Z.8936
N540 X2.0809 Y.7226 Z.8883
N550 X2.1586 Y.4388 Z.883
N560 X2.1978 Y.1471 Z.8777
N570 Y-.1471 Z.8723
N580 X2.1586 Y-.4388 Z.867
N590 X2.0809 Y-.7226 Z.8617
N600 X1.966 Y-.9935 Z.8564
N610 X1.816 Y-1.2466 Z.8511
N620 X1.6337 Y-1.4776 Z.8457
N630 X1.4222 Y-1.6821 Z.8404
N640 X1.1853 Y-1.8567 Z.8351
N650 X.9272 Y-1.9981 Z.8298
N660 X.6526 Y-2.1039 Z.8245
N670 X.3664 Y-2.1721 Z.8191
N680 X.0736 Y-2.2015 Z.8138
N690 X-.2205 Y-2.1917 Z.8085
N700 X-.5106 Y-2.1427 Z.8032
N710 X-.7917 Y-2.0556 Z.7979
N720 X-1.0586 Y-1.9317 Z.7926
N730 X-1.3066 Y-1.7734 Z.7872
N740 X-1.5313 Y-1.5834 Z.7819
N750 X-1.7287 Y-1.3652 Z.7766
N760 X-1.8952 Y-1.1226 Z.7713
N770 X-2.028 Y-.8599 Z.766
N780 X-2.1245 Y-.582 Z.7606
N790 X-2.1831 Y-.2936 Z.7553
N800 X-2.2027 Y0. Z.75
N810 X-2.1831 Y.2936 Z.7447
N820 X-2.1245 Y.582 Z.7394
N830 X-2.028 Y.8599 Z.734
N840 X-1.8952 Y1.1226 Z.7287
N850 X-1.7287 Y1.3652 Z.7234
N860 X-1.5313 Y1.5834 Z.7181
N870 X-1.3066 Y1.7734 Z.7128
N880 X-1.0586 Y1.9317 Z.7074
N890 X-.7917 Y2.0556 Z.7021
N900 X-.5106 Y2.1427 Z.6968
N910 X-.2205 Y2.1917 Z.6915
N920 X.0736 Y2.2015 Z.6862
N930 X.3664 Y2.1721 Z.6809
N940 X.6526 Y2.1039 Z.6755
N950 X.9272 Y1.9981 Z.6702
N960 X1.1853 Y1.8567 Z.6649
N970 X1.4222 Y1.6821 Z.6596
N980 X1.6337 Y1.4776 Z.6543
N990 X1.816 Y1.2466 Z.6489
N1000 X1.966 Y.9935 Z.6436
N1010 X2.0809 Y.7226 Z.6383
N1020 X2.1586 Y.4388 Z.633
N1030 X2.1978 Y.1471 Z.6277
N1040 Y-.1471 Z.6223
N1050 X2.1586 Y-.4388 Z.617
N1060 X2.0809 Y-.7226 Z.6117
N1070 X1.966 Y-.9935 Z.6064
N1080 X1.816 Y-1.2466 Z.6011
N1090 X1.6337 Y-1.4776 Z.5957
N1100 X1.4222 Y-1.6821 Z.5904
N1110 X1.1853 Y-1.8567 Z.5851
N1120 X.9272 Y-1.9981 Z.5798
N1130 X.6526 Y-2.1039 Z.5745
N1140 X.3664 Y-2.1721 Z.5691
N1150 X.0736 Y-2.2015 Z.5638
N1160 X-.2205 Y-2.1917 Z.5585
N1170 X-.5106 Y-2.1427 Z.5532
N1180 X-.7917 Y-2.0556 Z.5479
N1190 X-1.0586 Y-1.9317 Z.5426
N1200 X-1.3066 Y-1.7734 Z.5372
N1210 X-1.5313 Y-1.5834 Z.5319
N1220 X-1.7287 Y-1.3652 Z.5266
N1230 X-1.8952 Y-1.1226 Z.5213
N1240 X-2.028 Y-.8599 Z.516
N1250 X-2.1245 Y-.582 Z.5106
N1260 X-2.1831 Y-.2936 Z.5053
N1270 X-2.2027 Y0. Z.5
N1280 X-2.1831 Y.2936 Z.4947
N1290 X-2.1245 Y.582 Z.4894
N1300 X-2.028 Y.8599 Z.484
N1310 X-1.8952 Y1.1226 Z.4787
N1320 X-1.7287 Y1.3652 Z.4734
N1330 X-1.5313 Y1.5834 Z.4681
N1340 X-1.3066 Y1.7734 Z.4628
N1350 X-1.0586 Y1.9317 Z.4574
N1360 X-.7917 Y2.0556 Z.4521
N1370 X-.5106 Y2.1427 Z.4468
N1380 X-.2205 Y2.1917 Z.4415
N1390 X.0736 Y2.2015 Z.4362
N1400 X.3664 Y2.1721 Z.4309
N1410 X.6526 Y2.1039 Z.4255
N1420 X.9272 Y1.9981 Z.4202
N1430 X1.1853 Y1.8567 Z.4149
N1440 X1.4222 Y1.6821 Z.4096
N1450 X1.6337 Y1.4776 Z.4043
N1460 X1.816 Y1.2466 Z.3989
N1470 X1.966 Y.9935 Z.3936
N1480 X2.0809 Y.7226 Z.3883
N1490 X2.1586 Y.4388 Z.383
N1500 X2.1978 Y.1471 Z.3777
N1510 Y-.1471 Z.3723
N1520 X2.1586 Y-.4388 Z.367
N1530 X2.0809 Y-.7226 Z.3617
N1540 X1.966 Y-.9935 Z.3564
N1550 X1.816 Y-1.2466 Z.3511
N1560 X1.6337 Y-1.4776 Z.3457
N1570 X1.4222 Y-1.6821 Z.3404
N1580 X1.1853 Y-1.8567 Z.3351
N1590 X.9272 Y-1.9981 Z.3298
N1600 X.6526 Y-2.1039 Z.3245
N1610 X.3664 Y-2.1721 Z.3191
N1620 X.0736 Y-2.2015 Z.3138
N1630 X-.2205 Y-2.1917 Z.3085
N1640 X-.5106 Y-2.1427 Z.3032
N1650 X-.7917 Y-2.0556 Z.2979
N1660 X-1.0586 Y-1.9317 Z.2926
N1670 X-1.3066 Y-1.7734 Z.2872
N1680 X-1.5313 Y-1.5834 Z.2819
N1690 X-1.7287 Y-1.3652 Z.2766
N1700 X-1.8952 Y-1.1226 Z.2713
N1710 X-2.028 Y-.8599 Z.266
N1720 X-2.1245 Y-.582 Z.2606
N1730 X-2.1831 Y-.2936 Z.2553
N1740 X-2.2027 Y0. Z.25
N1750 X-2.1831 Y.2936 Z.2447
N1760 X-2.1245 Y.582 Z.2394
N1770 X-2.028 Y.8599 Z.234
N1780 X-1.8952 Y1.1226 Z.2287
N1790 X-1.7287 Y1.3652 Z.2234
N1800 X-1.5313 Y1.5834 Z.2181
N1810 X-1.3066 Y1.7734 Z.2128
N1820 X-1.0586 Y1.9317 Z.2074
N1830 X-.7917 Y2.0556 Z.2021
N1840 X-.5106 Y2.1427 Z.1968
N1850 X-.2205 Y2.1917 Z.1915
N1860 X.0736 Y2.2015 Z.1862
N1870 X.3664 Y2.1721 Z.1809
N1880 X.6526 Y2.1039 Z.1755
N1890 X.9272 Y1.9981 Z.1702
N1900 X1.1853 Y1.8567 Z.1649
N1910 X1.4222 Y1.6821 Z.1596
N1920 X1.6337 Y1.4776 Z.1543
N1930 X1.816 Y1.2466 Z.1489
N1940 X1.966 Y.9935 Z.1436
N1950 X2.0809 Y.7226 Z.1383
N1960 X2.1586 Y.4388 Z.133
N1970 X2.1978 Y.1471 Z.1277
N1980 Y-.1471 Z.1223
N1990 X2.1586 Y-.4388 Z.117
N2000 X2.0809 Y-.7226 Z.1117
N2010 X1.966 Y-.9935 Z.1064
N2020 X1.816 Y-1.2466 Z.1011
N2030 X1.6337 Y-1.4776 Z.0957
N2040 X1.4222 Y-1.6821 Z.0904
N2050 X1.1853 Y-1.8567 Z.0851
N2060 X.9272 Y-1.9981 Z.0798
N2070 X.6526 Y-2.1039 Z.0745
N2080 X.3664 Y-2.1721 Z.0691
N2090 X.0736 Y-2.2015 Z.0638
N2100 X-.2205 Y-2.1917 Z.0585
N2110 X-.5106 Y-2.1427 Z.0532
N2120 X-.7917 Y-2.0556 Z.0479
N2130 X-1.0586 Y-1.9317 Z.0426
N2140 X-1.3066 Y-1.7734 Z.0372
N2150 X-1.5313 Y-1.5834 Z.0319
N2160 X-1.7287 Y-1.3652 Z.0266
N2170 X-1.8952 Y-1.1226 Z.0213
N2180 X-2.028 Y-.8599 Z.016
N2190 X-2.1245 Y-.582 Z.0106
N2200 X-2.1831 Y-.2936 Z.0053
N2210 X-2.2027 Y0. Z0.
N2220 X-2.3447
N2230 Z1.75
N2240 G0 X-2.3367
N2250 G1 Z1.25 ;F6.42
N2260 X-2.1947
N2270 X-2.1752 Y.2925 Z1.2447
N2280 X-2.1168 Y.5798 Z1.2394
N2290 X-2.0206 Y.8568 Z1.234
N2300 X-1.8884 Y1.1185 Z1.2287
N2310 X-1.7224 Y1.3602 Z1.2234
N2320 X-1.5258 Y1.5776 Z1.2181
N2330 X-1.3019 Y1.7669 Z1.2128
N2340 X-1.0548 Y1.9247 Z1.2074
N2350 X-.7888 Y2.0481 Z1.2021
N2360 X-.5088 Y2.135 Z1.1968
N2370 X-.2197 Y2.1837 Z1.1915
N2380 X.0733 Y2.1935 Z1.1862
N2390 X.3651 Y2.1642 Z1.1809
N2400 X.6503 Y2.0962 Z1.1755
N2410 X.9238 Y1.9908 Z1.1702
N2420 X1.181 Y1.8499 Z1.1649
N2430 X1.417 Y1.676 Z1.1596
N2440 X1.6277 Y1.4722 Z1.1543
N2450 X1.8094 Y1.2421 Z1.1489
N2460 X1.9589 Y.9899 Z1.1436
N2470 X2.0733 Y.7199 Z1.1383
N2480 X2.1508 Y.4372 Z1.133
N2490 X2.1898 Y.1466 Z1.1277
N2500 Y-.1466 Z1.1223
N2510 X2.1508 Y-.4372 Z1.117
N2520 X2.0733 Y-.7199 Z1.1117
N2530 X1.9589 Y-.9899 Z1.1064
N2540 X1.8094 Y-1.2421 Z1.1011
N2550 X1.6277 Y-1.4722 Z1.0957
N2560 X1.417 Y-1.676 Z1.0904
N2570 X1.181 Y-1.8499 Z1.0851
N2580 X.9238 Y-1.9908 Z1.0798
N2590 X.6503 Y-2.0962 Z1.0745
N2600 X.3651 Y-2.1642 Z1.0691
N2610 X.0733 Y-2.1935 Z1.0638
N2620 X-.2197 Y-2.1837 Z1.0585
N2630 X-.5088 Y-2.135 Z1.0532
N2640 X-.7888 Y-2.0481 Z1.0479
N2650 X-1.0548 Y-1.9247 Z1.0426
N2660 X-1.3019 Y-1.7669 Z1.0372
N2670 X-1.5258 Y-1.5776 Z1.0319
N2680 X-1.7224 Y-1.3602 Z1.0266
N2690 X-1.8884 Y-1.1185 Z1.0213
N2700 X-2.0206 Y-.8568 Z1.016
N2710 X-2.1168 Y-.5798 Z1.0106
N2720 X-2.1752 Y-.2925 Z1.0053
N2730 X-2.1947 Y0. Z1.
N2740 X-2.1752 Y.2925 Z.9947
N2750 X-2.1168 Y.5798 Z.9894
N2760 X-2.0206 Y.8568 Z.984
N2770 X-1.8884 Y1.1185 Z.9787
N2780 X-1.7224 Y1.3602 Z.9734
N2790 X-1.5258 Y1.5776 Z.9681
N2800 X-1.3019 Y1.7669 Z.9628
N2810 X-1.0548 Y1.9247 Z.9574
N2820 X-.7888 Y2.0481 Z.9521
N2830 X-.5088 Y2.135 Z.9468
N2840 X-.2197 Y2.1837 Z.9415
N2850 X.0733 Y2.1935 Z.9362
N2860 X.3651 Y2.1642 Z.9309
N2870 X.6503 Y2.0962 Z.9255
N2880 X.9238 Y1.9908 Z.9202
N2890 X1.181 Y1.8499 Z.9149
N2900 X1.417 Y1.676 Z.9096
N2910 X1.6277 Y1.4722 Z.9043
N2920 X1.8094 Y1.2421 Z.8989
N2930 X1.9589 Y.9899 Z.8936
N2940 X2.0733 Y.7199 Z.8883
N2950 X2.1508 Y.4372 Z.883
N2960 X2.1898 Y.1466 Z.8777
N2970 Y-.1466 Z.8723
N2980 X2.1508 Y-.4372 Z.867
N2990 X2.0733 Y-.7199 Z.8617
N3000 X1.9589 Y-.9899 Z.8564
N3010 X1.8094 Y-1.2421 Z.8511
N3020 X1.6277 Y-1.4722 Z.8457
N3030 X1.417 Y-1.676 Z.8404
N3040 X1.181 Y-1.8499 Z.8351
N3050 X.9238 Y-1.9908 Z.8298
N3060 X.6503 Y-2.0962 Z.8245
N3070 X.3651 Y-2.1642 Z.8191
N3080 X.0733 Y-2.1935 Z.8138
N3090 X-.2197 Y-2.1837 Z.8085
N3100 X-.5088 Y-2.135 Z.8032
N3110 X-.7888 Y-2.0481 Z.7979
N3120 X-1.0548 Y-1.9247 Z.7926
N3130 X-1.3019 Y-1.7669 Z.7872
N3140 X-1.5258 Y-1.5776 Z.7819
N3150 X-1.7224 Y-1.3602 Z.7766
N3160 X-1.8884 Y-1.1185 Z.7713
N3170 X-2.0206 Y-.8568 Z.766
N3180 X-2.1168 Y-.5798 Z.7606
N3190 X-2.1752 Y-.2925 Z.7553
N3200 X-2.1947 Y0. Z.75
N3210 X-2.1752 Y.2925 Z.7447
N3220 X-2.1168 Y.5798 Z.7394
N3230 X-2.0206 Y.8568 Z.734
N3240 X-1.8884 Y1.1185 Z.7287
N3250 X-1.7224 Y1.3602 Z.7234
N3260 X-1.5258 Y1.5776 Z.7181
N3270 X-1.3019 Y1.7669 Z.7128
N3280 X-1.0548 Y1.9247 Z.7074
N3290 X-.7888 Y2.0481 Z.7021
N3300 X-.5088 Y2.135 Z.6968
N3310 X-.2197 Y2.1837 Z.6915
N3320 X.0733 Y2.1935 Z.6862
N3330 X.3651 Y2.1642 Z.6809
N3340 X.6503 Y2.0962 Z.6755
N3350 X.9238 Y1.9908 Z.6702
N3360 X1.181 Y1.8499 Z.6649
N3370 X1.417 Y1.676 Z.6596
N3380 X1.6277 Y1.4722 Z.6543
N3390 X1.8094 Y1.2421 Z.6489
N3400 X1.9589 Y.9899 Z.6436
N3410 X2.0733 Y.7199 Z.6383
N3420 X2.1508 Y.4372 Z.633
N3430 X2.1898 Y.1466 Z.6277
N3440 Y-.1466 Z.6223
N3450 X2.1508 Y-.4372 Z.617
N3460 X2.0733 Y-.7199 Z.6117
N3470 X1.9589 Y-.9899 Z.6064
N3480 X1.8094 Y-1.2421 Z.6011
N3490 X1.6277 Y-1.4722 Z.5957
N3500 X1.417 Y-1.676 Z.5904
N3510 X1.181 Y-1.8499 Z.5851
N3520 X.9238 Y-1.9908 Z.5798
N3530 X.6503 Y-2.0962 Z.5745
N3540 X.3651 Y-2.1642 Z.5691
N3550 X.0733 Y-2.1935 Z.5638
N3560 X-.2197 Y-2.1837 Z.5585
N3570 X-.5088 Y-2.135 Z.5532
N3580 X-.7888 Y-2.0481 Z.5479
N3590 X-1.0548 Y-1.9247 Z.5426
N3600 X-1.3019 Y-1.7669 Z.5372
N3610 X-1.5258 Y-1.5776 Z.5319
N3620 X-1.7224 Y-1.3602 Z.5266
N3630 X-1.8884 Y-1.1185 Z.5213
N3640 X-2.0206 Y-.8568 Z.516
N3650 X-2.1168 Y-.5798 Z.5106
N3660 X-2.1752 Y-.2925 Z.5053
N3670 X-2.1947 Y0. Z.5
N3680 X-2.1752 Y.2925 Z.4947
N3690 X-2.1168 Y.5798 Z.4894
N3700 X-2.0206 Y.8568 Z.484
N3710 X-1.8884 Y1.1185 Z.4787
N3720 X-1.7224 Y1.3602 Z.4734
N3730 X-1.5258 Y1.5776 Z.4681
N3740 X-1.3019 Y1.7669 Z.4628
N3750 X-1.0548 Y1.9247 Z.4574
N3760 X-.7888 Y2.0481 Z.4521
N3770 X-.5088 Y2.135 Z.4468
N3780 X-.2197 Y2.1837 Z.4415
N3790 X.0733 Y2.1935 Z.4362
N3800 X.3651 Y2.1642 Z.4309
N3810 X.6503 Y2.0962 Z.4255
N3820 X.9238 Y1.9908 Z.4202
N3830 X1.181 Y1.8499 Z.4149
N3840 X1.417 Y1.676 Z.4096
N3850 X1.6277 Y1.4722 Z.4043
N3860 X1.8094 Y1.2421 Z.3989
N3870 X1.9589 Y.9899 Z.3936
N3880 X2.0733 Y.7199 Z.3883
N3890 X2.1508 Y.4372 Z.383
N3900 X2.1898 Y.1466 Z.3777
N3910 Y-.1466 Z.3723
N3920 X2.1508 Y-.4372 Z.367
N3930 X2.0733 Y-.7199 Z.3617
N3940 X1.9589 Y-.9899 Z.3564
N3950 X1.8094 Y-1.2421 Z.3511
N3960 X1.6277 Y-1.4722 Z.3457
N3970 X1.417 Y-1.676 Z.3404
N3980 X1.181 Y-1.8499 Z.3351
N3990 X.9238 Y-1.9908 Z.3298
N4000 X.6503 Y-2.0962 Z.3245
N4010 X.3651 Y-2.1642 Z.3191
N4020 X.0733 Y-2.1935 Z.3138
N4030 X-.2197 Y-2.1837 Z.3085
N4040 X-.5088 Y-2.135 Z.3032
N4050 X-.7888 Y-2.0481 Z.2979
N4060 X-1.0548 Y-1.9247 Z.2926
N4070 X-1.3019 Y-1.7669 Z.2872
N4080 X-1.5258 Y-1.5776 Z.2819
N4090 X-1.7224 Y-1.3602 Z.2766
N4100 X-1.8884 Y-1.1185 Z.2713
N4110 X-2.0206 Y-.8568 Z.266
N4120 X-2.1168 Y-.5798 Z.2606
N4130 X-2.1752 Y-.2925 Z.2553
N4140 X-2.1947 Y0. Z.25
N4150 X-2.1752 Y.2925 Z.2447
N4160 X-2.1168 Y.5798 Z.2394
N4170 X-2.0206 Y.8568 Z.234
N4180 X-1.8884 Y1.1185 Z.2287
N4190 X-1.7224 Y1.3602 Z.2234
N4200 X-1.5258 Y1.5776 Z.2181
N4210 X-1.3019 Y1.7669 Z.2128
N4220 X-1.0548 Y1.9247 Z.2074
N4230 X-.7888 Y2.0481 Z.2021
N4240 X-.5088 Y2.135 Z.1968
N4250 X-.2197 Y2.1837 Z.1915
N4260 X.0733 Y2.1935 Z.1862
N4270 X.3651 Y2.1642 Z.1809
N4280 X.6503 Y2.0962 Z.1755
N4290 X.9238 Y1.9908 Z.1702
N4300 X1.181 Y1.8499 Z.1649
N4310 X1.417 Y1.676 Z.1596
N4320 X1.6277 Y1.4722 Z.1543
N4330 X1.8094 Y1.2421 Z.1489
N4340 X1.9589 Y.9899 Z.1436
N4350 X2.0733 Y.7199 Z.1383
N4360 X2.1508 Y.4372 Z.133
N4370 X2.1898 Y.1466 Z.1277
N4380 Y-.1466 Z.1223
N4390 X2.1508 Y-.4372 Z.117
N4400 X2.0733 Y-.7199 Z.1117
N4410 X1.9589 Y-.9899 Z.1064
N4420 X1.8094 Y-1.2421 Z.1011
N4430 X1.6277 Y-1.4722 Z.0957
N4440 X1.417 Y-1.676 Z.0904
N4450 X1.181 Y-1.8499 Z.0851
N4460 X.9238 Y-1.9908 Z.0798
N4470 X.6503 Y-2.0962 Z.0745
N4480 X.3651 Y-2.1642 Z.0691
N4490 X.0733 Y-2.1935 Z.0638
N4500 X-.2197 Y-2.1837 Z.0585
N4510 X-.5088 Y-2.135 Z.0532
N4520 X-.7888 Y-2.0481 Z.0479
N4530 X-1.0548 Y-1.9247 Z.0426
N4540 X-1.3019 Y-1.7669 Z.0372
N4550 X-1.5258 Y-1.5776 Z.0319
N4560 X-1.7224 Y-1.3602 Z.0266
N4570 X-1.8884 Y-1.1185 Z.0213
N4580 X-2.0206 Y-.8568 Z.016
N4590 X-2.1168 Y-.5798 Z.0106
N4600 X-2.1752 Y-.2925 Z.0053
N4610 X-2.1947 Y0. Z0.
N4620 X-2.3367
N4630 Z1.75
N4640 G0 X-2.3287
N4650 G1 Z1.25 ;F6.42
N4660 X-2.1867
N4670 X-2.1672 Y.2915 Z1.2447
N4680 X-2.1091 Y.5777 Z1.2394
N4690 X-2.0132 Y.8537 Z1.234
N4700 X-1.8815 Y1.1144 Z1.2287
N4710 X-1.7162 Y1.3552 Z1.2234
N4720 X-1.5202 Y1.5719 Z1.2181
N4730 X-1.2971 Y1.7605 Z1.2128
N4740 X-1.0509 Y1.9177 Z1.2074
N4750 X-.7859 Y2.0406 Z1.2021
N4760 X-.5069 Y2.1272 Z1.1968
N4770 X-.2189 Y2.1758 Z1.1915
N4780 X.0731 Y2.1855 Z1.1862
N4790 X.3637 Y2.1563 Z1.1809
N4800 X.6479 Y2.0886 Z1.1755
N4810 X.9205 Y1.9836 Z1.1702
N4820 X1.1767 Y1.8432 Z1.1649
N4830 X1.4118 Y1.6699 Z1.1596
N4840 X1.6218 Y1.4668 Z1.1543
N4850 X1.8028 Y1.2376 Z1.1489
N4860 X1.9517 Y.9862 Z1.1436
N4870 X2.0658 Y.7173 Z1.1383
N4880 X2.1429 Y.4356 Z1.133
N4890 X2.1819 Y.1461 Z1.1277
N4900 Y-.1461 Z1.1223
N4910 X2.1429 Y-.4356 Z1.117
N4920 X2.0658 Y-.7173 Z1.1117
N4930 X1.9517 Y-.9862 Z1.1064
N4940 X1.8028 Y-1.2376 Z1.1011
N4950 X1.6218 Y-1.4668 Z1.0957
N4960 X1.4118 Y-1.6699 Z1.0904
N4970 X1.1767 Y-1.8432 Z1.0851
N4980 X.9205 Y-1.9836 Z1.0798
N4990 X.6479 Y-2.0886 Z1.0745
N5000 X.3637 Y-2.1563 Z1.0691
N5010 X.0731 Y-2.1855 Z1.0638
N5020 X-.2189 Y-2.1758 Z1.0585
N5030 X-.5069 Y-2.1272 Z1.0532
N5040 X-.7859 Y-2.0406 Z1.0479
N5050 X-1.0509 Y-1.9177 Z1.0426
N5060 X-1.2971 Y-1.7605 Z1.0372
N5070 X-1.5202 Y-1.5719 Z1.0319
N5080 X-1.7162 Y-1.3552 Z1.0266
N5090 X-1.8815 Y-1.1144 Z1.0213
N5100 X-2.0132 Y-.8537 Z1.016
N5110 X-2.1091 Y-.5777 Z1.0106
N5120 X-2.1672 Y-.2915 Z1.0053
N5130 X-2.1867 Y0. Z1.
N5140 X-2.1672 Y.2915 Z.9947
N5150 X-2.1091 Y.5777 Z.9894
N5160 X-2.0132 Y.8537 Z.984
N5170 X-1.8815 Y1.1144 Z.9787
N5180 X-1.7162 Y1.3552 Z.9734
N5190 X-1.5202 Y1.5719 Z.9681
N5200 X-1.2971 Y1.7605 Z.9628
N5210 X-1.0509 Y1.9177 Z.9574
N5220 X-.7859 Y2.0406 Z.9521
N5230 X-.5069 Y2.1272 Z.9468
N5240 X-.2189 Y2.1758 Z.9415
N5250 X.0731 Y2.1855 Z.9362
N5260 X.3637 Y2.1563 Z.9309
N5270 X.6479 Y2.0886 Z.9255
N5280 X.9205 Y1.9836 Z.9202
N5290 X1.1767 Y1.8432 Z.9149
N5300 X1.4118 Y1.6699 Z.9096
N5310 X1.6218 Y1.4668 Z.9043
N5320 X1.8028 Y1.2376 Z.8989
N5330 X1.9517 Y.9862 Z.8936
N5340 X2.0658 Y.7173 Z.8883
N5350 X2.1429 Y.4356 Z.883
N5360 X2.1819 Y.1461 Z.8777
N5370 Y-.1461 Z.8723
N5380 X2.1429 Y-.4356 Z.867
N5390 X2.0658 Y-.7173 Z.8617
N5400 X1.9517 Y-.9862 Z.8564
N5410 X1.8028 Y-1.2376 Z.8511
N5420 X1.6218 Y-1.4668 Z.8457
N5430 X1.4118 Y-1.6699 Z.8404
N5440 X1.1767 Y-1.8432 Z.8351
N5450 X.9205 Y-1.9836 Z.8298
N5460 X.6479 Y-2.0886 Z.8245
N5470 X.3637 Y-2.1563 Z.8191
N5480 X.0731 Y-2.1855 Z.8138
N5490 X-.2189 Y-2.1758 Z.8085
N5500 X-.5069 Y-2.1272 Z.8032
N5510 X-.7859 Y-2.0406 Z.7979
N5520 X-1.0509 Y-1.9177 Z.7926
N5530 X-1.2971 Y-1.7605 Z.7872
N5540 X-1.5202 Y-1.5719 Z.7819
N5550 X-1.7162 Y-1.3552 Z.7766
N5560 X-1.8815 Y-1.1144 Z.7713
N5570 X-2.0132 Y-.8537 Z.766
N5580 X-2.1091 Y-.5777 Z.7606
N5590 X-2.1672 Y-.2915 Z.7553
N5600 X-2.1867 Y0. Z.75
N5610 X-2.1672 Y.2915 Z.7447
N5620 X-2.1091 Y.5777 Z.7394
N5630 X-2.0132 Y.8537 Z.734
N5640 X-1.8815 Y1.1144 Z.7287
N5650 X-1.7162 Y1.3552 Z.7234
N5660 X-1.5202 Y1.5719 Z.7181
N5670 X-1.2971 Y1.7605 Z.7128
N5680 X-1.0509 Y1.9177 Z.7074
N5690 X-.7859 Y2.0406 Z.7021
N5700 X-.5069 Y2.1272 Z.6968
N5710 X-.2189 Y2.1758 Z.6915
N5720 X.0731 Y2.1855 Z.6862
N5730 X.3637 Y2.1563 Z.6809
N5740 X.6479 Y2.0886 Z.6755
N5750 X.9205 Y1.9836 Z.6702
N5760 X1.1767 Y1.8432 Z.6649
N5770 X1.4118 Y1.6699 Z.6596
N5780 X1.6218 Y1.4668 Z.6543
N5790 X1.8028 Y1.2376 Z.6489
N5800 X1.9517 Y.9862 Z.6436
N5810 X2.0658 Y.7173 Z.6383
N5820 X2.1429 Y.4356 Z.633
N5830 X2.1819 Y.1461 Z.6277
N5840 Y-.1461 Z.6223
N5850 X2.1429 Y-.4356 Z.617
N5860 X2.0658 Y-.7173 Z.6117
N5870 X1.9517 Y-.9862 Z.6064
N5880 X1.8028 Y-1.2376 Z.6011
N5890 X1.6218 Y-1.4668 Z.5957
N5900 X1.4118 Y-1.6699 Z.5904
N5910 X1.1767 Y-1.8432 Z.5851
N5920 X.9205 Y-1.9836 Z.5798
N5930 X.6479 Y-2.0886 Z.5745
N5940 X.3637 Y-2.1563 Z.5691
N5950 X.0731 Y-2.1855 Z.5638
N5960 X-.2189 Y-2.1758 Z.5585
N5970 X-.5069 Y-2.1272 Z.5532
N5980 X-.7859 Y-2.0406 Z.5479
N5990 X-1.0509 Y-1.9177 Z.5426
N6000 X-1.2971 Y-1.7605 Z.5372
N6010 X-1.5202 Y-1.5719 Z.5319
N6020 X-1.7162 Y-1.3552 Z.5266
N6030 X-1.8815 Y-1.1144 Z.5213
N6040 X-2.0132 Y-.8537 Z.516
N6050 X-2.1091 Y-.5777 Z.5106
N6060 X-2.1672 Y-.2915 Z.5053
N6070 X-2.1867 Y0. Z.5
N6080 X-2.1672 Y.2915 Z.4947
N6090 X-2.1091 Y.5777 Z.4894
N6100 X-2.0132 Y.8537 Z.484
N6110 X-1.8815 Y1.1144 Z.4787
N6120 X-1.7162 Y1.3552 Z.4734
N6130 X-1.5202 Y1.5719 Z.4681
N6140 X-1.2971 Y1.7605 Z.4628
N6150 X-1.0509 Y1.9177 Z.4574
N6160 X-.7859 Y2.0406 Z.4521
N6170 X-.5069 Y2.1272 Z.4468
N6180 X-.2189 Y2.1758 Z.4415
N6190 X.0731 Y2.1855 Z.4362
N6200 X.3637 Y2.1563 Z.4309
N6210 X.6479 Y2.0886 Z.4255
N6220 X.9205 Y1.9836 Z.4202
N6230 X1.1767 Y1.8432 Z.4149
N6240 X1.4118 Y1.6699 Z.4096
N6250 X1.6218 Y1.4668 Z.4043
N6260 X1.8028 Y1.2376 Z.3989
N6270 X1.9517 Y.9862 Z.3936
N6280 X2.0658 Y.7173 Z.3883
N6290 X2.1429 Y.4356 Z.383
N6300 X2.1819 Y.1461 Z.3777
N6310 Y-.1461 Z.3723
N6320 X2.1429 Y-.4356 Z.367
N6330 X2.0658 Y-.7173 Z.3617
N6340 X1.9517 Y-.9862 Z.3564
N6350 X1.8028 Y-1.2376 Z.3511
N6360 X1.6218 Y-1.4668 Z.3457
N6370 X1.4118 Y-1.6699 Z.3404
N6380 X1.1767 Y-1.8432 Z.3351
N6390 X.9205 Y-1.9836 Z.3298
N6400 X.6479 Y-2.0886 Z.3245
N6410 X.3637 Y-2.1563 Z.3191
N6420 X.0731 Y-2.1855 Z.3138
N6430 X-.2189 Y-2.1758 Z.3085
N6440 X-.5069 Y-2.1272 Z.3032
N6450 X-.7859 Y-2.0406 Z.2979
N6460 X-1.0509 Y-1.9177 Z.2926
N6470 X-1.2971 Y-1.7605 Z.2872
N6480 X-1.5202 Y-1.5719 Z.2819
N6490 X-1.7162 Y-1.3552 Z.2766
N6500 X-1.8815 Y-1.1144 Z.2713
N6510 X-2.0132 Y-.8537 Z.266
N6520 X-2.1091 Y-.5777 Z.2606
N6530 X-2.1672 Y-.2915 Z.2553
N6540 X-2.1867 Y0. Z.25
N6550 X-2.1672 Y.2915 Z.2447
N6560 X-2.1091 Y.5777 Z.2394
N6570 X-2.0132 Y.8537 Z.234
N6580 X-1.8815 Y1.1144 Z.2287
N6590 X-1.7162 Y1.3552 Z.2234
N6600 X-1.5202 Y1.5719 Z.2181
N6610 X-1.2971 Y1.7605 Z.2128
N6620 X-1.0509 Y1.9177 Z.2074
N6630 X-.7859 Y2.0406 Z.2021
N6640 X-.5069 Y2.1272 Z.1968
N6650 X-.2189 Y2.1758 Z.1915
N6660 X.0731 Y2.1855 Z.1862
N6670 X.3637 Y2.1563 Z.1809
N6680 X.6479 Y2.0886 Z.1755
N6690 X.9205 Y1.9836 Z.1702
N6700 X1.1767 Y1.8432 Z.1649
N6710 X1.4118 Y1.6699 Z.1596
N6720 X1.6218 Y1.4668 Z.1543
N6730 X1.8028 Y1.2376 Z.1489
N6740 X1.9517 Y.9862 Z.1436
N6750 X2.0658 Y.7173 Z.1383
N6760 X2.1429 Y.4356 Z.133
N6770 X2.1819 Y.1461 Z.1277
N6780 Y-.1461 Z.1223
N6790 X2.1429 Y-.4356 Z.117
N6800 X2.0658 Y-.7173 Z.1117
N6810 X1.9517 Y-.9862 Z.1064
N6820 X1.8028 Y-1.2376 Z.1011
N6830 X1.6218 Y-1.4668 Z.0957
N6840 X1.4118 Y-1.6699 Z.0904
N6850 X1.1767 Y-1.8432 Z.0851
N6860 X.9205 Y-1.9836 Z.0798
N6870 X.6479 Y-2.0886 Z.0745
N6880 X.3637 Y-2.1563 Z.0691
N6890 X.0731 Y-2.1855 Z.0638
N6900 X-.2189 Y-2.1758 Z.0585
N6910 X-.5069 Y-2.1272 Z.0532
N6920 X-.7859 Y-2.0406 Z.0479
N6930 X-1.0509 Y-1.9177 Z.0426
N6940 X-1.2971 Y-1.7605 Z.0372
N6950 X-1.5202 Y-1.5719 Z.0319
N6960 X-1.7162 Y-1.3552 Z.0266
N6970 X-1.8815 Y-1.1144 Z.0213
N6980 X-2.0132 Y-.8537 Z.016
N6990 X-2.1091 Y-.5777 Z.0106
N7000 X-2.1672 Y-.2915 Z.0053
N7010 X-2.1867 Y0. Z0.
N7020 X-2.3287
N7030 Z1.75
N7040 G0 X-2.3207
N7050 G1 Z1.25 ;F6.42
N7060 X-2.1787
N7070 X-2.1593 Y.2904 Z1.2447
N7080 X-2.1013 Y.5756 Z1.2394
N7090 X-2.0059 Y.8506 Z1.234
N7100 X-1.8746 Y1.1103 Z1.2287
N7110 X-1.7099 Y1.3503 Z1.2234
N7120 X-1.5147 Y1.5661 Z1.2181
N7130 X-1.2924 Y1.754 Z1.2128
N7140 X-1.0471 Y1.9107 Z1.2074
N7150 X-.7831 Y2.0332 Z1.2021
N7160 X-.5051 Y2.1194 Z1.1968
N7170 X-.2181 Y2.1678 Z1.1915
N7180 X.0728 Y2.1775 Z1.1862
N7190 X.3624 Y2.1484 Z1.1809
N7200 X.6455 Y2.0809 Z1.1755
N7210 X.9171 Y1.9763 Z1.1702
N7220 X1.1723 Y1.8365 Z1.1649
N7230 X1.4067 Y1.6638 Z1.1596
N7240 X1.6159 Y1.4615 Z1.1543
N7250 X1.7963 Y1.2331 Z1.1489
N7260 X1.9446 Y.9826 Z1.1436
N7270 X2.0582 Y.7147 Z1.1383
N7280 X2.1351 Y.434 Z1.133
N7290 X2.1739 Y.1455 Z1.1277
N7300 Y-.1455 Z1.1223
N7310 X2.1351 Y-.434 Z1.117
N7320 X2.0582 Y-.7147 Z1.1117
N7330 X1.9446 Y-.9826 Z1.1064
N7340 X1.7963 Y-1.2331 Z1.1011
N7350 X1.6159 Y-1.4615 Z1.0957
N7360 X1.4067 Y-1.6638 Z1.0904
N7370 X1.1723 Y-1.8365 Z1.0851
N7380 X.9171 Y-1.9763 Z1.0798
N7390 X.6455 Y-2.0809 Z1.0745
N7400 X.3624 Y-2.1484 Z1.0691
N7410 X.0728 Y-2.1775 Z1.0638
N7420 X-.2181 Y-2.1678 Z1.0585
N7430 X-.5051 Y-2.1194 Z1.0532
N7440 X-.7831 Y-2.0332 Z1.0479
N7450 X-1.0471 Y-1.9107 Z1.0426
N7460 X-1.2924 Y-1.754 Z1.0372
N7470 X-1.5147 Y-1.5661 Z1.0319
N7480 X-1.7099 Y-1.3503 Z1.0266
N7490 X-1.8746 Y-1.1103 Z1.0213
N7500 X-2.0059 Y-.8506 Z1.016
N7510 X-2.1013 Y-.5756 Z1.0106
N7520 X-2.1593 Y-.2904 Z1.0053
N7530 X-2.1787 Y0. Z1.
N7540 X-2.1593 Y.2904 Z.9947
N7550 X-2.1013 Y.5756 Z.9894
N7560 X-2.0059 Y.8506 Z.984
N7570 X-1.8746 Y1.1103 Z.9787
N7580 X-1.7099 Y1.3503 Z.9734
N7590 X-1.5147 Y1.5661 Z.9681
N7600 X-1.2924 Y1.754 Z.9628
N7610 X-1.0471 Y1.9107 Z.9574
N7620 X-.7831 Y2.0332 Z.9521
N7630 X-.5051 Y2.1194 Z.9468
N7640 X-.2181 Y2.1678 Z.9415
N7650 X.0728 Y2.1775 Z.9362
N7660 X.3624 Y2.1484 Z.9309
N7670 X.6455 Y2.0809 Z.9255
N7680 X.9171 Y1.9763 Z.9202
N7690 X1.1723 Y1.8365 Z.9149
N7700 X1.4067 Y1.6638 Z.9096
N7710 X1.6159 Y1.4615 Z.9043
N7720 X1.7963 Y1.2331 Z.8989
N7730 X1.9446 Y.9826 Z.8936
N7740 X2.0582 Y.7147 Z.8883
N7750 X2.1351 Y.434 Z.883
N7760 X2.1739 Y.1455 Z.8777
N7770 Y-.1455 Z.8723
N7780 X2.1351 Y-.434 Z.867
N7790 X2.0582 Y-.7147 Z.8617
N7800 X1.9446 Y-.9826 Z.8564
N7810 X1.7963 Y-1.2331 Z.8511
N7820 X1.6159 Y-1.4615 Z.8457
N7830 X1.4067 Y-1.6638 Z.8404
N7840 X1.1723 Y-1.8365 Z.8351
N7850 X.9171 Y-1.9763 Z.8298
N7860 X.6455 Y-2.0809 Z.8245
N7870 X.3624 Y-2.1484 Z.8191
N7880 X.0728 Y-2.1775 Z.8138
N7890 X-.2181 Y-2.1678 Z.8085
N7900 X-.5051 Y-2.1194 Z.8032
N7910 X-.7831 Y-2.0332 Z.7979
N7920 X-1.0471 Y-1.9107 Z.7926
N7930 X-1.2924 Y-1.754 Z.7872
N7940 X-1.5147 Y-1.5661 Z.7819
N7950 X-1.7099 Y-1.3503 Z.7766
N7960 X-1.8746 Y-1.1103 Z.7713
N7970 X-2.0059 Y-.8506 Z.766
N7980 X-2.1013 Y-.5756 Z.7606
N7990 X-2.1593 Y-.2904 Z.7553
N8000 X-2.1787 Y0. Z.75
N8010 X-2.1593 Y.2904 Z.7447
N8020 X-2.1013 Y.5756 Z.7394
N8030 X-2.0059 Y.8506 Z.734
N8040 X-1.8746 Y1.1103 Z.7287
N8050 X-1.7099 Y1.3503 Z.7234
N8060 X-1.5147 Y1.5661 Z.7181
N8070 X-1.2924 Y1.754 Z.7128
N8080 X-1.0471 Y1.9107 Z.7074
N8090 X-.7831 Y2.0332 Z.7021
N8100 X-.5051 Y2.1194 Z.6968
N8110 X-.2181 Y2.1678 Z.6915
N8120 X.0728 Y2.1775 Z.6862
N8130 X.3624 Y2.1484 Z.6809
N8140 X.6455 Y2.0809 Z.6755
N8150 X.9171 Y1.9763 Z.6702
N8160 X1.1723 Y1.8365 Z.6649
N8170 X1.4067 Y1.6638 Z.6596
N8180 X1.6159 Y1.4615 Z.6543
N8190 X1.7963 Y1.2331 Z.6489
N8200 X1.9446 Y.9826 Z.6436
N8210 X2.0582 Y.7147 Z.6383
N8220 X2.1351 Y.434 Z.633
N8230 X2.1739 Y.1455 Z.6277
N8240 Y-.1455 Z.6223
N8250 X2.1351 Y-.434 Z.617
N8260 X2.0582 Y-.7147 Z.6117
N8270 X1.9446 Y-.9826 Z.6064
N8280 X1.7963 Y-1.2331 Z.6011
N8290 X1.6159 Y-1.4615 Z.5957
N8300 X1.4067 Y-1.6638 Z.5904
N8310 X1.1723 Y-1.8365 Z.5851
N8320 X.9171 Y-1.9763 Z.5798
N8330 X.6455 Y-2.0809 Z.5745
N8340 X.3624 Y-2.1484 Z.5691
N8350 X.0728 Y-2.1775 Z.5638
N8360 X-.2181 Y-2.1678 Z.5585
N8370 X-.5051 Y-2.1194 Z.5532
N8380 X-.7831 Y-2.0332 Z.5479
N8390 X-1.0471 Y-1.9107 Z.5426
N8400 X-1.2924 Y-1.754 Z.5372
N8410 X-1.5147 Y-1.5661 Z.5319
N8420 X-1.7099 Y-1.3503 Z.5266
N8430 X-1.8746 Y-1.1103 Z.5213
N8440 X-2.0059 Y-.8506 Z.516
N8450 X-2.1013 Y-.5756 Z.5106
N8460 X-2.1593 Y-.2904 Z.5053
N8470 X-2.1787 Y0. Z.5
N8480 X-2.1593 Y.2904 Z.4947
N8490 X-2.1013 Y.5756 Z.4894
N8500 X-2.0059 Y.8506 Z.484
N8510 X-1.8746 Y1.1103 Z.4787
N8520 X-1.7099 Y1.3503 Z.4734
N8530 X-1.5147 Y1.5661 Z.4681
N8540 X-1.2924 Y1.754 Z.4628
N8550 X-1.0471 Y1.9107 Z.4574
N8560 X-.7831 Y2.0332 Z.4521
N8570 X-.5051 Y2.1194 Z.4468
N8580 X-.2181 Y2.1678 Z.4415
N8590 X.0728 Y2.1775 Z.4362
N8600 X.3624 Y2.1484 Z.4309
N8610 X.6455 Y2.0809 Z.4255
N8620 X.9171 Y1.9763 Z.4202
N8630 X1.1723 Y1.8365 Z.4149
N8640 X1.4067 Y1.6638 Z.4096
N8650 X1.6159 Y1.4615 Z.4043
N8660 X1.7963 Y1.2331 Z.3989
N8670 X1.9446 Y.9826 Z.3936
N8680 X2.0582 Y.7147 Z.3883
N8690 X2.1351 Y.434 Z.383
N8700 X2.1739 Y.1455 Z.3777
N8710 Y-.1455 Z.3723
N8720 X2.1351 Y-.434 Z.367
N8730 X2.0582 Y-.7147 Z.3617
N8740 X1.9446 Y-.9826 Z.3564
N8750 X1.7963 Y-1.2331 Z.3511
N8760 X1.6159 Y-1.4615 Z.3457
N8770 X1.4067 Y-1.6638 Z.3404
N8780 X1.1723 Y-1.8365 Z.3351
N8790 X.9171 Y-1.9763 Z.3298
N8800 X.6455 Y-2.0809 Z.3245
N8810 X.3624 Y-2.1484 Z.3191
N8820 X.0728 Y-2.1775 Z.3138
N8830 X-.2181 Y-2.1678 Z.3085
N8840 X-.5051 Y-2.1194 Z.3032
N8850 X-.7831 Y-2.0332 Z.2979
N8860 X-1.0471 Y-1.9107 Z.2926
N8870 X-1.2924 Y-1.754 Z.2872
N8880 X-1.5147 Y-1.5661 Z.2819
N8890 X-1.7099 Y-1.3503 Z.2766
N8900 X-1.8746 Y-1.1103 Z.2713
N8910 X-2.0059 Y-.8506 Z.266
N8920 X-2.1013 Y-.5756 Z.2606
N8930 X-2.1593 Y-.2904 Z.2553
N8940 X-2.1787 Y0. Z.25
N8950 X-2.1593 Y.2904 Z.2447
N8960 X-2.1013 Y.5756 Z.2394
N8970 X-2.0059 Y.8506 Z.234
N8980 X-1.8746 Y1.1103 Z.2287
N8990 X-1.7099 Y1.3503 Z.2234
N9000 X-1.5147 Y1.5661 Z.2181
N9010 X-1.2924 Y1.754 Z.2128
N9020 X-1.0471 Y1.9107 Z.2074
N9030 X-.7831 Y2.0332 Z.2021
N9040 X-.5051 Y2.1194 Z.1968
N9050 X-.2181 Y2.1678 Z.1915
N9060 X.0728 Y2.1775 Z.1862
N9070 X.3624 Y2.1484 Z.1809
N9080 X.6455 Y2.0809 Z.1755
N9090 X.9171 Y1.9763 Z.1702
N9100 X1.1723 Y1.8365 Z.1649
N9110 X1.4067 Y1.6638 Z.1596
N9120 X1.6159 Y1.4615 Z.1543
N9130 X1.7963 Y1.2331 Z.1489
N9140 X1.9446 Y.9826 Z.1436
N9150 X2.0582 Y.7147 Z.1383
N9160 X2.1351 Y.434 Z.133
N9170 X2.1739 Y.1455 Z.1277
N9180 Y-.1455 Z.1223
N9190 X2.1351 Y-.434 Z.117
N9200 X2.0582 Y-.7147 Z.1117
N9210 X1.9446 Y-.9826 Z.1064
N9220 X1.7963 Y-1.2331 Z.1011
N9230 X1.6159 Y-1.4615 Z.0957
N9240 X1.4067 Y-1.6638 Z.0904
N9250 X1.1723 Y-1.8365 Z.0851
N9260 X.9171 Y-1.9763 Z.0798
N9270 X.6455 Y-2.0809 Z.0745
N9280 X.3624 Y-2.1484 Z.0691
N9290 X.0728 Y-2.1775 Z.0638
N9300 X-.2181 Y-2.1678 Z.0585
N9310 X-.5051 Y-2.1194 Z.0532
N9320 X-.7831 Y-2.0332 Z.0479
N9330 X-1.0471 Y-1.9107 Z.0426
N9340 X-1.2924 Y-1.754 Z.0372
N9350 X-1.5147 Y-1.5661 Z.0319
N9360 X-1.7099 Y-1.3503 Z.0266
N9370 X-1.8746 Y-1.1103 Z.0213
N9380 X-2.0059 Y-.8506 Z.016
N9390 X-2.1013 Y-.5756 Z.0106
N9400 X-2.1593 Y-.2904 Z.0053
N9410 X-2.1787 Y0. Z0.
N9420 X-2.3207
N9430 Z1.75
;N9440 M5
;N9450 G91 G0 G28 Z0.
;N9460 G28 X0. Y0. A0.
;N9470 M30
%
