%
O0000(WAAM_CYLINDER_2875_OUT2)
(DATE=DD-MM-YY - 10-04-25 TIME=HH:MM - 20:12)
(MCAM ;FILE - C:\USERS\CAILEAN S P15\DOCUMENTS\MASTERCAM\WAAM_CYLINDER.EMCAM)
(NC ;FILE - ;F:\WAAM_CYLINDER_2875_OUT2.nc)
(MATERIAL - ALUMINUM INCH - 2024)
( T256 |  1/2 BALL ENDMILL | H256 )
N100 G20
N110 G0 G17 G40 G49 G80 G90
N120 T256 M6
N130 G0 G90 G54 X-2.3397 Y0. Z3.0 A0. S1069 M3
N140 G43 H256 Z1.825
N150 G1 Z1.625 F1.1
N160 X-2.3205 Y.2992 Z1.6173
N170 X-2.2632 Y.5935 Z1.6097
N180 X-2.1688 Y.878 Z1.602
N190 X-2.0387 Y1.1482 Z1.5944
N200 X-1.8751 Y1.3994 Z1.5867
N210 X-1.6808 Y1.6277 Z1.5791
N220 X-1.4588 Y1.8293 Z1.5714
N230 X-1.2129 Y2.0008 Z1.5638
N240 X-.9471 Y2.1395 Z1.5561
N250 X-.6657 Y2.243 Z1.5485
N260 X-.3734 Y2.3098 Z1.5408
N270 X-.075 Y2.3385 Z1.5332
N280 X.2247 Y2.3289 Z1.5255
N290 X.5206 Y2.2811 Z1.5179
N300 X.8081 Y2.1958 Z1.5102
N310 X1.0822 Y2.0744 Z1.5026
N320 X1.3386 Y1.919 Z1.4949
N330 X1.573 Y1.7321 Z1.4872
N340 X1.7816 Y1.5167 Z1.4796
N350 X1.9609 Y1.2764 Z1.4719
N360 X2.108 Y1.0152 Z1.4643
N370 X2.2206 Y.7373 Z1.4566
N380 X2.2966 Y.4473 Z1.449
N390 X2.3349 Y.1499 Z1.4413
N400 Y-.1499 Z1.4337
N410 X2.2966 Y-.4473 Z1.426
N420 X2.2206 Y-.7373 Z1.4184
N430 X2.108 Y-1.0152 Z1.4107
N440 X1.9609 Y-1.2764 Z1.4031
N450 X1.7816 Y-1.5167 Z1.3954
N460 X1.573 Y-1.7321 Z1.3878
N470 X1.3386 Y-1.919 Z1.3801
N480 X1.0822 Y-2.0744 Z1.3724
N490 X.8081 Y-2.1958 Z1.3648
N500 X.5206 Y-2.2811 Z1.3571
N510 X.2247 Y-2.3289 Z1.3495
N520 X-.075 Y-2.3385 Z1.3418
N530 X-.3734 Y-2.3098 Z1.3342
N540 X-.6657 Y-2.243 Z1.3265
N550 X-.9471 Y-2.1395 Z1.3189
N560 X-1.2129 Y-2.0008 Z1.3112
N570 X-1.4588 Y-1.8293 Z1.3036
N580 X-1.6808 Y-1.6277 Z1.2959
N590 X-1.8751 Y-1.3994 Z1.2883
N600 X-2.0387 Y-1.1482 Z1.2806
N610 X-2.1688 Y-.878 Z1.273
N620 X-2.2632 Y-.5935 Z1.2653
N630 X-2.3205 Y-.2992 Z1.2577
N640 X-2.3397 Y0. Z1.25
N650 X-2.3205 Y.2992 Z1.2423
N660 X-2.2632 Y.5935 Z1.2347
N670 X-2.1688 Y.878 Z1.227
N680 X-2.0387 Y1.1482 Z1.2194
N690 X-1.8751 Y1.3994 Z1.2117
N700 X-1.6808 Y1.6277 Z1.2041
N710 X-1.4588 Y1.8293 Z1.1964
N720 X-1.2129 Y2.0008 Z1.1888
N730 X-.9471 Y2.1395 Z1.1811
N740 X-.6657 Y2.243 Z1.1735
N750 X-.3734 Y2.3098 Z1.1658
N760 X-.075 Y2.3385 Z1.1582
N770 X.2247 Y2.3289 Z1.1505
N780 X.5206 Y2.2811 Z1.1429
N790 X.8081 Y2.1958 Z1.1352
N800 X1.0822 Y2.0744 Z1.1276
N810 X1.3386 Y1.919 Z1.1199
N820 X1.573 Y1.7321 Z1.1122
N830 X1.7816 Y1.5167 Z1.1046
N840 X1.9609 Y1.2764 Z1.0969
N850 X2.108 Y1.0152 Z1.0893
N860 X2.2206 Y.7373 Z1.0816
N870 X2.2966 Y.4473 Z1.074
N880 X2.3349 Y.1499 Z1.0663
N890 Y-.1499 Z1.0587
N900 X2.2966 Y-.4473 Z1.051
N910 X2.2206 Y-.7373 Z1.0434
N920 X2.108 Y-1.0152 Z1.0357
N930 X1.9609 Y-1.2764 Z1.0281
N940 X1.7816 Y-1.5167 Z1.0204
N950 X1.573 Y-1.7321 Z1.0128
N960 X1.3386 Y-1.919 Z1.0051
N970 X1.0822 Y-2.0744 Z.9974
N980 X.8081 Y-2.1958 Z.9898
N990 X.5206 Y-2.2811 Z.9821
N1000 X.2247 Y-2.3289 Z.9745
N1010 X-.075 Y-2.3385 Z.9668
N1020 X-.3734 Y-2.3098 Z.9592
N1030 X-.6657 Y-2.243 Z.9515
N1040 X-.9471 Y-2.1395 Z.9439
N1050 X-1.2129 Y-2.0008 Z.9362
N1060 X-1.4588 Y-1.8293 Z.9286
N1070 X-1.6808 Y-1.6277 Z.9209
N1080 X-1.8751 Y-1.3994 Z.9133
N1090 X-2.0387 Y-1.1482 Z.9056
N1100 X-2.1688 Y-.878 Z.898
N1110 X-2.2632 Y-.5935 Z.8903
N1120 X-2.3205 Y-.2992 Z.8827
N1130 X-2.3397 Y0. Z.875
N1140 X-2.3205 Y.2992 Z.8673
N1150 X-2.2632 Y.5935 Z.8597
N1160 X-2.1688 Y.878 Z.852
N1170 X-2.0387 Y1.1482 Z.8444
N1180 X-1.8751 Y1.3994 Z.8367
N1190 X-1.6808 Y1.6277 Z.8291
N1200 X-1.4588 Y1.8293 Z.8214
N1210 X-1.2129 Y2.0008 Z.8138
N1220 X-.9471 Y2.1395 Z.8061
N1230 X-.6657 Y2.243 Z.7985
N1240 X-.3734 Y2.3098 Z.7908
N1250 X-.075 Y2.3385 Z.7832
N1260 X.2247 Y2.3289 Z.7755
N1270 X.5206 Y2.2811 Z.7679
N1280 X.8081 Y2.1958 Z.7602
N1290 X1.0822 Y2.0744 Z.7526
N1300 X1.3386 Y1.919 Z.7449
N1310 X1.573 Y1.7321 Z.7372
N1320 X1.7816 Y1.5167 Z.7296
N1330 X1.9609 Y1.2764 Z.7219
N1340 X2.108 Y1.0152 Z.7143
N1350 X2.2206 Y.7373 Z.7066
N1360 X2.2966 Y.4473 Z.699
N1370 X2.3349 Y.1499 Z.6913
N1380 Y-.1499 Z.6837
N1390 X2.2966 Y-.4473 Z.676
N1400 X2.2206 Y-.7373 Z.6684
N1410 X2.108 Y-1.0152 Z.6607
N1420 X1.9609 Y-1.2764 Z.6531
N1430 X1.7816 Y-1.5167 Z.6454
N1440 X1.573 Y-1.7321 Z.6378
N1450 X1.3386 Y-1.919 Z.6301
N1460 X1.0822 Y-2.0744 Z.6224
N1470 X.8081 Y-2.1958 Z.6148
N1480 X.5206 Y-2.2811 Z.6071
N1490 X.2247 Y-2.3289 Z.5995
N1500 X-.075 Y-2.3385 Z.5918
N1510 X-.3734 Y-2.3098 Z.5842
N1520 X-.6657 Y-2.243 Z.5765
N1530 X-.9471 Y-2.1395 Z.5689
N1540 X-1.2129 Y-2.0008 Z.5612
N1550 X-1.4588 Y-1.8293 Z.5536
N1560 X-1.6808 Y-1.6277 Z.5459
N1570 X-1.8751 Y-1.3994 Z.5383
N1580 X-2.0387 Y-1.1482 Z.5306
N1590 X-2.1688 Y-.878 Z.523
N1600 X-2.2632 Y-.5935 Z.5153
N1610 X-2.3205 Y-.2992 Z.5077
N1620 X-2.3397 Y0. Z.5
N1630 X-2.3205 Y.2992 Z.4923
N1640 X-2.2632 Y.5935 Z.4847
N1650 X-2.1688 Y.878 Z.477
N1660 X-2.0387 Y1.1482 Z.4694
N1670 X-1.8751 Y1.3994 Z.4617
N1680 X-1.6808 Y1.6277 Z.4541
N1690 X-1.4588 Y1.8293 Z.4464
N1700 X-1.2129 Y2.0008 Z.4388
N1710 X-.9471 Y2.1395 Z.4311
N1720 X-.6657 Y2.243 Z.4235
N1730 X-.3734 Y2.3098 Z.4158
N1740 X-.075 Y2.3385 Z.4082
N1750 X.2247 Y2.3289 Z.4005
N1760 X.5206 Y2.2811 Z.3929
N1770 X.8081 Y2.1958 Z.3852
N1780 X1.0822 Y2.0744 Z.3776
N1790 X1.3386 Y1.919 Z.3699
N1800 X1.573 Y1.7321 Z.3622
N1810 X1.7816 Y1.5167 Z.3546
N1820 X1.9609 Y1.2764 Z.3469
N1830 X2.108 Y1.0152 Z.3393
N1840 X2.2206 Y.7373 Z.3316
N1850 X2.2966 Y.4473 Z.324
N1860 X2.3349 Y.1499 Z.3163
N1870 Y-.1499 Z.3087
N1880 X2.2966 Y-.4473 Z.301
N1890 X2.2206 Y-.7373 Z.2934
N1900 X2.108 Y-1.0152 Z.2857
N1910 X1.9609 Y-1.2764 Z.2781
N1920 X1.7816 Y-1.5167 Z.2704
N1930 X1.573 Y-1.7321 Z.2628
N1940 X1.3386 Y-1.919 Z.2551
N1950 X1.0822 Y-2.0744 Z.2474
N1960 X.8081 Y-2.1958 Z.2398
N1970 X.5206 Y-2.2811 Z.2321
N1980 X.2247 Y-2.3289 Z.2245
N1990 X-.075 Y-2.3385 Z.2168
N2000 X-.3734 Y-2.3098 Z.2092
N2010 X-.6657 Y-2.243 Z.2015
N2020 X-.9471 Y-2.1395 Z.1939
N2030 X-1.2129 Y-2.0008 Z.1862
N2040 X-1.4588 Y-1.8293 Z.1786
N2050 X-1.6808 Y-1.6277 Z.1709
N2060 X-1.8751 Y-1.3994 Z.1633
N2070 X-2.0387 Y-1.1482 Z.1556
N2080 X-2.1688 Y-.878 Z.148
N2090 X-2.2632 Y-.5935 Z.1403
N2100 X-2.3205 Y-.2992 Z.1327
N2110 X-2.3397 Y0. Z.125
N2120 X-2.322 Y.2875 Z.1176
N2130 X-2.2691 Y.5707 Z.1103
N2140 X-2.1818 Y.8452 Z.1029
N2150 X-2.0613 Y1.1069 Z.0956
N2160 X-1.9097 Y1.3518 Z.0882
N2170 X-1.7291 Y1.5763 Z.0809
N2180 X-1.5223 Y1.7768 Z.0735
N2190 X-1.2924 Y1.9504 Z.0662
N2200 X-1.0429 Y2.0945 Z.0588
N2210 X-.7776 Y2.2067 Z.0515
N2220 X-.5005 Y2.2856 Z.0441
N2230 X-.2159 Y2.3298 Z.0368
N2240 X.0721 Y2.3386 Z.0294
N2250 X.3589 Y2.3121 Z.0221
N2260 X.6403 Y2.2504 Z.0147
N2270 X.912 Y2.1547 Z.0074
N2280 X1.1699 Y2.0263 Z0.
;N2290 G2 X2.3398 Y0. I-1.1699 J-2.0263
;N2300 X0. Y-2.3398 I-2.3398 J0.
;N2310 X-2.3397 Y0. I0. J2.3398
;N2320 X0. Y2.3397 I2.3397 J0.
;N2330 X1.1699 Y2.0263 I0. J-2.3397
N2340 G1 X1.2514 Y2.1674
N2350 Z.2
N2360 G0 Z1.825
N2370 X-2.3317 Y0.
N2380 G1 Z1.625 ;F6.42
N2390 X-2.3118 Y.3044 Z1.6172
N2400 X-2.2523 Y.6035 Z1.6094
N2410 X-2.1543 Y.8923 Z1.6016
N2420 X-2.0194 Y1.1659 Z1.5938
N2430 X-1.8499 Y1.4195 Z1.5859
N2440 X-1.6488 Y1.6488 Z1.5781
N2450 X-1.4195 Y1.8499 Z1.5703
N2460 X-1.1659 Y2.0194 Z1.5625
N2470 X-.8923 Y2.1543 Z1.5547
N2480 X-.6035 Y2.2523 Z1.5469
N2490 X-.3044 Y2.3118 Z1.5391
N2500 X0. Y2.3317 Z1.5313
N2510 X.3044 Y2.3118 Z1.5234
N2520 X.6035 Y2.2523 Z1.5156
N2530 X.8923 Y2.1543 Z1.5078
N2540 X1.1659 Y2.0194 Z1.5
N2550 X1.4195 Y1.8499 Z1.4922
N2560 X1.6488 Y1.6488 Z1.4844
N2570 X1.8499 Y1.4195 Z1.4766
N2580 X2.0194 Y1.1659 Z1.4688
N2590 X2.1543 Y.8923 Z1.4609
N2600 X2.2523 Y.6035 Z1.4531
N2610 X2.3118 Y.3044 Z1.4453
N2620 X2.3317 Y0. Z1.4375
N2630 X2.3118 Y-.3044 Z1.4297
N2640 X2.2523 Y-.6035 Z1.4219
N2650 X2.1543 Y-.8923 Z1.4141
N2660 X2.0194 Y-1.1659 Z1.4063
N2670 X1.8499 Y-1.4195 Z1.3984
N2680 X1.6488 Y-1.6488 Z1.3906
N2690 X1.4195 Y-1.8499 Z1.3828
N2700 X1.1659 Y-2.0194 Z1.375
N2710 X.8923 Y-2.1543 Z1.3672
N2720 X.6035 Y-2.2523 Z1.3594
N2730 X.3044 Y-2.3118 Z1.3516
N2740 X0. Y-2.3317 Z1.3438
N2750 X-.3044 Y-2.3118 Z1.3359
N2760 X-.6035 Y-2.2523 Z1.3281
N2770 X-.8923 Y-2.1543 Z1.3203
N2780 X-1.1659 Y-2.0194 Z1.3125
N2790 X-1.4195 Y-1.8499 Z1.3047
N2800 X-1.6488 Y-1.6488 Z1.2969
N2810 X-1.8499 Y-1.4195 Z1.2891
N2820 X-2.0194 Y-1.1659 Z1.2813
N2830 X-2.1543 Y-.8923 Z1.2734
N2840 X-2.2523 Y-.6035 Z1.2656
N2850 X-2.3118 Y-.3044 Z1.2578
N2860 X-2.3317 Y0. Z1.25
N2870 X-2.3118 Y.3044 Z1.2422
N2880 X-2.2523 Y.6035 Z1.2344
N2890 X-2.1543 Y.8923 Z1.2266
N2900 X-2.0194 Y1.1659 Z1.2188
N2910 X-1.8499 Y1.4195 Z1.2109
N2920 X-1.6488 Y1.6488 Z1.2031
N2930 X-1.4195 Y1.8499 Z1.1953
N2940 X-1.1659 Y2.0194 Z1.1875
N2950 X-.8923 Y2.1543 Z1.1797
N2960 X-.6035 Y2.2523 Z1.1719
N2970 X-.3044 Y2.3118 Z1.1641
N2980 X0. Y2.3317 Z1.1563
N2990 X.3044 Y2.3118 Z1.1484
N3000 X.6035 Y2.2523 Z1.1406
N3010 X.8923 Y2.1543 Z1.1328
N3020 X1.1659 Y2.0194 Z1.125
N3030 X1.4195 Y1.8499 Z1.1172
N3040 X1.6488 Y1.6488 Z1.1094
N3050 X1.8499 Y1.4195 Z1.1016
N3060 X2.0194 Y1.1659 Z1.0938
N3070 X2.1543 Y.8923 Z1.0859
N3080 X2.2523 Y.6035 Z1.0781
N3090 X2.3118 Y.3044 Z1.0703
N3100 X2.3317 Y0. Z1.0625
N3110 X2.3118 Y-.3044 Z1.0547
N3120 X2.2523 Y-.6035 Z1.0469
N3130 X2.1543 Y-.8923 Z1.0391
N3140 X2.0194 Y-1.1659 Z1.0313
N3150 X1.8499 Y-1.4195 Z1.0234
N3160 X1.6488 Y-1.6488 Z1.0156
N3170 X1.4195 Y-1.8499 Z1.0078
N3180 X1.1659 Y-2.0194 Z1.
N3190 X.8923 Y-2.1543 Z.9922
N3200 X.6035 Y-2.2523 Z.9844
N3210 X.3044 Y-2.3118 Z.9766
N3220 X0. Y-2.3317 Z.9688
N3230 X-.3044 Y-2.3118 Z.9609
N3240 X-.6035 Y-2.2523 Z.9531
N3250 X-.8923 Y-2.1543 Z.9453
N3260 X-1.1659 Y-2.0194 Z.9375
N3270 X-1.4195 Y-1.8499 Z.9297
N3280 X-1.6488 Y-1.6488 Z.9219
N3290 X-1.8499 Y-1.4195 Z.9141
N3300 X-2.0194 Y-1.1659 Z.9063
N3310 X-2.1543 Y-.8923 Z.8984
N3320 X-2.2523 Y-.6035 Z.8906
N3330 X-2.3118 Y-.3044 Z.8828
N3340 X-2.3317 Y0. Z.875
N3350 X-2.3118 Y.3044 Z.8672
N3360 X-2.2523 Y.6035 Z.8594
N3370 X-2.1543 Y.8923 Z.8516
N3380 X-2.0194 Y1.1659 Z.8438
N3390 X-1.8499 Y1.4195 Z.8359
N3400 X-1.6488 Y1.6488 Z.8281
N3410 X-1.4195 Y1.8499 Z.8203
N3420 X-1.1659 Y2.0194 Z.8125
N3430 X-.8923 Y2.1543 Z.8047
N3440 X-.6035 Y2.2523 Z.7969
N3450 X-.3044 Y2.3118 Z.7891
N3460 X0. Y2.3317 Z.7813
N3470 X.3044 Y2.3118 Z.7734
N3480 X.6035 Y2.2523 Z.7656
N3490 X.8923 Y2.1543 Z.7578
N3500 X1.1659 Y2.0194 Z.75
N3510 X1.4195 Y1.8499 Z.7422
N3520 X1.6488 Y1.6488 Z.7344
N3530 X1.8499 Y1.4195 Z.7266
N3540 X2.0194 Y1.1659 Z.7188
N3550 X2.1543 Y.8923 Z.7109
N3560 X2.2523 Y.6035 Z.7031
N3570 X2.3118 Y.3044 Z.6953
N3580 X2.3317 Y0. Z.6875
N3590 X2.3118 Y-.3044 Z.6797
N3600 X2.2523 Y-.6035 Z.6719
N3610 X2.1543 Y-.8923 Z.6641
N3620 X2.0194 Y-1.1659 Z.6563
N3630 X1.8499 Y-1.4195 Z.6484
N3640 X1.6488 Y-1.6488 Z.6406
N3650 X1.4195 Y-1.8499 Z.6328
N3660 X1.1659 Y-2.0194 Z.625
N3670 X.8923 Y-2.1543 Z.6172
N3680 X.6035 Y-2.2523 Z.6094
N3690 X.3044 Y-2.3118 Z.6016
N3700 X0. Y-2.3317 Z.5938
N3710 X-.3044 Y-2.3118 Z.5859
N3720 X-.6035 Y-2.2523 Z.5781
N3730 X-.8923 Y-2.1543 Z.5703
N3740 X-1.1659 Y-2.0194 Z.5625
N3750 X-1.4195 Y-1.8499 Z.5547
N3760 X-1.6488 Y-1.6488 Z.5469
N3770 X-1.8499 Y-1.4195 Z.5391
N3780 X-2.0194 Y-1.1659 Z.5313
N3790 X-2.1543 Y-.8923 Z.5234
N3800 X-2.2523 Y-.6035 Z.5156
N3810 X-2.3118 Y-.3044 Z.5078
N3820 X-2.3317 Y0. Z.5
N3830 X-2.3118 Y.3044 Z.4922
N3840 X-2.2523 Y.6035 Z.4844
N3850 X-2.1543 Y.8923 Z.4766
N3860 X-2.0194 Y1.1659 Z.4688
N3870 X-1.8499 Y1.4195 Z.4609
N3880 X-1.6488 Y1.6488 Z.4531
N3890 X-1.4195 Y1.8499 Z.4453
N3900 X-1.1659 Y2.0194 Z.4375
N3910 X-.8923 Y2.1543 Z.4297
N3920 X-.6035 Y2.2523 Z.4219
N3930 X-.3044 Y2.3118 Z.4141
N3940 X0. Y2.3317 Z.4063
N3950 X.3044 Y2.3118 Z.3984
N3960 X.6035 Y2.2523 Z.3906
N3970 X.8923 Y2.1543 Z.3828
N3980 X1.1659 Y2.0194 Z.375
N3990 X1.4195 Y1.8499 Z.3672
N4000 X1.6488 Y1.6488 Z.3594
N4010 X1.8499 Y1.4195 Z.3516
N4020 X2.0194 Y1.1659 Z.3438
N4030 X2.1543 Y.8923 Z.3359
N4040 X2.2523 Y.6035 Z.3281
N4050 X2.3118 Y.3044 Z.3203
N4060 X2.3317 Y0. Z.3125
N4070 X2.3118 Y-.3044 Z.3047
N4080 X2.2523 Y-.6035 Z.2969
N4090 X2.1543 Y-.8923 Z.2891
N4100 X2.0194 Y-1.1659 Z.2813
N4110 X1.8499 Y-1.4195 Z.2734
N4120 X1.6488 Y-1.6488 Z.2656
N4130 X1.4195 Y-1.8499 Z.2578
N4140 X1.1659 Y-2.0194 Z.25
N4150 X.8923 Y-2.1543 Z.2422
N4160 X.6035 Y-2.2523 Z.2344
N4170 X.3044 Y-2.3118 Z.2266
N4180 X0. Y-2.3317 Z.2188
N4190 X-.3044 Y-2.3118 Z.2109
N4200 X-.6035 Y-2.2523 Z.2031
N4210 X-.8923 Y-2.1543 Z.1953
N4220 X-1.1659 Y-2.0194 Z.1875
N4230 X-1.4195 Y-1.8499 Z.1797
N4240 X-1.6488 Y-1.6488 Z.1719
N4250 X-1.8499 Y-1.4195 Z.1641
N4260 X-2.0194 Y-1.1659 Z.1563
N4270 X-2.1543 Y-.8923 Z.1484
N4280 X-2.2523 Y-.6035 Z.1406
N4290 X-2.3118 Y-.3044 Z.1328
N4300 X-2.3317 Y0. Z.125
N4310 X-2.3118 Y.3044 Z.1172
N4320 X-2.2523 Y.6035 Z.1094
N4330 X-2.1543 Y.8923 Z.1016
N4340 X-2.0194 Y1.1659 Z.0938
N4350 X-1.8499 Y1.4195 Z.0859
N4360 X-1.6488 Y1.6488 Z.0781
N4370 X-1.4195 Y1.8499 Z.0703
N4380 X-1.1659 Y2.0194 Z.0625
N4390 X-.8923 Y2.1543 Z.0547
N4400 X-.6035 Y2.2523 Z.0469
N4410 X-.3044 Y2.3118 Z.0391
N4420 X0. Y2.3317 Z.0313
N4430 X.3044 Y2.3118 Z.0234
N4440 X.6035 Y2.2523 Z.0156
N4450 X.8923 Y2.1543 Z.0078
N4460 X1.1659 Y2.0194 Z0.
;N4470 G2 X2.3318 Y0. I-1.1659 J-2.0194
;N4480 X0. Y-2.3318 I-2.3318 J0.
;N4490 X-2.3317 Y0. I0. J2.3318
;N4500 X0. Y2.3317 I2.3317 J0.
;N4510 X1.1659 Y2.0194 I0. J-2.3317
N4520 G1 X1.2474 Y2.1605
N4530 Z.2
N4540 G0 Z1.825
N4550 X-2.3237 Y0.
N4560 G1 Z1.625 ;F6.42
N4570 X-2.3039 Y.3033 Z1.6172
N4580 X-2.2446 Y.6014 Z1.6094
N4590 X-2.1469 Y.8893 Z1.6016
N4600 X-2.0124 Y1.1619 Z1.5938
N4610 X-1.8436 Y1.4146 Z1.5859
N4620 X-1.6431 Y1.6431 Z1.5781
N4630 X-1.4146 Y1.8436 Z1.5703
N4640 X-1.1619 Y2.0124 Z1.5625
N4650 X-.8893 Y2.1469 Z1.5547
N4660 X-.6014 Y2.2446 Z1.5469
N4670 X-.3033 Y2.3039 Z1.5391
N4680 X0. Y2.3237 Z1.5313
N4690 X.3033 Y2.3039 Z1.5234
N4700 X.6014 Y2.2446 Z1.5156
N4710 X.8893 Y2.1469 Z1.5078
N4720 X1.1619 Y2.0124 Z1.5
N4730 X1.4146 Y1.8436 Z1.4922
N4740 X1.6431 Y1.6431 Z1.4844
N4750 X1.8436 Y1.4146 Z1.4766
N4760 X2.0124 Y1.1619 Z1.4688
N4770 X2.1469 Y.8893 Z1.4609
N4780 X2.2446 Y.6014 Z1.4531
N4790 X2.3039 Y.3033 Z1.4453
N4800 X2.3237 Y0. Z1.4375
N4810 X2.3039 Y-.3033 Z1.4297
N4820 X2.2446 Y-.6014 Z1.4219
N4830 X2.1469 Y-.8893 Z1.4141
N4840 X2.0124 Y-1.1619 Z1.4063
N4850 X1.8436 Y-1.4146 Z1.3984
N4860 X1.6431 Y-1.6431 Z1.3906
N4870 X1.4146 Y-1.8436 Z1.3828
N4880 X1.1619 Y-2.0124 Z1.375
N4890 X.8893 Y-2.1469 Z1.3672
N4900 X.6014 Y-2.2446 Z1.3594
N4910 X.3033 Y-2.3039 Z1.3516
N4920 X0. Y-2.3237 Z1.3438
N4930 X-.3033 Y-2.3039 Z1.3359
N4940 X-.6014 Y-2.2446 Z1.3281
N4950 X-.8893 Y-2.1469 Z1.3203
N4960 X-1.1619 Y-2.0124 Z1.3125
N4970 X-1.4146 Y-1.8436 Z1.3047
N4980 X-1.6431 Y-1.6431 Z1.2969
N4990 X-1.8436 Y-1.4146 Z1.2891
N5000 X-2.0124 Y-1.1619 Z1.2813
N5010 X-2.1469 Y-.8893 Z1.2734
N5020 X-2.2446 Y-.6014 Z1.2656
N5030 X-2.3039 Y-.3033 Z1.2578
N5040 X-2.3237 Y0. Z1.25
N5050 X-2.3039 Y.3033 Z1.2422
N5060 X-2.2446 Y.6014 Z1.2344
N5070 X-2.1469 Y.8893 Z1.2266
N5080 X-2.0124 Y1.1619 Z1.2188
N5090 X-1.8436 Y1.4146 Z1.2109
N5100 X-1.6431 Y1.6431 Z1.2031
N5110 X-1.4146 Y1.8436 Z1.1953
N5120 X-1.1619 Y2.0124 Z1.1875
N5130 X-.8893 Y2.1469 Z1.1797
N5140 X-.6014 Y2.2446 Z1.1719
N5150 X-.3033 Y2.3039 Z1.1641
N5160 X0. Y2.3237 Z1.1563
N5170 X.3033 Y2.3039 Z1.1484
N5180 X.6014 Y2.2446 Z1.1406
N5190 X.8893 Y2.1469 Z1.1328
N5200 X1.1619 Y2.0124 Z1.125
N5210 X1.4146 Y1.8436 Z1.1172
N5220 X1.6431 Y1.6431 Z1.1094
N5230 X1.8436 Y1.4146 Z1.1016
N5240 X2.0124 Y1.1619 Z1.0938
N5250 X2.1469 Y.8893 Z1.0859
N5260 X2.2446 Y.6014 Z1.0781
N5270 X2.3039 Y.3033 Z1.0703
N5280 X2.3237 Y0. Z1.0625
N5290 X2.3039 Y-.3033 Z1.0547
N5300 X2.2446 Y-.6014 Z1.0469
N5310 X2.1469 Y-.8893 Z1.0391
N5320 X2.0124 Y-1.1619 Z1.0313
N5330 X1.8436 Y-1.4146 Z1.0234
N5340 X1.6431 Y-1.6431 Z1.0156
N5350 X1.4146 Y-1.8436 Z1.0078
N5360 X1.1619 Y-2.0124 Z1.
N5370 X.8893 Y-2.1469 Z.9922
N5380 X.6014 Y-2.2446 Z.9844
N5390 X.3033 Y-2.3039 Z.9766
N5400 X0. Y-2.3237 Z.9688
N5410 X-.3033 Y-2.3039 Z.9609
N5420 X-.6014 Y-2.2446 Z.9531
N5430 X-.8893 Y-2.1469 Z.9453
N5440 X-1.1619 Y-2.0124 Z.9375
N5450 X-1.4146 Y-1.8436 Z.9297
N5460 X-1.6431 Y-1.6431 Z.9219
N5470 X-1.8436 Y-1.4146 Z.9141
N5480 X-2.0124 Y-1.1619 Z.9063
N5490 X-2.1469 Y-.8893 Z.8984
N5500 X-2.2446 Y-.6014 Z.8906
N5510 X-2.3039 Y-.3033 Z.8828
N5520 X-2.3237 Y0. Z.875
N5530 X-2.3039 Y.3033 Z.8672
N5540 X-2.2446 Y.6014 Z.8594
N5550 X-2.1469 Y.8893 Z.8516
N5560 X-2.0124 Y1.1619 Z.8438
N5570 X-1.8436 Y1.4146 Z.8359
N5580 X-1.6431 Y1.6431 Z.8281
N5590 X-1.4146 Y1.8436 Z.8203
N5600 X-1.1619 Y2.0124 Z.8125
N5610 X-.8893 Y2.1469 Z.8047
N5620 X-.6014 Y2.2446 Z.7969
N5630 X-.3033 Y2.3039 Z.7891
N5640 X0. Y2.3237 Z.7813
N5650 X.3033 Y2.3039 Z.7734
N5660 X.6014 Y2.2446 Z.7656
N5670 X.8893 Y2.1469 Z.7578
N5680 X1.1619 Y2.0124 Z.75
N5690 X1.4146 Y1.8436 Z.7422
N5700 X1.6431 Y1.6431 Z.7344
N5710 X1.8436 Y1.4146 Z.7266
N5720 X2.0124 Y1.1619 Z.7188
N5730 X2.1469 Y.8893 Z.7109
N5740 X2.2446 Y.6014 Z.7031
N5750 X2.3039 Y.3033 Z.6953
N5760 X2.3237 Y0. Z.6875
N5770 X2.3039 Y-.3033 Z.6797
N5780 X2.2446 Y-.6014 Z.6719
N5790 X2.1469 Y-.8893 Z.6641
N5800 X2.0124 Y-1.1619 Z.6563
N5810 X1.8436 Y-1.4146 Z.6484
N5820 X1.6431 Y-1.6431 Z.6406
N5830 X1.4146 Y-1.8436 Z.6328
N5840 X1.1619 Y-2.0124 Z.625
N5850 X.8893 Y-2.1469 Z.6172
N5860 X.6014 Y-2.2446 Z.6094
N5870 X.3033 Y-2.3039 Z.6016
N5880 X0. Y-2.3237 Z.5938
N5890 X-.3033 Y-2.3039 Z.5859
N5900 X-.6014 Y-2.2446 Z.5781
N5910 X-.8893 Y-2.1469 Z.5703
N5920 X-1.1619 Y-2.0124 Z.5625
N5930 X-1.4146 Y-1.8436 Z.5547
N5940 X-1.6431 Y-1.6431 Z.5469
N5950 X-1.8436 Y-1.4146 Z.5391
N5960 X-2.0124 Y-1.1619 Z.5313
N5970 X-2.1469 Y-.8893 Z.5234
N5980 X-2.2446 Y-.6014 Z.5156
N5990 X-2.3039 Y-.3033 Z.5078
N6000 X-2.3237 Y0. Z.5
N6010 X-2.3039 Y.3033 Z.4922
N6020 X-2.2446 Y.6014 Z.4844
N6030 X-2.1469 Y.8893 Z.4766
N6040 X-2.0124 Y1.1619 Z.4688
N6050 X-1.8436 Y1.4146 Z.4609
N6060 X-1.6431 Y1.6431 Z.4531
N6070 X-1.4146 Y1.8436 Z.4453
N6080 X-1.1619 Y2.0124 Z.4375
N6090 X-.8893 Y2.1469 Z.4297
N6100 X-.6014 Y2.2446 Z.4219
N6110 X-.3033 Y2.3039 Z.4141
N6120 X0. Y2.3237 Z.4063
N6130 X.3033 Y2.3039 Z.3984
N6140 X.6014 Y2.2446 Z.3906
N6150 X.8893 Y2.1469 Z.3828
N6160 X1.1619 Y2.0124 Z.375
N6170 X1.4146 Y1.8436 Z.3672
N6180 X1.6431 Y1.6431 Z.3594
N6190 X1.8436 Y1.4146 Z.3516
N6200 X2.0124 Y1.1619 Z.3438
N6210 X2.1469 Y.8893 Z.3359
N6220 X2.2446 Y.6014 Z.3281
N6230 X2.3039 Y.3033 Z.3203
N6240 X2.3237 Y0. Z.3125
N6250 X2.3039 Y-.3033 Z.3047
N6260 X2.2446 Y-.6014 Z.2969
N6270 X2.1469 Y-.8893 Z.2891
N6280 X2.0124 Y-1.1619 Z.2813
N6290 X1.8436 Y-1.4146 Z.2734
N6300 X1.6431 Y-1.6431 Z.2656
N6310 X1.4146 Y-1.8436 Z.2578
N6320 X1.1619 Y-2.0124 Z.25
N6330 X.8893 Y-2.1469 Z.2422
N6340 X.6014 Y-2.2446 Z.2344
N6350 X.3033 Y-2.3039 Z.2266
N6360 X0. Y-2.3237 Z.2188
N6370 X-.3033 Y-2.3039 Z.2109
N6380 X-.6014 Y-2.2446 Z.2031
N6390 X-.8893 Y-2.1469 Z.1953
N6400 X-1.1619 Y-2.0124 Z.1875
N6410 X-1.4146 Y-1.8436 Z.1797
N6420 X-1.6431 Y-1.6431 Z.1719
N6430 X-1.8436 Y-1.4146 Z.1641
N6440 X-2.0124 Y-1.1619 Z.1563
N6450 X-2.1469 Y-.8893 Z.1484
N6460 X-2.2446 Y-.6014 Z.1406
N6470 X-2.3039 Y-.3033 Z.1328
N6480 X-2.3237 Y0. Z.125
N6490 X-2.3039 Y.3033 Z.1172
N6500 X-2.2446 Y.6014 Z.1094
N6510 X-2.1469 Y.8893 Z.1016
N6520 X-2.0124 Y1.1619 Z.0938
N6530 X-1.8436 Y1.4146 Z.0859
N6540 X-1.6431 Y1.6431 Z.0781
N6550 X-1.4146 Y1.8436 Z.0703
N6560 X-1.1619 Y2.0124 Z.0625
N6570 X-.8893 Y2.1469 Z.0547
N6580 X-.6014 Y2.2446 Z.0469
N6590 X-.3033 Y2.3039 Z.0391
N6600 X0. Y2.3237 Z.0313
N6610 X.3033 Y2.3039 Z.0234
N6620 X.6014 Y2.2446 Z.0156
N6630 X.8893 Y2.1469 Z.0078
N6640 X1.1619 Y2.0124 Z0.
;N6650 G2 X2.3237 Y0. I-1.1619 J-2.0124
;N6660 X0. Y-2.3237 I-2.3237 J0.
;N6670 X-2.3237 Y0. I0. J2.3237
;N6680 X0. Y2.3237 I2.3237 J0.
;N6690 X1.1619 Y2.0124 I0. J-2.3237
N6700 G1 X1.2434 Y2.1536
N6710 Z.2
N6720 G0 Z1.825
N6730 X-2.3157 Y0.
N6740 G1 Z1.625 ;F6.42
N6750 X-2.2959 Y.3023 Z1.6172
N6760 X-2.2368 Y.5994 Z1.6094
N6770 X-2.1395 Y.8862 Z1.6016
N6780 X-2.0055 Y1.1579 Z1.5938
N6790 X-1.8372 Y1.4097 Z1.5859
N6800 X-1.6375 Y1.6375 Z1.5781
N6810 X-1.4097 Y1.8372 Z1.5703
N6820 X-1.1579 Y2.0055 Z1.5625
N6830 X-.8862 Y2.1395 Z1.5547
N6840 X-.5994 Y2.2368 Z1.5469
N6850 X-.3023 Y2.2959 Z1.5391
N6860 X0. Y2.3157 Z1.5313
N6870 X.3023 Y2.2959 Z1.5234
N6880 X.5994 Y2.2368 Z1.5156
N6890 X.8862 Y2.1395 Z1.5078
N6900 X1.1579 Y2.0055 Z1.5
N6910 X1.4097 Y1.8372 Z1.4922
N6920 X1.6375 Y1.6375 Z1.4844
N6930 X1.8372 Y1.4097 Z1.4766
N6940 X2.0055 Y1.1579 Z1.4688
N6950 X2.1395 Y.8862 Z1.4609
N6960 X2.2368 Y.5994 Z1.4531
N6970 X2.2959 Y.3023 Z1.4453
N6980 X2.3157 Y0. Z1.4375
N6990 X2.2959 Y-.3023 Z1.4297
N7000 X2.2368 Y-.5994 Z1.4219
N7010 X2.1395 Y-.8862 Z1.4141
N7020 X2.0055 Y-1.1579 Z1.4063
N7030 X1.8372 Y-1.4097 Z1.3984
N7040 X1.6375 Y-1.6375 Z1.3906
N7050 X1.4097 Y-1.8372 Z1.3828
N7060 X1.1579 Y-2.0055 Z1.375
N7070 X.8862 Y-2.1395 Z1.3672
N7080 X.5994 Y-2.2368 Z1.3594
N7090 X.3023 Y-2.2959 Z1.3516
N7100 X0. Y-2.3157 Z1.3438
N7110 X-.3023 Y-2.2959 Z1.3359
N7120 X-.5994 Y-2.2368 Z1.3281
N7130 X-.8862 Y-2.1395 Z1.3203
N7140 X-1.1579 Y-2.0055 Z1.3125
N7150 X-1.4097 Y-1.8372 Z1.3047
N7160 X-1.6375 Y-1.6375 Z1.2969
N7170 X-1.8372 Y-1.4097 Z1.2891
N7180 X-2.0055 Y-1.1579 Z1.2813
N7190 X-2.1395 Y-.8862 Z1.2734
N7200 X-2.2368 Y-.5994 Z1.2656
N7210 X-2.2959 Y-.3023 Z1.2578
N7220 X-2.3157 Y0. Z1.25
N7230 X-2.2959 Y.3023 Z1.2422
N7240 X-2.2368 Y.5994 Z1.2344
N7250 X-2.1395 Y.8862 Z1.2266
N7260 X-2.0055 Y1.1579 Z1.2188
N7270 X-1.8372 Y1.4097 Z1.2109
N7280 X-1.6375 Y1.6375 Z1.2031
N7290 X-1.4097 Y1.8372 Z1.1953
N7300 X-1.1579 Y2.0055 Z1.1875
N7310 X-.8862 Y2.1395 Z1.1797
N7320 X-.5994 Y2.2368 Z1.1719
N7330 X-.3023 Y2.2959 Z1.1641
N7340 X0. Y2.3157 Z1.1563
N7350 X.3023 Y2.2959 Z1.1484
N7360 X.5994 Y2.2368 Z1.1406
N7370 X.8862 Y2.1395 Z1.1328
N7380 X1.1579 Y2.0055 Z1.125
N7390 X1.4097 Y1.8372 Z1.1172
N7400 X1.6375 Y1.6375 Z1.1094
N7410 X1.8372 Y1.4097 Z1.1016
N7420 X2.0055 Y1.1579 Z1.0938
N7430 X2.1395 Y.8862 Z1.0859
N7440 X2.2368 Y.5994 Z1.0781
N7450 X2.2959 Y.3023 Z1.0703
N7460 X2.3157 Y0. Z1.0625
N7470 X2.2959 Y-.3023 Z1.0547
N7480 X2.2368 Y-.5994 Z1.0469
N7490 X2.1395 Y-.8862 Z1.0391
N7500 X2.0055 Y-1.1579 Z1.0313
N7510 X1.8372 Y-1.4097 Z1.0234
N7520 X1.6375 Y-1.6375 Z1.0156
N7530 X1.4097 Y-1.8372 Z1.0078
N7540 X1.1579 Y-2.0055 Z1.
N7550 X.8862 Y-2.1395 Z.9922
N7560 X.5994 Y-2.2368 Z.9844
N7570 X.3023 Y-2.2959 Z.9766
N7580 X0. Y-2.3157 Z.9688
N7590 X-.3023 Y-2.2959 Z.9609
N7600 X-.5994 Y-2.2368 Z.9531
N7610 X-.8862 Y-2.1395 Z.9453
N7620 X-1.1579 Y-2.0055 Z.9375
N7630 X-1.4097 Y-1.8372 Z.9297
N7640 X-1.6375 Y-1.6375 Z.9219
N7650 X-1.8372 Y-1.4097 Z.9141
N7660 X-2.0055 Y-1.1579 Z.9063
N7670 X-2.1395 Y-.8862 Z.8984
N7680 X-2.2368 Y-.5994 Z.8906
N7690 X-2.2959 Y-.3023 Z.8828
N7700 X-2.3157 Y0. Z.875
N7710 X-2.2959 Y.3023 Z.8672
N7720 X-2.2368 Y.5994 Z.8594
N7730 X-2.1395 Y.8862 Z.8516
N7740 X-2.0055 Y1.1579 Z.8438
N7750 X-1.8372 Y1.4097 Z.8359
N7760 X-1.6375 Y1.6375 Z.8281
N7770 X-1.4097 Y1.8372 Z.8203
N7780 X-1.1579 Y2.0055 Z.8125
N7790 X-.8862 Y2.1395 Z.8047
N7800 X-.5994 Y2.2368 Z.7969
N7810 X-.3023 Y2.2959 Z.7891
N7820 X0. Y2.3157 Z.7813
N7830 X.3023 Y2.2959 Z.7734
N7840 X.5994 Y2.2368 Z.7656
N7850 X.8862 Y2.1395 Z.7578
N7860 X1.1579 Y2.0055 Z.75
N7870 X1.4097 Y1.8372 Z.7422
N7880 X1.6375 Y1.6375 Z.7344
N7890 X1.8372 Y1.4097 Z.7266
N7900 X2.0055 Y1.1579 Z.7188
N7910 X2.1395 Y.8862 Z.7109
N7920 X2.2368 Y.5994 Z.7031
N7930 X2.2959 Y.3023 Z.6953
N7940 X2.3157 Y0. Z.6875
N7950 X2.2959 Y-.3023 Z.6797
N7960 X2.2368 Y-.5994 Z.6719
N7970 X2.1395 Y-.8862 Z.6641
N7980 X2.0055 Y-1.1579 Z.6563
N7990 X1.8372 Y-1.4097 Z.6484
N8000 X1.6375 Y-1.6375 Z.6406
N8010 X1.4097 Y-1.8372 Z.6328
N8020 X1.1579 Y-2.0055 Z.625
N8030 X.8862 Y-2.1395 Z.6172
N8040 X.5994 Y-2.2368 Z.6094
N8050 X.3023 Y-2.2959 Z.6016
N8060 X0. Y-2.3157 Z.5938
N8070 X-.3023 Y-2.2959 Z.5859
N8080 X-.5994 Y-2.2368 Z.5781
N8090 X-.8862 Y-2.1395 Z.5703
N8100 X-1.1579 Y-2.0055 Z.5625
N8110 X-1.4097 Y-1.8372 Z.5547
N8120 X-1.6375 Y-1.6375 Z.5469
N8130 X-1.8372 Y-1.4097 Z.5391
N8140 X-2.0055 Y-1.1579 Z.5313
N8150 X-2.1395 Y-.8862 Z.5234
N8160 X-2.2368 Y-.5994 Z.5156
N8170 X-2.2959 Y-.3023 Z.5078
N8180 X-2.3157 Y0. Z.5
N8190 X-2.2959 Y.3023 Z.4922
N8200 X-2.2368 Y.5994 Z.4844
N8210 X-2.1395 Y.8862 Z.4766
N8220 X-2.0055 Y1.1579 Z.4688
N8230 X-1.8372 Y1.4097 Z.4609
N8240 X-1.6375 Y1.6375 Z.4531
N8250 X-1.4097 Y1.8372 Z.4453
N8260 X-1.1579 Y2.0055 Z.4375
N8270 X-.8862 Y2.1395 Z.4297
N8280 X-.5994 Y2.2368 Z.4219
N8290 X-.3023 Y2.2959 Z.4141
N8300 X0. Y2.3157 Z.4063
N8310 X.3023 Y2.2959 Z.3984
N8320 X.5994 Y2.2368 Z.3906
N8330 X.8862 Y2.1395 Z.3828
N8340 X1.1579 Y2.0055 Z.375
N8350 X1.4097 Y1.8372 Z.3672
N8360 X1.6375 Y1.6375 Z.3594
N8370 X1.8372 Y1.4097 Z.3516
N8380 X2.0055 Y1.1579 Z.3438
N8390 X2.1395 Y.8862 Z.3359
N8400 X2.2368 Y.5994 Z.3281
N8410 X2.2959 Y.3023 Z.3203
N8420 X2.3157 Y0. Z.3125
N8430 X2.2959 Y-.3023 Z.3047
N8440 X2.2368 Y-.5994 Z.2969
N8450 X2.1395 Y-.8862 Z.2891
N8460 X2.0055 Y-1.1579 Z.2813
N8470 X1.8372 Y-1.4097 Z.2734
N8480 X1.6375 Y-1.6375 Z.2656
N8490 X1.4097 Y-1.8372 Z.2578
N8500 X1.1579 Y-2.0055 Z.25
N8510 X.8862 Y-2.1395 Z.2422
N8520 X.5994 Y-2.2368 Z.2344
N8530 X.3023 Y-2.2959 Z.2266
N8540 X0. Y-2.3157 Z.2188
N8550 X-.3023 Y-2.2959 Z.2109
N8560 X-.5994 Y-2.2368 Z.2031
N8570 X-.8862 Y-2.1395 Z.1953
N8580 X-1.1579 Y-2.0055 Z.1875
N8590 X-1.4097 Y-1.8372 Z.1797
N8600 X-1.6375 Y-1.6375 Z.1719
N8610 X-1.8372 Y-1.4097 Z.1641
N8620 X-2.0055 Y-1.1579 Z.1563
N8630 X-2.1395 Y-.8862 Z.1484
N8640 X-2.2368 Y-.5994 Z.1406
N8650 X-2.2959 Y-.3023 Z.1328
N8660 X-2.3157 Y0. Z.125
N8670 X-2.2959 Y.3023 Z.1172
N8680 X-2.2368 Y.5994 Z.1094
N8690 X-2.1395 Y.8862 Z.1016
N8700 X-2.0055 Y1.1579 Z.0938
N8710 X-1.8372 Y1.4097 Z.0859
N8720 X-1.6375 Y1.6375 Z.0781
N8730 X-1.4097 Y1.8372 Z.0703
N8740 X-1.1579 Y2.0055 Z.0625
N8750 X-.8862 Y2.1395 Z.0547
N8760 X-.5994 Y2.2368 Z.0469
N8770 X-.3023 Y2.2959 Z.0391
N8780 X0. Y2.3157 Z.0313
N8790 X.3023 Y2.2959 Z.0234
N8800 X.5994 Y2.2368 Z.0156
N8810 X.8862 Y2.1395 Z.0078
N8820 X1.1579 Y2.0055 Z0.
;N8830 G2 X2.3158 Y0. I-1.1579 J-2.0055
;N8840 X0. Y-2.3158 I-2.3158 J0.
;N8850 X-2.3157 Y0. I0. J2.3158
;N8860 X0. Y2.3157 I2.3157 J0.
;N8870 X1.1579 Y2.0055 I0. J-2.3157
N8880 G1 X1.2394 Y2.1467
N8890 Z.2
N8900 G0 Z1.825
N8910 X-2.3077 Y0.
N8920 G1 Z1.625 ;F6.42
N8930 X-2.288 Y.3012 Z1.6172
N8940 X-2.2291 Y.5973 Z1.6094
N8950 X-2.1321 Y.8831 Z1.6016
N8960 X-1.9986 Y1.1539 Z1.5938
N8970 X-1.8309 Y1.4049 Z1.5859
N8980 X-1.6318 Y1.6318 Z1.5781
N8990 X-1.4049 Y1.8309 Z1.5703
N9000 X-1.1539 Y1.9986 Z1.5625
N9010 X-.8831 Y2.1321 Z1.5547
N9020 X-.5973 Y2.2291 Z1.5469
N9030 X-.3012 Y2.288 Z1.5391
N9040 X0. Y2.3077 Z1.5313
N9050 X.3012 Y2.288 Z1.5234
N9060 X.5973 Y2.2291 Z1.5156
N9070 X.8831 Y2.1321 Z1.5078
N9080 X1.1539 Y1.9986 Z1.5
N9090 X1.4049 Y1.8309 Z1.4922
N9100 X1.6318 Y1.6318 Z1.4844
N9110 X1.8309 Y1.4049 Z1.4766
N9120 X1.9986 Y1.1539 Z1.4688
N9130 X2.1321 Y.8831 Z1.4609
N9140 X2.2291 Y.5973 Z1.4531
N9150 X2.288 Y.3012 Z1.4453
N9160 X2.3077 Y0. Z1.4375
N9170 X2.288 Y-.3012 Z1.4297
N9180 X2.2291 Y-.5973 Z1.4219
N9190 X2.1321 Y-.8831 Z1.4141
N9200 X1.9986 Y-1.1539 Z1.4063
N9210 X1.8309 Y-1.4049 Z1.3984
N9220 X1.6318 Y-1.6318 Z1.3906
N9230 X1.4049 Y-1.8309 Z1.3828
N9240 X1.1539 Y-1.9986 Z1.375
N9250 X.8831 Y-2.1321 Z1.3672
N9260 X.5973 Y-2.2291 Z1.3594
N9270 X.3012 Y-2.288 Z1.3516
N9280 X0. Y-2.3077 Z1.3438
N9290 X-.3012 Y-2.288 Z1.3359
N9300 X-.5973 Y-2.2291 Z1.3281
N9310 X-.8831 Y-2.1321 Z1.3203
N9320 X-1.1539 Y-1.9986 Z1.3125
N9330 X-1.4049 Y-1.8309 Z1.3047
N9340 X-1.6318 Y-1.6318 Z1.2969
N9350 X-1.8309 Y-1.4049 Z1.2891
N9360 X-1.9986 Y-1.1539 Z1.2813
N9370 X-2.1321 Y-.8831 Z1.2734
N9380 X-2.2291 Y-.5973 Z1.2656
N9390 X-2.288 Y-.3012 Z1.2578
N9400 X-2.3077 Y0. Z1.25
N9410 X-2.288 Y.3012 Z1.2422
N9420 X-2.2291 Y.5973 Z1.2344
N9430 X-2.1321 Y.8831 Z1.2266
N9440 X-1.9986 Y1.1539 Z1.2188
N9450 X-1.8309 Y1.4049 Z1.2109
N9460 X-1.6318 Y1.6318 Z1.2031
N9470 X-1.4049 Y1.8309 Z1.1953
N9480 X-1.1539 Y1.9986 Z1.1875
N9490 X-.8831 Y2.1321 Z1.1797
N9500 X-.5973 Y2.2291 Z1.1719
N9510 X-.3012 Y2.288 Z1.1641
N9520 X0. Y2.3077 Z1.1563
N9530 X.3012 Y2.288 Z1.1484
N9540 X.5973 Y2.2291 Z1.1406
N9550 X.8831 Y2.1321 Z1.1328
N9560 X1.1539 Y1.9986 Z1.125
N9570 X1.4049 Y1.8309 Z1.1172
N9580 X1.6318 Y1.6318 Z1.1094
N9590 X1.8309 Y1.4049 Z1.1016
N9600 X1.9986 Y1.1539 Z1.0938
N9610 X2.1321 Y.8831 Z1.0859
N9620 X2.2291 Y.5973 Z1.0781
N9630 X2.288 Y.3012 Z1.0703
N9640 X2.3077 Y0. Z1.0625
N9650 X2.288 Y-.3012 Z1.0547
N9660 X2.2291 Y-.5973 Z1.0469
N9670 X2.1321 Y-.8831 Z1.0391
N9680 X1.9986 Y-1.1539 Z1.0313
N9690 X1.8309 Y-1.4049 Z1.0234
N9700 X1.6318 Y-1.6318 Z1.0156
N9710 X1.4049 Y-1.8309 Z1.0078
N9720 X1.1539 Y-1.9986 Z1.
N9730 X.8831 Y-2.1321 Z.9922
N9740 X.5973 Y-2.2291 Z.9844
N9750 X.3012 Y-2.288 Z.9766
N9760 X0. Y-2.3077 Z.9688
N9770 X-.3012 Y-2.288 Z.9609
N9780 X-.5973 Y-2.2291 Z.9531
N9790 X-.8831 Y-2.1321 Z.9453
N9800 X-1.1539 Y-1.9986 Z.9375
N9810 X-1.4049 Y-1.8309 Z.9297
N9820 X-1.6318 Y-1.6318 Z.9219
N9830 X-1.8309 Y-1.4049 Z.9141
N9840 X-1.9986 Y-1.1539 Z.9063
N9850 X-2.1321 Y-.8831 Z.8984
N9860 X-2.2291 Y-.5973 Z.8906
N9870 X-2.288 Y-.3012 Z.8828
N9880 X-2.3077 Y0. Z.875
N9890 X-2.288 Y.3012 Z.8672
N9900 X-2.2291 Y.5973 Z.8594
N9910 X-2.1321 Y.8831 Z.8516
N9920 X-1.9986 Y1.1539 Z.8438
N9930 X-1.8309 Y1.4049 Z.8359
N9940 X-1.6318 Y1.6318 Z.8281
N9950 X-1.4049 Y1.8309 Z.8203
N9960 X-1.1539 Y1.9986 Z.8125
N9970 X-.8831 Y2.1321 Z.8047
N9980 X-.5973 Y2.2291 Z.7969
N9990 X-.3012 Y2.288 Z.7891
N100 X0. Y2.3077 Z.7813
N110 X.3012 Y2.288 Z.7734
N120 X.5973 Y2.2291 Z.7656
N130 X.8831 Y2.1321 Z.7578
N140 X1.1539 Y1.9986 Z.75
N150 X1.4049 Y1.8309 Z.7422
N160 X1.6318 Y1.6318 Z.7344
N170 X1.8309 Y1.4049 Z.7266
N180 X1.9986 Y1.1539 Z.7188
N190 X2.1321 Y.8831 Z.7109
N200 X2.2291 Y.5973 Z.7031
N210 X2.288 Y.3012 Z.6953
N220 X2.3077 Y0. Z.6875
N230 X2.288 Y-.3012 Z.6797
N240 X2.2291 Y-.5973 Z.6719
N250 X2.1321 Y-.8831 Z.6641
N260 X1.9986 Y-1.1539 Z.6563
N270 X1.8309 Y-1.4049 Z.6484
N280 X1.6318 Y-1.6318 Z.6406
N290 X1.4049 Y-1.8309 Z.6328
N300 X1.1539 Y-1.9986 Z.625
N310 X.8831 Y-2.1321 Z.6172
N320 X.5973 Y-2.2291 Z.6094
N330 X.3012 Y-2.288 Z.6016
N340 X0. Y-2.3077 Z.5938
N350 X-.3012 Y-2.288 Z.5859
N360 X-.5973 Y-2.2291 Z.5781
N370 X-.8831 Y-2.1321 Z.5703
N380 X-1.1539 Y-1.9986 Z.5625
N390 X-1.4049 Y-1.8309 Z.5547
N400 X-1.6318 Y-1.6318 Z.5469
N410 X-1.8309 Y-1.4049 Z.5391
N420 X-1.9986 Y-1.1539 Z.5313
N430 X-2.1321 Y-.8831 Z.5234
N440 X-2.2291 Y-.5973 Z.5156
N450 X-2.288 Y-.3012 Z.5078
N460 X-2.3077 Y0. Z.5
N470 X-2.288 Y.3012 Z.4922
N480 X-2.2291 Y.5973 Z.4844
N490 X-2.1321 Y.8831 Z.4766
N500 X-1.9986 Y1.1539 Z.4688
N510 X-1.8309 Y1.4049 Z.4609
N520 X-1.6318 Y1.6318 Z.4531
N530 X-1.4049 Y1.8309 Z.4453
N540 X-1.1539 Y1.9986 Z.4375
N550 X-.8831 Y2.1321 Z.4297
N560 X-.5973 Y2.2291 Z.4219
N570 X-.3012 Y2.288 Z.4141
N580 X0. Y2.3077 Z.4063
N590 X.3012 Y2.288 Z.3984
N600 X.5973 Y2.2291 Z.3906
N610 X.8831 Y2.1321 Z.3828
N620 X1.1539 Y1.9986 Z.375
N630 X1.4049 Y1.8309 Z.3672
N640 X1.6318 Y1.6318 Z.3594
N650 X1.8309 Y1.4049 Z.3516
N660 X1.9986 Y1.1539 Z.3438
N670 X2.1321 Y.8831 Z.3359
N680 X2.2291 Y.5973 Z.3281
N690 X2.288 Y.3012 Z.3203
N700 X2.3077 Y0. Z.3125
N710 X2.288 Y-.3012 Z.3047
N720 X2.2291 Y-.5973 Z.2969
N730 X2.1321 Y-.8831 Z.2891
N740 X1.9986 Y-1.1539 Z.2813
N750 X1.8309 Y-1.4049 Z.2734
N760 X1.6318 Y-1.6318 Z.2656
N770 X1.4049 Y-1.8309 Z.2578
N780 X1.1539 Y-1.9986 Z.25
N790 X.8831 Y-2.1321 Z.2422
N800 X.5973 Y-2.2291 Z.2344
N810 X.3012 Y-2.288 Z.2266
N820 X0. Y-2.3077 Z.2188
N830 X-.3012 Y-2.288 Z.2109
N840 X-.5973 Y-2.2291 Z.2031
N850 X-.8831 Y-2.1321 Z.1953
N860 X-1.1539 Y-1.9986 Z.1875
N870 X-1.4049 Y-1.8309 Z.1797
N880 X-1.6318 Y-1.6318 Z.1719
N890 X-1.8309 Y-1.4049 Z.1641
N900 X-1.9986 Y-1.1539 Z.1563
N910 X-2.1321 Y-.8831 Z.1484
N920 X-2.2291 Y-.5973 Z.1406
N930 X-2.288 Y-.3012 Z.1328
N940 X-2.3077 Y0. Z.125
N950 X-2.288 Y.3012 Z.1172
N960 X-2.2291 Y.5973 Z.1094
N970 X-2.1321 Y.8831 Z.1016
N980 X-1.9986 Y1.1539 Z.0938
N990 X-1.8309 Y1.4049 Z.0859
N1000 X-1.6318 Y1.6318 Z.0781
N1010 X-1.4049 Y1.8309 Z.0703
N1020 X-1.1539 Y1.9986 Z.0625
N1030 X-.8831 Y2.1321 Z.0547
N1040 X-.5973 Y2.2291 Z.0469
N1050 X-.3012 Y2.288 Z.0391
N1060 X0. Y2.3077 Z.0313
N1070 X.3012 Y2.288 Z.0234
N1080 X.5973 Y2.2291 Z.0156
N1090 X.8831 Y2.1321 Z.0078
N1100 X1.1539 Y1.9986 Z0.
;N1110 G2 X2.3078 Y0. I-1.1539 J-1.9986
;N1120 X0. Y-2.3078 I-2.3078 J0.
;N1130 X-2.3077 Y0. I0. J2.3078
;N1140 X0. Y2.3077 I2.3077 J0.
;N1150 X1.1539 Y1.9986 I0. J-2.3077
N1160 G1 X1.2354 Y2.1397
N1170 Z.2
N1180 G0 Z1.825
N1190 X-2.2997 Y0.
N1200 G1 Z1.625 ;F6.42
N1210 X-2.2801 Y.3002 Z1.6172
N1220 X-2.2214 Y.5952 Z1.6094
N1230 X-2.1247 Y.8801 Z1.6016
N1240 X-1.9916 Y1.1499 Z1.5938
N1250 X-1.8245 Y1.4 Z1.5859
N1260 X-1.6262 Y1.6262 Z1.5781
N1270 X-1.4 Y1.8245 Z1.5703
N1280 X-1.1499 Y1.9916 Z1.5625
N1290 X-.8801 Y2.1247 Z1.5547
N1300 X-.5952 Y2.2214 Z1.5469
N1310 X-.3002 Y2.2801 Z1.5391
N1320 X0. Y2.2997 Z1.5313
N1330 X.3002 Y2.2801 Z1.5234
N1340 X.5952 Y2.2214 Z1.5156
N1350 X.8801 Y2.1247 Z1.5078
N1360 X1.1499 Y1.9916 Z1.5
N1370 X1.4 Y1.8245 Z1.4922
N1380 X1.6262 Y1.6262 Z1.4844
N1390 X1.8245 Y1.4 Z1.4766
N1400 X1.9916 Y1.1499 Z1.4688
N1410 X2.1247 Y.8801 Z1.4609
N1420 X2.2214 Y.5952 Z1.4531
N1430 X2.2801 Y.3002 Z1.4453
N1440 X2.2997 Y0. Z1.4375
N1450 X2.2801 Y-.3002 Z1.4297
N1460 X2.2214 Y-.5952 Z1.4219
N1470 X2.1247 Y-.8801 Z1.4141
N1480 X1.9916 Y-1.1499 Z1.4063
N1490 X1.8245 Y-1.4 Z1.3984
N1500 X1.6262 Y-1.6262 Z1.3906
N1510 X1.4 Y-1.8245 Z1.3828
N1520 X1.1499 Y-1.9916 Z1.375
N1530 X.8801 Y-2.1247 Z1.3672
N1540 X.5952 Y-2.2214 Z1.3594
N1550 X.3002 Y-2.2801 Z1.3516
N1560 X0. Y-2.2997 Z1.3438
N1570 X-.3002 Y-2.2801 Z1.3359
N1580 X-.5952 Y-2.2214 Z1.3281
N1590 X-.8801 Y-2.1247 Z1.3203
N1600 X-1.1499 Y-1.9916 Z1.3125
N1610 X-1.4 Y-1.8245 Z1.3047
N1620 X-1.6262 Y-1.6262 Z1.2969
N1630 X-1.8245 Y-1.4 Z1.2891
N1640 X-1.9916 Y-1.1499 Z1.2813
N1650 X-2.1247 Y-.8801 Z1.2734
N1660 X-2.2214 Y-.5952 Z1.2656
N1670 X-2.2801 Y-.3002 Z1.2578
N1680 X-2.2997 Y0. Z1.25
N1690 X-2.2801 Y.3002 Z1.2422
N1700 X-2.2214 Y.5952 Z1.2344
N1710 X-2.1247 Y.8801 Z1.2266
N1720 X-1.9916 Y1.1499 Z1.2188
N1730 X-1.8245 Y1.4 Z1.2109
N1740 X-1.6262 Y1.6262 Z1.2031
N1750 X-1.4 Y1.8245 Z1.1953
N1760 X-1.1499 Y1.9916 Z1.1875
N1770 X-.8801 Y2.1247 Z1.1797
N1780 X-.5952 Y2.2214 Z1.1719
N1790 X-.3002 Y2.2801 Z1.1641
N1800 X0. Y2.2997 Z1.1563
N1810 X.3002 Y2.2801 Z1.1484
N1820 X.5952 Y2.2214 Z1.1406
N1830 X.8801 Y2.1247 Z1.1328
N1840 X1.1499 Y1.9916 Z1.125
N1850 X1.4 Y1.8245 Z1.1172
N1860 X1.6262 Y1.6262 Z1.1094
N1870 X1.8245 Y1.4 Z1.1016
N1880 X1.9916 Y1.1499 Z1.0938
N1890 X2.1247 Y.8801 Z1.0859
N1900 X2.2214 Y.5952 Z1.0781
N1910 X2.2801 Y.3002 Z1.0703
N1920 X2.2997 Y0. Z1.0625
N1930 X2.2801 Y-.3002 Z1.0547
N1940 X2.2214 Y-.5952 Z1.0469
N1950 X2.1247 Y-.8801 Z1.0391
N1960 X1.9916 Y-1.1499 Z1.0313
N1970 X1.8245 Y-1.4 Z1.0234
N1980 X1.6262 Y-1.6262 Z1.0156
N1990 X1.4 Y-1.8245 Z1.0078
N2000 X1.1499 Y-1.9916 Z1.
N2010 X.8801 Y-2.1247 Z.9922
N2020 X.5952 Y-2.2214 Z.9844
N2030 X.3002 Y-2.2801 Z.9766
N2040 X0. Y-2.2997 Z.9688
N2050 X-.3002 Y-2.2801 Z.9609
N2060 X-.5952 Y-2.2214 Z.9531
N2070 X-.8801 Y-2.1247 Z.9453
N2080 X-1.1499 Y-1.9916 Z.9375
N2090 X-1.4 Y-1.8245 Z.9297
N2100 X-1.6262 Y-1.6262 Z.9219
N2110 X-1.8245 Y-1.4 Z.9141
N2120 X-1.9916 Y-1.1499 Z.9063
N2130 X-2.1247 Y-.8801 Z.8984
N2140 X-2.2214 Y-.5952 Z.8906
N2150 X-2.2801 Y-.3002 Z.8828
N2160 X-2.2997 Y0. Z.875
N2170 X-2.2801 Y.3002 Z.8672
N2180 X-2.2214 Y.5952 Z.8594
N2190 X-2.1247 Y.8801 Z.8516
N2200 X-1.9916 Y1.1499 Z.8438
N2210 X-1.8245 Y1.4 Z.8359
N2220 X-1.6262 Y1.6262 Z.8281
N2230 X-1.4 Y1.8245 Z.8203
N2240 X-1.1499 Y1.9916 Z.8125
N2250 X-.8801 Y2.1247 Z.8047
N2260 X-.5952 Y2.2214 Z.7969
N2270 X-.3002 Y2.2801 Z.7891
N2280 X0. Y2.2997 Z.7813
N2290 X.3002 Y2.2801 Z.7734
N2300 X.5952 Y2.2214 Z.7656
N2310 X.8801 Y2.1247 Z.7578
N2320 X1.1499 Y1.9916 Z.75
N2330 X1.4 Y1.8245 Z.7422
N2340 X1.6262 Y1.6262 Z.7344
N2350 X1.8245 Y1.4 Z.7266
N2360 X1.9916 Y1.1499 Z.7188
N2370 X2.1247 Y.8801 Z.7109
N2380 X2.2214 Y.5952 Z.7031
N2390 X2.2801 Y.3002 Z.6953
N2400 X2.2997 Y0. Z.6875
N2410 X2.2801 Y-.3002 Z.6797
N2420 X2.2214 Y-.5952 Z.6719
N2430 X2.1247 Y-.8801 Z.6641
N2440 X1.9916 Y-1.1499 Z.6563
N2450 X1.8245 Y-1.4 Z.6484
N2460 X1.6262 Y-1.6262 Z.6406
N2470 X1.4 Y-1.8245 Z.6328
N2480 X1.1499 Y-1.9916 Z.625
N2490 X.8801 Y-2.1247 Z.6172
N2500 X.5952 Y-2.2214 Z.6094
N2510 X.3002 Y-2.2801 Z.6016
N2520 X0. Y-2.2997 Z.5938
N2530 X-.3002 Y-2.2801 Z.5859
N2540 X-.5952 Y-2.2214 Z.5781
N2550 X-.8801 Y-2.1247 Z.5703
N2560 X-1.1499 Y-1.9916 Z.5625
N2570 X-1.4 Y-1.8245 Z.5547
N2580 X-1.6262 Y-1.6262 Z.5469
N2590 X-1.8245 Y-1.4 Z.5391
N2600 X-1.9916 Y-1.1499 Z.5313
N2610 X-2.1247 Y-.8801 Z.5234
N2620 X-2.2214 Y-.5952 Z.5156
N2630 X-2.2801 Y-.3002 Z.5078
N2640 X-2.2997 Y0. Z.5
N2650 X-2.2801 Y.3002 Z.4922
N2660 X-2.2214 Y.5952 Z.4844
N2670 X-2.1247 Y.8801 Z.4766
N2680 X-1.9916 Y1.1499 Z.4688
N2690 X-1.8245 Y1.4 Z.4609
N2700 X-1.6262 Y1.6262 Z.4531
N2710 X-1.4 Y1.8245 Z.4453
N2720 X-1.1499 Y1.9916 Z.4375
N2730 X-.8801 Y2.1247 Z.4297
N2740 X-.5952 Y2.2214 Z.4219
N2750 X-.3002 Y2.2801 Z.4141
N2760 X0. Y2.2997 Z.4063
N2770 X.3002 Y2.2801 Z.3984
N2780 X.5952 Y2.2214 Z.3906
N2790 X.8801 Y2.1247 Z.3828
N2800 X1.1499 Y1.9916 Z.375
N2810 X1.4 Y1.8245 Z.3672
N2820 X1.6262 Y1.6262 Z.3594
N2830 X1.8245 Y1.4 Z.3516
N2840 X1.9916 Y1.1499 Z.3438
N2850 X2.1247 Y.8801 Z.3359
N2860 X2.2214 Y.5952 Z.3281
N2870 X2.2801 Y.3002 Z.3203
N2880 X2.2997 Y0. Z.3125
N2890 X2.2801 Y-.3002 Z.3047
N2900 X2.2214 Y-.5952 Z.2969
N2910 X2.1247 Y-.8801 Z.2891
N2920 X1.9916 Y-1.1499 Z.2813
N2930 X1.8245 Y-1.4 Z.2734
N2940 X1.6262 Y-1.6262 Z.2656
N2950 X1.4 Y-1.8245 Z.2578
N2960 X1.1499 Y-1.9916 Z.25
N2970 X.8801 Y-2.1247 Z.2422
N2980 X.5952 Y-2.2214 Z.2344
N2990 X.3002 Y-2.2801 Z.2266
N3000 X0. Y-2.2997 Z.2188
N3010 X-.3002 Y-2.2801 Z.2109
N3020 X-.5952 Y-2.2214 Z.2031
N3030 X-.8801 Y-2.1247 Z.1953
N3040 X-1.1499 Y-1.9916 Z.1875
N3050 X-1.4 Y-1.8245 Z.1797
N3060 X-1.6262 Y-1.6262 Z.1719
N3070 X-1.8245 Y-1.4 Z.1641
N3080 X-1.9916 Y-1.1499 Z.1563
N3090 X-2.1247 Y-.8801 Z.1484
N3100 X-2.2214 Y-.5952 Z.1406
N3110 X-2.2801 Y-.3002 Z.1328
N3120 X-2.2997 Y0. Z.125
N3130 X-2.2801 Y.3002 Z.1172
N3140 X-2.2214 Y.5952 Z.1094
N3150 X-2.1247 Y.8801 Z.1016
N3160 X-1.9916 Y1.1499 Z.0938
N3170 X-1.8245 Y1.4 Z.0859
N3180 X-1.6262 Y1.6262 Z.0781
N3190 X-1.4 Y1.8245 Z.0703
N3200 X-1.1499 Y1.9916 Z.0625
N3210 X-.8801 Y2.1247 Z.0547
N3220 X-.5952 Y2.2214 Z.0469
N3230 X-.3002 Y2.2801 Z.0391
N3240 X0. Y2.2997 Z.0313
N3250 X.3002 Y2.2801 Z.0234
N3260 X.5952 Y2.2214 Z.0156
N3270 X.8801 Y2.1247 Z.0078
N3280 X1.1499 Y1.9916 Z0.
;N3290 G2 X2.2997 Y0. I-1.1499 J-1.9916
;N3300 X0. Y-2.2997 I-2.2997 J0.
;N3310 X-2.2997 Y0. I0. J2.2997
;N3320 X0. Y2.2997 I2.2997 J0.
;N3330 X1.1499 Y1.9916 I0. J-2.2997
N3340 G1 X1.2314 Y2.1328
N3350 Z.2
N3360 G0 Z1.825
N3370 X-2.2917 Y0.
N3380 G1 Z1.625 ;F6.42
N3390 X-2.2721 Y.2991 Z1.6172
N3400 X-2.2137 Y.5931 Z1.6094
N3410 X-2.1173 Y.877 Z1.6016
N3420 X-1.9847 Y1.1459 Z1.5938
N3430 X-1.8182 Y1.3951 Z1.5859
N3440 X-1.6205 Y1.6205 Z1.5781
N3450 X-1.3951 Y1.8182 Z1.5703
N3460 X-1.1459 Y1.9847 Z1.5625
N3470 X-.877 Y2.1173 Z1.5547
N3480 X-.5931 Y2.2137 Z1.5469
N3490 X-.2991 Y2.2721 Z1.5391
N3500 X0. Y2.2917 Z1.5313
N3510 X.2991 Y2.2721 Z1.5234
N3520 X.5931 Y2.2137 Z1.5156
N3530 X.877 Y2.1173 Z1.5078
N3540 X1.1459 Y1.9847 Z1.5
N3550 X1.3951 Y1.8182 Z1.4922
N3560 X1.6205 Y1.6205 Z1.4844
N3570 X1.8182 Y1.3951 Z1.4766
N3580 X1.9847 Y1.1459 Z1.4688
N3590 X2.1173 Y.877 Z1.4609
N3600 X2.2137 Y.5931 Z1.4531
N3610 X2.2721 Y.2991 Z1.4453
N3620 X2.2917 Y0. Z1.4375
N3630 X2.2721 Y-.2991 Z1.4297
N3640 X2.2137 Y-.5931 Z1.4219
N3650 X2.1173 Y-.877 Z1.4141
N3660 X1.9847 Y-1.1459 Z1.4063
N3670 X1.8182 Y-1.3951 Z1.3984
N3680 X1.6205 Y-1.6205 Z1.3906
N3690 X1.3951 Y-1.8182 Z1.3828
N3700 X1.1459 Y-1.9847 Z1.375
N3710 X.877 Y-2.1173 Z1.3672
N3720 X.5931 Y-2.2137 Z1.3594
N3730 X.2991 Y-2.2721 Z1.3516
N3740 X0. Y-2.2917 Z1.3438
N3750 X-.2991 Y-2.2721 Z1.3359
N3760 X-.5931 Y-2.2137 Z1.3281
N3770 X-.877 Y-2.1173 Z1.3203
N3780 X-1.1459 Y-1.9847 Z1.3125
N3790 X-1.3951 Y-1.8182 Z1.3047
N3800 X-1.6205 Y-1.6205 Z1.2969
N3810 X-1.8182 Y-1.3951 Z1.2891
N3820 X-1.9847 Y-1.1459 Z1.2813
N3830 X-2.1173 Y-.877 Z1.2734
N3840 X-2.2137 Y-.5931 Z1.2656
N3850 X-2.2721 Y-.2991 Z1.2578
N3860 X-2.2917 Y0. Z1.25
N3870 X-2.2721 Y.2991 Z1.2422
N3880 X-2.2137 Y.5931 Z1.2344
N3890 X-2.1173 Y.877 Z1.2266
N3900 X-1.9847 Y1.1459 Z1.2188
N3910 X-1.8182 Y1.3951 Z1.2109
N3920 X-1.6205 Y1.6205 Z1.2031
N3930 X-1.3951 Y1.8182 Z1.1953
N3940 X-1.1459 Y1.9847 Z1.1875
N3950 X-.877 Y2.1173 Z1.1797
N3960 X-.5931 Y2.2137 Z1.1719
N3970 X-.2991 Y2.2721 Z1.1641
N3980 X0. Y2.2917 Z1.1563
N3990 X.2991 Y2.2721 Z1.1484
N4000 X.5931 Y2.2137 Z1.1406
N4010 X.877 Y2.1173 Z1.1328
N4020 X1.1459 Y1.9847 Z1.125
N4030 X1.3951 Y1.8182 Z1.1172
N4040 X1.6205 Y1.6205 Z1.1094
N4050 X1.8182 Y1.3951 Z1.1016
N4060 X1.9847 Y1.1459 Z1.0938
N4070 X2.1173 Y.877 Z1.0859
N4080 X2.2137 Y.5931 Z1.0781
N4090 X2.2721 Y.2991 Z1.0703
N4100 X2.2917 Y0. Z1.0625
N4110 X2.2721 Y-.2991 Z1.0547
N4120 X2.2137 Y-.5931 Z1.0469
N4130 X2.1173 Y-.877 Z1.0391
N4140 X1.9847 Y-1.1459 Z1.0313
N4150 X1.8182 Y-1.3951 Z1.0234
N4160 X1.6205 Y-1.6205 Z1.0156
N4170 X1.3951 Y-1.8182 Z1.0078
N4180 X1.1459 Y-1.9847 Z1.
N4190 X.877 Y-2.1173 Z.9922
N4200 X.5931 Y-2.2137 Z.9844
N4210 X.2991 Y-2.2721 Z.9766
N4220 X0. Y-2.2917 Z.9688
N4230 X-.2991 Y-2.2721 Z.9609
N4240 X-.5931 Y-2.2137 Z.9531
N4250 X-.877 Y-2.1173 Z.9453
N4260 X-1.1459 Y-1.9847 Z.9375
N4270 X-1.3951 Y-1.8182 Z.9297
N4280 X-1.6205 Y-1.6205 Z.9219
N4290 X-1.8182 Y-1.3951 Z.9141
N4300 X-1.9847 Y-1.1459 Z.9063
N4310 X-2.1173 Y-.877 Z.8984
N4320 X-2.2137 Y-.5931 Z.8906
N4330 X-2.2721 Y-.2991 Z.8828
N4340 X-2.2917 Y0. Z.875
N4350 X-2.2721 Y.2991 Z.8672
N4360 X-2.2137 Y.5931 Z.8594
N4370 X-2.1173 Y.877 Z.8516
N4380 X-1.9847 Y1.1459 Z.8438
N4390 X-1.8182 Y1.3951 Z.8359
N4400 X-1.6205 Y1.6205 Z.8281
N4410 X-1.3951 Y1.8182 Z.8203
N4420 X-1.1459 Y1.9847 Z.8125
N4430 X-.877 Y2.1173 Z.8047
N4440 X-.5931 Y2.2137 Z.7969
N4450 X-.2991 Y2.2721 Z.7891
N4460 X0. Y2.2917 Z.7813
N4470 X.2991 Y2.2721 Z.7734
N4480 X.5931 Y2.2137 Z.7656
N4490 X.877 Y2.1173 Z.7578
N4500 X1.1459 Y1.9847 Z.75
N4510 X1.3951 Y1.8182 Z.7422
N4520 X1.6205 Y1.6205 Z.7344
N4530 X1.8182 Y1.3951 Z.7266
N4540 X1.9847 Y1.1459 Z.7188
N4550 X2.1173 Y.877 Z.7109
N4560 X2.2137 Y.5931 Z.7031
N4570 X2.2721 Y.2991 Z.6953
N4580 X2.2917 Y0. Z.6875
N4590 X2.2721 Y-.2991 Z.6797
N4600 X2.2137 Y-.5931 Z.6719
N4610 X2.1173 Y-.877 Z.6641
N4620 X1.9847 Y-1.1459 Z.6563
N4630 X1.8182 Y-1.3951 Z.6484
N4640 X1.6205 Y-1.6205 Z.6406
N4650 X1.3951 Y-1.8182 Z.6328
N4660 X1.1459 Y-1.9847 Z.625
N4670 X.877 Y-2.1173 Z.6172
N4680 X.5931 Y-2.2137 Z.6094
N4690 X.2991 Y-2.2721 Z.6016
N4700 X0. Y-2.2917 Z.5938
N4710 X-.2991 Y-2.2721 Z.5859
N4720 X-.5931 Y-2.2137 Z.5781
N4730 X-.877 Y-2.1173 Z.5703
N4740 X-1.1459 Y-1.9847 Z.5625
N4750 X-1.3951 Y-1.8182 Z.5547
N4760 X-1.6205 Y-1.6205 Z.5469
N4770 X-1.8182 Y-1.3951 Z.5391
N4780 X-1.9847 Y-1.1459 Z.5313
N4790 X-2.1173 Y-.877 Z.5234
N4800 X-2.2137 Y-.5931 Z.5156
N4810 X-2.2721 Y-.2991 Z.5078
N4820 X-2.2917 Y0. Z.5
N4830 X-2.2721 Y.2991 Z.4922
N4840 X-2.2137 Y.5931 Z.4844
N4850 X-2.1173 Y.877 Z.4766
N4860 X-1.9847 Y1.1459 Z.4688
N4870 X-1.8182 Y1.3951 Z.4609
N4880 X-1.6205 Y1.6205 Z.4531
N4890 X-1.3951 Y1.8182 Z.4453
N4900 X-1.1459 Y1.9847 Z.4375
N4910 X-.877 Y2.1173 Z.4297
N4920 X-.5931 Y2.2137 Z.4219
N4930 X-.2991 Y2.2721 Z.4141
N4940 X0. Y2.2917 Z.4063
N4950 X.2991 Y2.2721 Z.3984
N4960 X.5931 Y2.2137 Z.3906
N4970 X.877 Y2.1173 Z.3828
N4980 X1.1459 Y1.9847 Z.375
N4990 X1.3951 Y1.8182 Z.3672
N5000 X1.6205 Y1.6205 Z.3594
N5010 X1.8182 Y1.3951 Z.3516
N5020 X1.9847 Y1.1459 Z.3438
N5030 X2.1173 Y.877 Z.3359
N5040 X2.2137 Y.5931 Z.3281
N5050 X2.2721 Y.2991 Z.3203
N5060 X2.2917 Y0. Z.3125
N5070 X2.2721 Y-.2991 Z.3047
N5080 X2.2137 Y-.5931 Z.2969
N5090 X2.1173 Y-.877 Z.2891
N5100 X1.9847 Y-1.1459 Z.2813
N5110 X1.8182 Y-1.3951 Z.2734
N5120 X1.6205 Y-1.6205 Z.2656
N5130 X1.3951 Y-1.8182 Z.2578
N5140 X1.1459 Y-1.9847 Z.25
N5150 X.877 Y-2.1173 Z.2422
N5160 X.5931 Y-2.2137 Z.2344
N5170 X.2991 Y-2.2721 Z.2266
N5180 X0. Y-2.2917 Z.2188
N5190 X-.2991 Y-2.2721 Z.2109
N5200 X-.5931 Y-2.2137 Z.2031
N5210 X-.877 Y-2.1173 Z.1953
N5220 X-1.1459 Y-1.9847 Z.1875
N5230 X-1.3951 Y-1.8182 Z.1797
N5240 X-1.6205 Y-1.6205 Z.1719
N5250 X-1.8182 Y-1.3951 Z.1641
N5260 X-1.9847 Y-1.1459 Z.1563
N5270 X-2.1173 Y-.877 Z.1484
N5280 X-2.2137 Y-.5931 Z.1406
N5290 X-2.2721 Y-.2991 Z.1328
N5300 X-2.2917 Y0. Z.125
N5310 X-2.2721 Y.2991 Z.1172
N5320 X-2.2137 Y.5931 Z.1094
N5330 X-2.1173 Y.877 Z.1016
N5340 X-1.9847 Y1.1459 Z.0938
N5350 X-1.8182 Y1.3951 Z.0859
N5360 X-1.6205 Y1.6205 Z.0781
N5370 X-1.3951 Y1.8182 Z.0703
N5380 X-1.1459 Y1.9847 Z.0625
N5390 X-.877 Y2.1173 Z.0547
N5400 X-.5931 Y2.2137 Z.0469
N5410 X-.2991 Y2.2721 Z.0391
N5420 X0. Y2.2917 Z.0313
N5430 X.2991 Y2.2721 Z.0234
N5440 X.5931 Y2.2137 Z.0156
N5450 X.877 Y2.1173 Z.0078
N5460 X1.1459 Y1.9847 Z0.
;N5470 G2 X2.2918 Y0. I-1.1459 J-1.9847
;N5480 X0. Y-2.2918 I-2.2918 J0.
;N5490 X-2.2917 Y0. I0. J2.2918
;N5500 X0. Y2.2917 I2.2917 J0.
;N5510 X1.1459 Y1.9847 I0. J-2.2917
N5520 G1 X1.2274 Y2.1259
N5530 Z.2
N5540 G0 Z1.825
N5550 X-2.2837 Y0.
N5560 G1 Z1.625 ;F6.42
N5570 X-2.2642 Y.2981 Z1.6172
N5580 X-2.2059 Y.5911 Z1.6094
N5590 X-2.1099 Y.874 Z1.6016
N5600 X-1.9778 Y1.1419 Z1.5938
N5610 X-1.8118 Y1.3903 Z1.5859
N5620 X-1.6149 Y1.6149 Z1.5781
N5630 X-1.3903 Y1.8118 Z1.5703
N5640 X-1.1419 Y1.9778 Z1.5625
N5650 X-.874 Y2.1099 Z1.5547
N5660 X-.5911 Y2.2059 Z1.5469
N5670 X-.2981 Y2.2642 Z1.5391
N5680 X0. Y2.2837 Z1.5313
N5690 X.2981 Y2.2642 Z1.5234
N5700 X.5911 Y2.2059 Z1.5156
N5710 X.874 Y2.1099 Z1.5078
N5720 X1.1419 Y1.9778 Z1.5
N5730 X1.3903 Y1.8118 Z1.4922
N5740 X1.6149 Y1.6149 Z1.4844
N5750 X1.8118 Y1.3903 Z1.4766
N5760 X1.9778 Y1.1419 Z1.4688
N5770 X2.1099 Y.874 Z1.4609
N5780 X2.2059 Y.5911 Z1.4531
N5790 X2.2642 Y.2981 Z1.4453
N5800 X2.2837 Y0. Z1.4375
N5810 X2.2642 Y-.2981 Z1.4297
N5820 X2.2059 Y-.5911 Z1.4219
N5830 X2.1099 Y-.874 Z1.4141
N5840 X1.9778 Y-1.1419 Z1.4063
N5850 X1.8118 Y-1.3903 Z1.3984
N5860 X1.6149 Y-1.6149 Z1.3906
N5870 X1.3903 Y-1.8118 Z1.3828
N5880 X1.1419 Y-1.9778 Z1.375
N5890 X.874 Y-2.1099 Z1.3672
N5900 X.5911 Y-2.2059 Z1.3594
N5910 X.2981 Y-2.2642 Z1.3516
N5920 X0. Y-2.2837 Z1.3438
N5930 X-.2981 Y-2.2642 Z1.3359
N5940 X-.5911 Y-2.2059 Z1.3281
N5950 X-.874 Y-2.1099 Z1.3203
N5960 X-1.1419 Y-1.9778 Z1.3125
N5970 X-1.3903 Y-1.8118 Z1.3047
N5980 X-1.6149 Y-1.6149 Z1.2969
N5990 X-1.8118 Y-1.3903 Z1.2891
N6000 X-1.9778 Y-1.1419 Z1.2813
N6010 X-2.1099 Y-.874 Z1.2734
N6020 X-2.2059 Y-.5911 Z1.2656
N6030 X-2.2642 Y-.2981 Z1.2578
N6040 X-2.2837 Y0. Z1.25
N6050 X-2.2642 Y.2981 Z1.2422
N6060 X-2.2059 Y.5911 Z1.2344
N6070 X-2.1099 Y.874 Z1.2266
N6080 X-1.9778 Y1.1419 Z1.2188
N6090 X-1.8118 Y1.3903 Z1.2109
N6100 X-1.6149 Y1.6149 Z1.2031
N6110 X-1.3903 Y1.8118 Z1.1953
N6120 X-1.1419 Y1.9778 Z1.1875
N6130 X-.874 Y2.1099 Z1.1797
N6140 X-.5911 Y2.2059 Z1.1719
N6150 X-.2981 Y2.2642 Z1.1641
N6160 X0. Y2.2837 Z1.1563
N6170 X.2981 Y2.2642 Z1.1484
N6180 X.5911 Y2.2059 Z1.1406
N6190 X.874 Y2.1099 Z1.1328
N6200 X1.1419 Y1.9778 Z1.125
N6210 X1.3903 Y1.8118 Z1.1172
N6220 X1.6149 Y1.6149 Z1.1094
N6230 X1.8118 Y1.3903 Z1.1016
N6240 X1.9778 Y1.1419 Z1.0938
N6250 X2.1099 Y.874 Z1.0859
N6260 X2.2059 Y.5911 Z1.0781
N6270 X2.2642 Y.2981 Z1.0703
N6280 X2.2837 Y0. Z1.0625
N6290 X2.2642 Y-.2981 Z1.0547
N6300 X2.2059 Y-.5911 Z1.0469
N6310 X2.1099 Y-.874 Z1.0391
N6320 X1.9778 Y-1.1419 Z1.0313
N6330 X1.8118 Y-1.3903 Z1.0234
N6340 X1.6149 Y-1.6149 Z1.0156
N6350 X1.3903 Y-1.8118 Z1.0078
N6360 X1.1419 Y-1.9778 Z1.
N6370 X.874 Y-2.1099 Z.9922
N6380 X.5911 Y-2.2059 Z.9844
N6390 X.2981 Y-2.2642 Z.9766
N6400 X0. Y-2.2837 Z.9688
N6410 X-.2981 Y-2.2642 Z.9609
N6420 X-.5911 Y-2.2059 Z.9531
N6430 X-.874 Y-2.1099 Z.9453
N6440 X-1.1419 Y-1.9778 Z.9375
N6450 X-1.3903 Y-1.8118 Z.9297
N6460 X-1.6149 Y-1.6149 Z.9219
N6470 X-1.8118 Y-1.3903 Z.9141
N6480 X-1.9778 Y-1.1419 Z.9063
N6490 X-2.1099 Y-.874 Z.8984
N6500 X-2.2059 Y-.5911 Z.8906
N6510 X-2.2642 Y-.2981 Z.8828
N6520 X-2.2837 Y0. Z.875
N6530 X-2.2642 Y.2981 Z.8672
N6540 X-2.2059 Y.5911 Z.8594
N6550 X-2.1099 Y.874 Z.8516
N6560 X-1.9778 Y1.1419 Z.8438
N6570 X-1.8118 Y1.3903 Z.8359
N6580 X-1.6149 Y1.6149 Z.8281
N6590 X-1.3903 Y1.8118 Z.8203
N6600 X-1.1419 Y1.9778 Z.8125
N6610 X-.874 Y2.1099 Z.8047
N6620 X-.5911 Y2.2059 Z.7969
N6630 X-.2981 Y2.2642 Z.7891
N6640 X0. Y2.2837 Z.7813
N6650 X.2981 Y2.2642 Z.7734
N6660 X.5911 Y2.2059 Z.7656
N6670 X.874 Y2.1099 Z.7578
N6680 X1.1419 Y1.9778 Z.75
N6690 X1.3903 Y1.8118 Z.7422
N6700 X1.6149 Y1.6149 Z.7344
N6710 X1.8118 Y1.3903 Z.7266
N6720 X1.9778 Y1.1419 Z.7188
N6730 X2.1099 Y.874 Z.7109
N6740 X2.2059 Y.5911 Z.7031
N6750 X2.2642 Y.2981 Z.6953
N6760 X2.2837 Y0. Z.6875
N6770 X2.2642 Y-.2981 Z.6797
N6780 X2.2059 Y-.5911 Z.6719
N6790 X2.1099 Y-.874 Z.6641
N6800 X1.9778 Y-1.1419 Z.6563
N6810 X1.8118 Y-1.3903 Z.6484
N6820 X1.6149 Y-1.6149 Z.6406
N6830 X1.3903 Y-1.8118 Z.6328
N6840 X1.1419 Y-1.9778 Z.625
N6850 X.874 Y-2.1099 Z.6172
N6860 X.5911 Y-2.2059 Z.6094
N6870 X.2981 Y-2.2642 Z.6016
N6880 X0. Y-2.2837 Z.5938
N6890 X-.2981 Y-2.2642 Z.5859
N6900 X-.5911 Y-2.2059 Z.5781
N6910 X-.874 Y-2.1099 Z.5703
N6920 X-1.1419 Y-1.9778 Z.5625
N6930 X-1.3903 Y-1.8118 Z.5547
N6940 X-1.6149 Y-1.6149 Z.5469
N6950 X-1.8118 Y-1.3903 Z.5391
N6960 X-1.9778 Y-1.1419 Z.5313
N6970 X-2.1099 Y-.874 Z.5234
N6980 X-2.2059 Y-.5911 Z.5156
N6990 X-2.2642 Y-.2981 Z.5078
N7000 X-2.2837 Y0. Z.5
N7010 X-2.2642 Y.2981 Z.4922
N7020 X-2.2059 Y.5911 Z.4844
N7030 X-2.1099 Y.874 Z.4766
N7040 X-1.9778 Y1.1419 Z.4688
N7050 X-1.8118 Y1.3903 Z.4609
N7060 X-1.6149 Y1.6149 Z.4531
N7070 X-1.3903 Y1.8118 Z.4453
N7080 X-1.1419 Y1.9778 Z.4375
N7090 X-.874 Y2.1099 Z.4297
N7100 X-.5911 Y2.2059 Z.4219
N7110 X-.2981 Y2.2642 Z.4141
N7120 X0. Y2.2837 Z.4063
N7130 X.2981 Y2.2642 Z.3984
N7140 X.5911 Y2.2059 Z.3906
N7150 X.874 Y2.1099 Z.3828
N7160 X1.1419 Y1.9778 Z.375
N7170 X1.3903 Y1.8118 Z.3672
N7180 X1.6149 Y1.6149 Z.3594
N7190 X1.8118 Y1.3903 Z.3516
N7200 X1.9778 Y1.1419 Z.3438
N7210 X2.1099 Y.874 Z.3359
N7220 X2.2059 Y.5911 Z.3281
N7230 X2.2642 Y.2981 Z.3203
N7240 X2.2837 Y0. Z.3125
N7250 X2.2642 Y-.2981 Z.3047
N7260 X2.2059 Y-.5911 Z.2969
N7270 X2.1099 Y-.874 Z.2891
N7280 X1.9778 Y-1.1419 Z.2813
N7290 X1.8118 Y-1.3903 Z.2734
N7300 X1.6149 Y-1.6149 Z.2656
N7310 X1.3903 Y-1.8118 Z.2578
N7320 X1.1419 Y-1.9778 Z.25
N7330 X.874 Y-2.1099 Z.2422
N7340 X.5911 Y-2.2059 Z.2344
N7350 X.2981 Y-2.2642 Z.2266
N7360 X0. Y-2.2837 Z.2188
N7370 X-.2981 Y-2.2642 Z.2109
N7380 X-.5911 Y-2.2059 Z.2031
N7390 X-.874 Y-2.1099 Z.1953
N7400 X-1.1419 Y-1.9778 Z.1875
N7410 X-1.3903 Y-1.8118 Z.1797
N7420 X-1.6149 Y-1.6149 Z.1719
N7430 X-1.8118 Y-1.3903 Z.1641
N7440 X-1.9778 Y-1.1419 Z.1563
N7450 X-2.1099 Y-.874 Z.1484
N7460 X-2.2059 Y-.5911 Z.1406
N7470 X-2.2642 Y-.2981 Z.1328
N7480 X-2.2837 Y0. Z.125
N7490 X-2.2642 Y.2981 Z.1172
N7500 X-2.2059 Y.5911 Z.1094
N7510 X-2.1099 Y.874 Z.1016
N7520 X-1.9778 Y1.1419 Z.0938
N7530 X-1.8118 Y1.3903 Z.0859
N7540 X-1.6149 Y1.6149 Z.0781
N7550 X-1.3903 Y1.8118 Z.0703
N7560 X-1.1419 Y1.9778 Z.0625
N7570 X-.874 Y2.1099 Z.0547
N7580 X-.5911 Y2.2059 Z.0469
N7590 X-.2981 Y2.2642 Z.0391
N7600 X0. Y2.2837 Z.0313
N7610 X.2981 Y2.2642 Z.0234
N7620 X.5911 Y2.2059 Z.0156
N7630 X.874 Y2.1099 Z.0078
N7640 X1.1419 Y1.9778 Z0.
;N7650 G2 X2.2838 Y0. I-1.1419 J-1.9778
;N7660 X0. Y-2.2838 I-2.2838 J0.
;N7670 X-2.2837 Y0. I0. J2.2838
;N7680 X0. Y2.2837 I2.2837 J0.
;N7690 X1.1419 Y1.9778 I0. J-2.2837
N7700 G1 X1.2234 Y2.1189
N7710 Z1.825
;N7720 M5
;N7730 G91 G0 G28 Z0.
;N7740 G28 X0. Y0. A0.
;N7750 M30
%
